apps/typegpu-docs/public/assets/cube-luts/Dramatic_BlockBuster_33.cube
TITLE "Generated by Resolve"
LUT_3D_SIZE 5
0.0512703 0.0925002 0.101839
0.135744 0.100832 0.0984512
0.622461 0.189792 0.13521
0.693278 0.205264 0.148684
0.693278 0.205264 0.148684
0.0450599 0.152422 0.0949569
0.100328 0.14229 0.0943465
0.645029 0.195575 0.138628
0.693401 0.20531 0.148684
0.694499 0.205768 0.148669
0.324239 0.457954 0.139116
0.376654 0.463096 0.151293
0.834669 0.422141 0.0451209
0.938994 0.466072 0.043595
0.942229 0.472465 0.0432288
0.271153 0.46891 0.136934
0.370642 0.481941 0.161852
0.888762 0.580026 0.047715
0.952743 0.540047 0.0431983
0.952743 0.540093 0.0431983
0.264195 0.469444 0.136294
0.395621 0.490364 0.169223
0.895354 0.576272 0.0470436
0.952743 0.540154 0.0431983
0.952743 0.540139 0.0431983
0.0517128 0.107805 0.125902
0.167285 0.108278 0.123766
0.619806 0.188724 0.135225
0.693248 0.205249 0.148684
0.693172 0.205219 0.148684
0.0434424 0.166155 0.161944
0.113802 0.157244 0.16788
0.641154 0.191455 0.141375
0.688807 0.202838 0.149401
0.686351 0.201282 0.150072
0.132799 0.457008 0.164813
0.193835 0.467567 0.158099
0.830884 0.467918 0.0437476
0.932174 0.496254 0.0432593
0.934554 0.50576 0.043534
0.0440681 0.461875 0.297856
0.102083 0.464286 0.233082
0.875807 0.640955 0.0488899
0.952224 0.57879 0.0435645
0.952209 0.579019 0.043595
0.0432136 0.484901 0.333074
0.105455 0.471046 0.246281
0.880446 0.640192 0.0489967
0.952209 0.57908 0.043595
0.952224 0.578943 0.0435798
0.0435645 0.227024 0.273564
0.0460212 0.192355 0.236561
0.583551 0.175189 0.152285
0.64567 0.186847 0.148241
0.646647 0.187289 0.148363
0.0437018 0.29398 0.344991
0.0437018 0.292866 0.343709
0.604303 0.184787 0.165423
0.65156 0.188388 0.154833
0.653254 0.189609 0.160601
0.0443275 0.603708 0.642329
0.0443122 0.601862 0.640284
0.715862 0.694789 0.671855
0.863645 0.671763 0.625696
0.867308 0.689815 0.645945
0.0444038 0.607477 0.667292
0.0443885 0.611566 0.666117
0.60734 0.79173 0.679423
0.947097 0.770016 0.524834
0.947021 0.770413 0.526146
0.0444038 0.607492 0.667735
0.0443885 0.612879 0.669154
0.61709 0.794934 0.685695
0.947051 0.770275 0.525658
0.947112 0.769985 0.524758
0.0437018 0.28336 0.342275
0.0437018 0.256916 0.315694
0.489265 0.19559 0.202335
0.615885 0.196414 0.184726
0.615228 0.196414 0.184833
0.0438697 0.351675 0.419135
0.0438697 0.351659 0.419226
0.517189 0.202548 0.206958
0.59588 0.196735 0.188785
0.596582 0.198001 0.190387
0.0444038 0.604791 0.666316
0.0443885 0.605203 0.668681
0.636835 0.70341 0.768246
0.788983 0.668437 0.720211
0.797909 0.685634 0.732433
0.0444038 0.607492 0.66775
0.0444038 0.611337 0.671229
0.527642 0.774395 0.812253
0.899428 0.854994 0.818784
0.899428 0.854994 0.818784
0.0444038 0.607492 0.66775
0.0444038 0.612253 0.672099
0.535119 0.775891 0.812619
0.899428 0.854994 0.818784
0.899428 0.854994 0.818784
0.0437018 0.283421 0.342351
0.0437018 0.256611 0.315465
0.496345 0.195819 0.201678
0.614847 0.196414 0.184909
0.61474 0.196414 0.184924
0.0438849 0.354376 0.422232
0.0438697 0.354437 0.422446
0.524651 0.202655 0.206104
0.59559 0.196948 0.18912
0.59762 0.198779 0.191257
0.0444038 0.605829 0.666896
0.0443885 0.606912 0.669856
0.650752 0.70959 0.770718
0.79202 0.674617 0.724743
0.800488 0.690623 0.735912
0.0444038 0.607492 0.66775
0.0444038 0.611505 0.671382
0.530419 0.774945 0.81239
0.899428 0.854994 0.818784
0.899428 0.854994 0.818784
0.0444038 0.607492 0.66775
0.0444038 0.612268 0.672114
0.534646 0.775784 0.812589
0.899428 0.854994 0.818784
0.899428 0.854994 0.818784
