apps/typegpu-docs/public/assets/cube-luts/Dramatic_BlockBuster_33.cube
TITLE "Generated by Resolve"
LUT_3D_SIZE 33
0.0512703 0.0925002 0.101839
0.0532387 0.092256 0.101854
0.0571908 0.0919051 0.101839
0.0627909 0.0915694 0.101869
0.0700542 0.0913405 0.101747
0.0792248 0.0914473 0.101472
0.0931258 0.0932021 0.10071
0.111864 0.0967269 0.0998245
0.135744 0.100832 0.0984512
0.16846 0.107134 0.0954757
0.213886 0.118379 0.0903334
0.272053 0.130663 0.0829023
0.339574 0.144442 0.0787976
0.410681 0.15848 0.08542
0.485786 0.168841 0.102403
0.558404 0.178286 0.120958
0.622461 0.189792 0.13521
0.672938 0.200702 0.144915
0.691783 0.204929 0.148394
0.693278 0.205264 0.148684
0.693278 0.205264 0.148684
0.693278 0.205264 0.148684
0.693278 0.205264 0.148684
0.693278 0.205264 0.148684
0.693278 0.205264 0.148684
0.693278 0.205264 0.148684
0.693278 0.205264 0.148684
0.693278 0.205264 0.148684
0.693278 0.205264 0.148684
0.693278 0.205264 0.148684
0.693278 0.205264 0.148684
0.693278 0.205264 0.148684
0.693278 0.205264 0.148684
0.0504616 0.093492 0.102434
0.0521859 0.0932631 0.102464
0.0559091 0.0928969 0.102403
0.0614023 0.0925002 0.102327
0.0687724 0.0921798 0.102129
0.0783093 0.0922103 0.101717
0.0927596 0.0938277 0.100832
0.112123 0.0971542 0.0998856
0.136736 0.101106 0.0983902
0.170321 0.107591 0.0953231
0.217182 0.119158 0.0898909
0.276875 0.131655 0.0823987
0.345495 0.145724 0.0787823
0.417945 0.159625 0.0867323
0.49427 0.169787 0.104662
0.567041 0.179614 0.123033
0.630701 0.191531 0.136828
0.67715 0.201648 0.145693
0.6925 0.205097 0.148547
0.693278 0.205264 0.148684
0.693278 0.205264 0.148684
0.693278 0.205264 0.148684
0.693278 0.205264 0.148684
0.693278 0.205264 0.148684
0.693278 0.205264 0.148684
0.693278 0.205264 0.148684
0.693278 0.205264 0.148684
0.693278 0.205264 0.148684
0.693278 0.205264 0.148684
0.693278 0.205264 0.148684
0.693278 0.205264 0.148684
0.693278 0.205264 0.148684
0.693278 0.205264 0.148684
0.049836 0.0949721 0.103197
0.0512703 0.0947585 0.103258
0.0543526 0.0944076 0.103136
0.0591592 0.0939803 0.102937
0.0661784 0.0936141 0.102724
0.0761883 0.0936141 0.102174
0.0914321 0.0949416 0.101076
0.111757 0.0978714 0.100023
0.137285 0.101488 0.0984054
0.171603 0.107942 0.0952163
0.21976 0.119722 0.0895399
0.280827 0.132433 0.0819715
0.3505 0.146761 0.0787823
0.424292 0.160571 0.0879072
0.501793 0.170596 0.106676
0.574594 0.180819 0.124834
0.637934 0.193088 0.138216
0.680705 0.202457 0.146349
0.693065 0.205219 0.148638
0.693278 0.205264 0.148684
0.693278 0.205264 0.148684
0.693278 0.205264 0.148684
0.693278 0.205264 0.148684
0.693278 0.205264 0.148684
0.693278 0.205264 0.148684
0.693278 0.205264 0.148684
0.693278 0.205264 0.148684
0.693278 0.205264 0.148684
0.693278 0.205264 0.148684
0.693278 0.205264 0.148684
0.693278 0.205264 0.148684
0.693278 0.205264 0.148684
0.693278 0.205264 0.148684
0.0492714 0.0971084 0.10396
0.0505531 0.096849 0.104067
0.0529946 0.0964065 0.103944
0.0567025 0.0958877 0.103517
0.0625162 0.0953841 0.103059
0.0725414 0.0953689 0.102464
0.0887922 0.0965896 0.101381
0.110704 0.0992599 0.100328
0.137407 0.102525 0.0986496
0.172396 0.108537 0.0952773
0.221698 0.120165 0.0893111
0.284016 0.133028 0.08159
0.354681 0.147677 0.0788891
0.429816 0.16144 0.0890211
0.508049 0.171374 0.108293
0.580987 0.181888 0.126329
0.643977 0.1944 0.139376
0.683207 0.203021 0.146792
0.693278 0.205264 0.148684
0.693278 0.205264 0.148684
0.693278 0.205264 0.148684
0.693278 0.205264 0.148684
0.693278 0.205264 0.148684
0.693278 0.205264 0.148684
0.693278 0.205264 0.148684
0.693278 0.205264 0.148684
0.693278 0.205264 0.148684
0.693278 0.205264 0.148684
0.693278 0.205264 0.148684
0.693278 0.205264 0.148684
0.693278 0.205264 0.148684
0.693278 0.205264 0.148684
0.693278 0.205264 0.148684
0.0486458 0.101717 0.103899
0.0498512 0.101289 0.104158
0.052018 0.100435 0.104326
0.0547799 0.0995804 0.103868
0.0587625 0.0986191 0.103075
0.0672923 0.0978866 0.102419
0.0835279 0.0987716 0.101366
0.107424 0.101701 0.100603
0.136431 0.104997 0.0992447
0.172625 0.109895 0.0956893
0.222843 0.120699 0.0892958
0.28603 0.13344 0.0813001
0.357473 0.148348 0.078996
0.433845 0.162081 0.0898756
0.512596 0.171984 0.109453
0.585672 0.182712 0.127413
0.648203 0.195285 0.140215
0.684627 0.203342 0.147051
0.693278 0.205264 0.148684
0.693278 0.205264 0.148684
0.693278 0.205264 0.148684
0.693278 0.205264 0.148684
0.693278 0.205264 0.148684
0.693278 0.205264 0.148684
0.693278 0.205264 0.148684
0.693278 0.205264 0.148684
0.693278 0.205264 0.148684
0.693278 0.205264 0.148684
0.693278 0.205264 0.148684
0.693278 0.205264 0.148684
0.693278 0.205264 0.148684
0.693278 0.205264 0.148684
0.693278 0.205264 0.148684
0.0480201 0.10927 0.10312
0.0490883 0.108858 0.103395
0.0513161 0.107713 0.103868
0.0540322 0.106493 0.103761
0.0572213 0.105257 0.102998
0.0631266 0.103761 0.102159
0.0764935 0.103197 0.101061
0.10045 0.10518 0.100343
0.132677 0.10898 0.0999008
0.172152 0.11339 0.0968032
0.224155 0.122637 0.0897993
0.28748 0.134356 0.0813306
0.358541 0.148821 0.079057
0.435248 0.16231 0.0902266
0.514427 0.172213 0.109941
0.587625 0.183078 0.12784
0.649989 0.195666 0.140551
0.685206 0.203464 0.147173
0.693263 0.205264 0.148684
0.693278 0.205264 0.148684
0.693278 0.205264 0.148684
0.693278 0.205264 0.148684
0.693278 0.205264 0.148684
0.693278 0.205264 0.148684
0.693278 0.205264 0.148684
0.693278 0.205264 0.148684
0.693278 0.205264 0.148684
0.693278 0.205264 0.148684
0.693278 0.205264 0.148684
0.693278 0.205264 0.148684
0.693278 0.205264 0.148684
0.693278 0.205264 0.148684
0.693278 0.205264 0.148684
0.0468757 0.120226 0.101244
0.0476387 0.12015 0.101411
0.0498207 0.119158 0.102083
0.052903 0.117739 0.102663
0.0565194 0.116243 0.102556
0.0610666 0.114458 0.101839
0.06981 0.112642 0.100679
0.0909133 0.111437 0.0988937
0.125994 0.113695 0.0989395
0.169741 0.11873 0.0976272
0.225818 0.126772 0.0906539
0.290242 0.136919 0.0815595
0.359716 0.149844 0.079057
0.434928 0.162387 0.0900893
0.513558 0.172107 0.109712
0.586572 0.18291 0.127581
0.648936 0.195438 0.140352
0.684794 0.203372 0.147097
0.693233 0.205249 0.148669
0.693278 0.205264 0.148684
0.693278 0.205264 0.148684
0.693278 0.205264 0.148684
0.693278 0.205264 0.148684
0.693278 0.205264 0.148684
0.693278 0.205264 0.148684
0.693278 0.205264 0.148684
0.693278 0.205264 0.148684
0.693278 0.205264 0.148684
0.693278 0.205264 0.148684
0.693278 0.205264 0.148684
0.693278 0.205264 0.148684
0.693278 0.205264 0.148684
0.693278 0.205264 0.148684
0.0450599 0.134798 0.0977188
0.045655 0.135256 0.0978561
0.0473945 0.134936 0.0986343
0.0501869 0.134005 0.0998398
0.054139 0.132692 0.100877
0.0589914 0.130968 0.101244
0.0653544 0.128939 0.10013
0.0796521 0.125994 0.0977951
0.114611 0.122148 0.0957809
0.163729 0.124544 0.0956893
0.22533 0.131609 0.0902266
0.29575 0.140551 0.0810407
0.36672 0.152178 0.079118
0.438636 0.163348 0.0904707
0.512657 0.172122 0.109346
0.583307 0.182361 0.126802
0.645457 0.194705 0.139666
0.683467 0.203082 0.146838
0.693187 0.205249 0.148669
0.693278 0.205264 0.148684
0.693278 0.205264 0.148684
0.693278 0.205264 0.148684
0.693278 0.205264 0.148684
0.693278 0.205264 0.148684
0.693278 0.205264 0.148684
0.693278 0.205264 0.148684
0.693278 0.205264 0.148684
0.693278 0.205264 0.148684
0.693278 0.205264 0.148684
0.693294 0.205264 0.148684
0.693294 0.205264 0.148684
0.693294 0.205264 0.148684
0.693294 0.205264 0.148684
0.0450599 0.152422 0.0949569
0.0455177 0.153567 0.0951553
0.0465095 0.154223 0.0957351
0.0482948 0.154498 0.0969253
0.0515297 0.154589 0.0989395
0.0569467 0.153857 0.100832
0.0635233 0.151919 0.100221
0.073991 0.148867 0.0975052
0.100328 0.14229 0.0943465
0.151049 0.135592 0.0918746
0.221042 0.139116 0.0869917
0.301549 0.148486 0.0786145
0.379156 0.158892 0.0782483
0.451667 0.168002 0.0914321
0.521691 0.175494 0.109895
0.587289 0.184741 0.126177
0.645029 0.195575 0.138628
0.682033 0.203143 0.146181
0.692866 0.20528 0.148501
0.693355 0.205295 0.148684
0.693309 0.20528 0.148684
0.693324 0.20528 0.148684
0.693339 0.205295 0.148684
0.693355 0.205295 0.148684
0.693401 0.20531 0.148684
0.693538 0.205371 0.148684
0.693797 0.205478 0.148684
0.694102 0.205615 0.148669
0.694392 0.205737 0.148669
0.694499 0.205768 0.148669
0.694499 0.205768 0.148669
0.694499 0.205768 0.148669
0.694499 0.205768 0.148669
0.0449989 0.1785 0.0937972
0.0451057 0.180407 0.0936904
0.0453956 0.181659 0.0936904
0.0461585 0.182681 0.0942397
0.0485847 0.183764 0.0959335
0.0551156 0.183871 0.0983444
0.0644541 0.181949 0.0988632
0.0758373 0.178149 0.0962234
0.0971695 0.171786 0.0939193
0.136995 0.160693 0.0931411
0.209796 0.153231 0.0844434
0.302464 0.160159 0.073518
0.393637 0.17322 0.0737621
0.475212 0.182864 0.0887922
0.545998 0.189181 0.10811
0.605173 0.19556 0.123919
0.654047 0.20209 0.136385
0.685908 0.206409 0.144671
0.696971 0.207599 0.147921
0.698054 0.207462 0.14847
0.698024 0.207401 0.148516
0.698329 0.207492 0.148531
0.698848 0.207706 0.148531
0.699779 0.208148 0.14847
0.701091 0.20882 0.148363
0.702632 0.209613 0.148241
0.704326 0.210468 0.148104
0.706065 0.211414 0.147921
0.707805 0.212482 0.147631
0.708431 0.212879 0.147524
0.708431 0.212879 0.147524
0.708431 0.212879 0.147524
0.708431 0.212879 0.147524
0.0455177 0.212512 0.0901198
0.0456092 0.215106 0.0896773
0.045716 0.216892 0.0892195
0.0461738 0.218479 0.0890516
0.0478523 0.220493 0.089601
0.0541238 0.222126 0.0910811
0.0697032 0.220493 0.0923323
0.0883497 0.21561 0.0920272
0.111849 0.20827 0.0924392
0.145174 0.197116 0.096376
0.202426 0.182208 0.0873426
0.296315 0.176318 0.068452
0.40444 0.188617 0.0661173
0.50219 0.204257 0.0825208
0.580865 0.215183 0.101244
0.639887 0.222477 0.115938
0.683955 0.225971 0.128511
0.711452 0.225925 0.13814
0.722194 0.224277 0.143221
0.722103 0.222126 0.144884
0.72018 0.220691 0.145342
0.719661 0.220249 0.145495
0.720333 0.22063 0.145434
0.722087 0.221759 0.145129
0.724651 0.223484 0.14464
0.727779 0.225696 0.143984
0.731273 0.22829 0.143206
0.734844 0.231022 0.142351
0.738323 0.233768 0.141482
0.73959 0.23476 0.141146
0.73959 0.23476 0.141146
0.73959 0.23476 0.141146
0.73959 0.23476 0.141146
0.0468605 0.254536 0.0827802
0.0474403 0.257389 0.0821088
0.0479591 0.259434 0.0813916
0.0487526 0.26096 0.0806744
0.05037 0.262165 0.0799573
0.0559396 0.263325 0.0792096
0.0767376 0.263127 0.0801099
0.112337 0.258824 0.0856184
0.147448 0.248951 0.0930648
0.181918 0.237217 0.0983139
0.225772 0.225086 0.0904707
0.294957 0.206867 0.0719615
0.405783 0.205066 0.0629129
0.522789 0.222797 0.0759899
0.615259 0.243275 0.0927749
0.681285 0.258289 0.10425
0.727108 0.265812 0.114244
0.75378 0.265446 0.123522
0.764691 0.26096 0.130434
0.763851 0.256016 0.133715
0.760616 0.252934 0.13489
0.759609 0.252018 0.135225
0.760601 0.252872 0.13492
0.763287 0.25539 0.134005
0.767056 0.258991 0.132662
0.771328 0.263081 0.131151
0.775845 0.26743 0.129534
0.780331 0.271885 0.12784
0.784588 0.276295 0.126116
0.786099 0.277882 0.12549
0.786099 0.277882 0.12549
0.786099 0.277882 0.12549
0.786099 0.277882 0.12549
0.0584878 0.304707 0.0728313
0.0610971 0.307912 0.0722667
0.0636912 0.309865 0.0716564
0.0659342 0.310857 0.0709544
0.0682078 0.310872 0.0701305
0.0746166 0.310475 0.0693065
0.0964218 0.310048 0.0708476
0.143938 0.306645 0.0816358
0.197711 0.296391 0.0976577
0.242023 0.286122 0.0998398
0.283925 0.279805 0.0858625
0.333318 0.263066 0.0745098
0.416678 0.240208 0.0597086
0.533532 0.242374 0.0679332
0.64033 0.265812 0.0847944
0.717311 0.290211 0.0933394
0.769085 0.307088 0.0986496
0.79855 0.313207 0.104189
0.811139 0.311223 0.109911
0.812131 0.306722 0.113527
0.80975 0.303532 0.115038
0.808972 0.302586 0.11545
0.810162 0.303807 0.114961
0.813001 0.30695 0.113634
0.8168 0.311223 0.111818
0.820798 0.315801 0.109834
0.824857 0.320455 0.107805
0.82884 0.325093 0.10576
0.832593 0.329564 0.103761
0.833936 0.331151 0.103044
0.833936 0.331151 0.103044
0.833936 0.331151 0.103044
0.833936 0.331151 0.103044
0.106996 0.353384 0.0715953
0.111864 0.356283 0.0721599
0.116213 0.357992 0.0725109
0.119707 0.358679 0.0726482
0.122393 0.358358 0.0725109
0.127565 0.357275 0.0726482
0.142992 0.355795 0.0751049
0.184466 0.353155 0.0872816
0.247272 0.347478 0.108309
0.306722 0.344076 0.107637
0.358068 0.342947 0.0823529
0.405615 0.335058 0.0691234
0.468818 0.306813 0.0543832
0.554742 0.282353 0.055314
0.655055 0.289204 0.0726635
0.741329 0.315099 0.0827802
0.801678 0.340734 0.0844587
0.837079 0.35613 0.0850385
0.852323 0.360159 0.0873121
0.855756 0.358526 0.0897993
0.854704 0.356222 0.0912337
0.854109 0.355581 0.0915541
0.855085 0.356756 0.0909743
0.857343 0.359411 0.0896773
0.860365 0.363012 0.0879225
0.863615 0.366918 0.0859846
0.866896 0.370871 0.0840009
0.8701 0.374731 0.0820478
0.873014 0.378302 0.0802167
0.874037 0.379553 0.0795605
0.874037 0.379553 0.0795605
0.874037 0.379553 0.0795605
0.874037 0.379553 0.0795605
0.186099 0.394354 0.0883955
0.192111 0.396719 0.0901656
0.197101 0.398154 0.0914931
0.200916 0.398718 0.0923323
0.203571 0.398383 0.092668
0.206027 0.397116 0.0928054
0.212451 0.395026 0.0941329
0.239399 0.393286 0.103471
0.29485 0.393835 0.122759
0.36466 0.401633 0.120348
0.430564 0.408438 0.0817731
0.485237 0.409033 0.0578775
0.54255 0.388205 0.0491798
0.605219 0.353628 0.0466163
0.675013 0.331182 0.0559548
0.752758 0.339574 0.0676738
0.820493 0.366293 0.0702831
0.863737 0.389013 0.0675517
0.884581 0.399863 0.0662699
0.891615 0.402319 0.0668956
0.891859 0.401282 0.0678874
0.891325 0.400687 0.0682078
0.892042 0.401587 0.0677043
0.893797 0.403647 0.0665751
0.896178 0.40647 0.0650492
0.89868 0.409522 0.0634165
0.901122 0.412558 0.0618143
0.903456 0.415488 0.0602426
0.905608 0.418204 0.0587625
0.906371 0.41915 0.0582437
0.906371 0.41915 0.0582437
0.906371 0.41915 0.0582437
0.906371 0.41915 0.0582437
0.268254 0.430167 0.116243
0.273732 0.432395 0.118257
0.278019 0.433738 0.119677
0.281132 0.434272 0.120516
0.283055 0.433982 0.120775
0.283742 0.432654 0.120409
0.285313 0.430411 0.12018
0.300679 0.429358 0.125292
0.343221 0.433906 0.13872
0.415152 0.452506 0.134951
0.4907 0.469718 0.0884718
0.550317 0.478004 0.0535134
0.603586 0.467079 0.046479
0.660792 0.437995 0.0455634
0.712139 0.401053 0.0462348
0.766125 0.379171 0.0514534
0.827298 0.389395 0.0543984
0.876738 0.41297 0.05243
0.905119 0.429541 0.0503548
0.917647 0.436622 0.0498207
0.920119 0.437339 0.0501106
0.919814 0.436759 0.0503395
0.920226 0.437263 0.0500954
0.921279 0.438666 0.0495613
0.922728 0.44062 0.0488899
0.924285 0.442756 0.0482032
0.925795 0.444892 0.0475166
0.927245 0.446952 0.0468605
0.928588 0.44889 0.0462501
0.929076 0.449577 0.0460212
0.929076 0.449577 0.0460212
0.929076 0.449577 0.0460212
0.929076 0.449577 0.0460212
0.324239 0.457954 0.139116
0.325704 0.458839 0.139818
0.327001 0.459251 0.140246
0.328527 0.459388 0.140551
0.329961 0.459113 0.140642
0.330831 0.458091 0.140261
0.332708 0.45658 0.139956
0.343175 0.456321 0.142748
0.376654 0.463096 0.151293
0.447074 0.488228 0.148379
0.530007 0.516884 0.102861
0.592859 0.533883 0.0581369
0.64419 0.536065 0.0456245
0.69897 0.515648 0.0463111
0.74818 0.480217 0.0456245
0.789715 0.440543 0.04477
0.834669 0.422141 0.0451209
0.880186 0.432624 0.0447242
0.914061 0.450507 0.0440375
0.932021 0.461311 0.0437476
0.937438 0.464118 0.0437629
0.937804 0.463828 0.0438087
0.937835 0.46389 0.0437629
0.938277 0.464744 0.0436866
0.938994 0.466072 0.043595
0.939803 0.467582 0.0435035
0.940612 0.469123 0.0434119
0.941375 0.470619 0.0433204
0.942016 0.471992 0.0432441
0.942229 0.472465 0.0432288
0.942229 0.472465 0.0432288
0.942229 0.472465 0.0432288
0.942229 0.472465 0.0432288
0.329549 0.467216 0.144793
0.328847 0.467262 0.144717
0.329061 0.467201 0.144717
0.33022 0.467155 0.144869
0.332219 0.467048 0.145098
0.335058 0.466728 0.145342
0.339818 0.466407 0.145922
0.350423 0.467124 0.148379
0.383429 0.475624 0.156466
0.45658 0.505257 0.157733
0.550347 0.546105 0.119249
0.618662 0.572213 0.068101
0.669764 0.586038 0.0469368
0.720928 0.576959 0.0456703
0.770947 0.546777 0.047013
0.813443 0.507591 0.0454871
0.849989 0.471092 0.0436561
0.8851 0.458793 0.0432288
0.91783 0.468574 0.0431983
0.938338 0.480217 0.0431983
0.945464 0.484749 0.0431983
0.946471 0.484825 0.0431983
0.946426 0.484581 0.0431983
0.946548 0.485084 0.0431983
0.946777 0.486076 0.0431983
0.947051 0.487251 0.0431983
0.947341 0.488426 0.0431983
0.947585 0.489555 0.0431983
0.947784 0.490578 0.0431983
0.947845 0.490944 0.0431983
0.947845 0.490944 0.0431983
0.947845 0.490944 0.0431983
0.947845 0.490944 0.0431983
0.313237 0.467689 0.142611
0.312734 0.467689 0.14255
0.313359 0.467689 0.142641
0.31487 0.467658 0.142855
0.317433 0.467613 0.143206
0.321447 0.467567 0.143786
0.32755 0.467582 0.144732
0.33756 0.468147 0.1467
0.371267 0.476066 0.155962
0.444831 0.504692 0.163622
0.54728 0.552422 0.134432
0.62504 0.586862 0.0783093
0.680247 0.610178 0.0490578
0.73138 0.614954 0.0449683
0.783734 0.595468 0.0466926
0.829313 0.563699 0.0474861
0.865934 0.525093 0.0451057
0.895872 0.497017 0.0434272
0.923049 0.491356 0.0431983
0.942092 0.497475 0.0431983
0.948867 0.501961 0.0431983
0.94966 0.502113 0.0431983
0.949615 0.501503 0.0431983
0.94963 0.501686 0.0431983
0.949722 0.502403 0.0431983
0.949828 0.503319 0.0431983
0.949935 0.50425 0.0431983
0.950057 0.505165 0.0431983
0.950149 0.506004 0.0431983
0.950179 0.506294 0.0431983
0.950179 0.506294 0.0431983
0.950179 0.506294 0.0431983
0.950179 0.506294 0.0431983
0.298711 0.467994 0.140597
0.29868 0.467994 0.140581
0.299596 0.467979 0.140719
0.301366 0.467933 0.140963
0.304204 0.467872 0.14136
0.308553 0.467765 0.141955
0.314931 0.467658 0.14287
0.324575 0.467857 0.144549
0.359106 0.474861 0.154726
0.430747 0.500237 0.166995
0.536583 0.549432 0.145235
0.622385 0.588754 0.0849775
0.680964 0.61593 0.0504005
0.733135 0.627924 0.0449531
0.788174 0.617807 0.0459449
0.836271 0.59469 0.0489509
0.875776 0.565301 0.0473182
0.906828 0.535958 0.0442054
0.929946 0.519249 0.0432593
0.945266 0.516075 0.0431983
0.950881 0.517525 0.0431983
0.951492 0.517098 0.0431983
0.951415 0.515984 0.0431983
0.9514 0.515801 0.0431983
0.951461 0.516243 0.0431983
0.951553 0.51693 0.0431983
0.951629 0.517647 0.0431983
0.95169 0.518395 0.0431983
0.951751 0.519036 0.0431983
0.951782 0.519265 0.0431983
0.951782 0.519265 0.0431983
0.951782 0.519265 0.0431983
0.951782 0.519265 0.0431983
0.287785 0.468284 0.139086
0.288167 0.468269 0.139132
0.289403 0.468238 0.139315
0.291539 0.468193 0.139605
0.294713 0.468101 0.140047
0.299443 0.467964 0.140703
0.306157 0.467811 0.141619
0.317403 0.468162 0.143755
0.353902 0.475074 0.154833
0.426246 0.499672 0.16849
0.533471 0.549279 0.150561
0.621515 0.589807 0.0905318
0.681102 0.617548 0.0521859
0.733577 0.630594 0.0449989
0.789319 0.622934 0.0457618
0.838163 0.603281 0.0494087
0.879118 0.58056 0.0484321
0.912291 0.556756 0.0448463
0.934661 0.540169 0.0433814
0.947478 0.533165 0.0431983
0.951949 0.531075 0.0431983
0.952453 0.529366 0.0431983
0.952407 0.527855 0.0431983
0.952392 0.527367 0.0431983
0.952407 0.52755 0.0431983
0.952438 0.528023 0.0431983
0.952468 0.528572 0.0431983
0.952483 0.529076 0.0431983
0.952499 0.529503 0.0431983
0.952514 0.529641 0.0431983
0.952514 0.529641 0.0431983
0.952514 0.529641 0.0431983
0.952514 0.529641 0.0431983
0.280415 0.468482 0.138079
0.281193 0.468452 0.138186
0.28275 0.468421 0.138399
0.285191 0.46836 0.138735
0.288746 0.468254 0.139223
0.293828 0.468116 0.139925
0.300908 0.467933 0.140887
0.314351 0.468605 0.143725
0.353597 0.476066 0.155703
0.428977 0.501701 0.169955
0.537301 0.551934 0.152087
0.623957 0.591928 0.0930037
0.683497 0.619745 0.0531014
0.735973 0.632258 0.0449073
0.791485 0.624033 0.0458228
0.840085 0.60444 0.0492561
0.880598 0.582864 0.0484321
0.913954 0.561532 0.0449836
0.936233 0.547372 0.0434119
0.948363 0.541588 0.0431983
0.9523 0.539239 0.0431983
0.952697 0.537438 0.0431983
0.952682 0.536126 0.0431983
0.952667 0.535561 0.0431983
0.952667 0.535561 0.0431983
0.952682 0.535821 0.0431983
0.952682 0.536126 0.0431983
0.952682 0.536431 0.0431983
0.952697 0.536675 0.0431983
0.952697 0.536751 0.0431983
0.952697 0.536751 0.0431983
0.952697 0.536751 0.0431983
0.952697 0.536751 0.0431983
0.275898 0.46865 0.137484
0.277058 0.468605 0.137636
0.278904 0.468528 0.137865
0.281559 0.468452 0.138231
0.285435 0.468345 0.138766
0.290852 0.468208 0.139513
0.298268 0.468009 0.140536
0.314321 0.469139 0.144244
0.356985 0.477607 0.157259
0.436683 0.505455 0.171603
0.545312 0.556039 0.1505
0.629068 0.594766 0.0907301
0.687648 0.621897 0.0523537
0.739803 0.633356 0.044831
0.79501 0.623972 0.0460059
0.843183 0.604181 0.0491646
0.882872 0.582635 0.0482032
0.915557 0.561517 0.0448615
0.937087 0.54815 0.0433814
0.948791 0.54342 0.0431983
0.952468 0.541695 0.0431983
0.952743 0.540475 0.0431983
0.952743 0.53962 0.0431983
0.952743 0.539208 0.0431983
0.952743 0.539132 0.0431983
0.952743 0.539208 0.0431983
0.952743 0.539315 0.0431983
0.952743 0.539422 0.0431983
0.952743 0.539513 0.0431983
0.952743 0.539544 0.0431983
0.952743 0.539544 0.0431983
0.952743 0.539544 0.0431983
0.952743 0.539544 0.0431983
0.273213 0.468788 0.137163
0.274617 0.468711 0.137331
0.276646 0.468605 0.137575
0.27953 0.468513 0.137957
0.283635 0.468391 0.138506
0.289403 0.468238 0.139315
0.297246 0.468055 0.140414
0.316701 0.469841 0.145296
0.363073 0.479561 0.159426
0.448066 0.510826 0.171893
0.556313 0.56144 0.146304
0.635935 0.598245 0.0865644
0.692882 0.624109 0.051133
0.744656 0.633951 0.0448005
0.79939 0.623072 0.0462959
0.846891 0.603052 0.0492256
0.885832 0.581521 0.0479591
0.917601 0.560723 0.0446937
0.938125 0.548058 0.0433509
0.949172 0.543648 0.0431983
0.952544 0.542031 0.0431983
0.952743 0.540978 0.0431983
0.952743 0.540307 0.0431983
0.952743 0.539986 0.0431983
0.952743 0.539895 0.0431983
0.952743 0.53991 0.0431983
0.952743 0.53994 0.0431983
0.952743 0.539971 0.0431983
0.952743 0.540002 0.0431983
0.952743 0.540002 0.0431983
0.952743 0.540002 0.0431983
0.952743 0.540002 0.0431983
0.952743 0.540002 0.0431983
0.271153 0.46891 0.136934
0.272725 0.468818 0.137118
0.274937 0.468696 0.137377
0.278035 0.468574 0.137774
0.282383 0.468421 0.138338
0.288457 0.468254 0.139178
0.296849 0.468101 0.140398
0.319921 0.470588 0.146532
0.370642 0.481941 0.161852
0.460761 0.516823 0.171679
0.567758 0.567041 0.141268
0.642985 0.601846 0.0823377
0.698283 0.626368 0.0500191
0.750149 0.634043 0.04477
0.804257 0.621668 0.0466011
0.850782 0.601587 0.0493172
0.888762 0.580026 0.047715
0.919539 0.559701 0.0445411
0.939208 0.547784 0.0433356
0.949523 0.543679 0.0431983
0.952575 0.542107 0.0431983
0.952743 0.54107 0.0431983
0.952743 0.540429 0.0431983
0.952743 0.540124 0.0431983
0.952743 0.540047 0.0431983
0.952743 0.540047 0.0431983
0.952743 0.540063 0.0431983
0.952743 0.540078 0.0431983
0.952743 0.540093 0.0431983
0.952743 0.540093 0.0431983
0.952743 0.540093 0.0431983
0.952743 0.540093 0.0431983
0.952743 0.540093 0.0431983
0.269245 0.469047 0.136751
0.271031 0.468925 0.136934
0.273442 0.468788 0.137209
0.276707 0.468635 0.137606
0.281315 0.468467 0.138201
0.287678 0.468269 0.139055
0.296574 0.468162 0.140398
0.323095 0.471366 0.147738
0.378164 0.484367 0.164233
0.47245 0.522301 0.171603
0.57705 0.571527 0.136507
0.64863 0.604715 0.0783856
0.702937 0.628077 0.0490272
0.755154 0.633829 0.0447547
0.80853 0.620386 0.0468605
0.854017 0.600244 0.0493324
0.891188 0.578637 0.0474861
0.921141 0.55877 0.044419
0.940124 0.547539 0.0433051
0.949813 0.543679 0.0431983
0.952605 0.542138 0.0431983
0.952758 0.541115 0.0431983
0.952743 0.540475 0.0431983
0.952743 0.540185 0.0431983
0.952743 0.540108 0.0431983
0.952743 0.540108 0.0431983
0.952743 0.540124 0.0431983
0.952743 0.540124 0.0431983
0.952743 0.540139 0.0431983
0.952743 0.540139 0.0431983
0.952743 0.540139 0.0431983
0.952743 0.540139 0.0431983
0.952743 0.540139 0.0431983
0.26746 0.469184 0.136584
0.269444 0.469047 0.136782
0.272023 0.468879 0.137041
0.275502 0.468681 0.137453
0.280385 0.468482 0.138079
0.287022 0.468284 0.138979
0.296498 0.468238 0.140459
0.326299 0.472221 0.148974
0.384863 0.486534 0.166384
0.482185 0.526879 0.170993
0.584405 0.575082 0.132006
0.653117 0.606958 0.0748455
0.706722 0.629206 0.0481727
0.759182 0.633524 0.0447547
0.812039 0.619348 0.0470436
