apps/typegpu-docs/public/assets/cube-luts/Dramatic_BlockBuster_33.cube
TITLE "Generated by Resolve"
LUT_3D_SIZE 9
0.0512703 0.0925002 0.101839
0.0700542 0.0913405 0.101747
0.135744 0.100832 0.0984512
0.339574 0.144442 0.0787976
0.622461 0.189792 0.13521
0.693278 0.205264 0.148684
0.693278 0.205264 0.148684
0.693278 0.205264 0.148684
0.693278 0.205264 0.148684
0.0486458 0.101717 0.103899
0.0587625 0.0986191 0.103075
0.136431 0.104997 0.0992447
0.357473 0.148348 0.078996
0.648203 0.195285 0.140215
0.693278 0.205264 0.148684
0.693278 0.205264 0.148684
0.693278 0.205264 0.148684
0.693278 0.205264 0.148684
0.0450599 0.152422 0.0949569
0.0515297 0.154589 0.0989395
0.100328 0.14229 0.0943465
0.379156 0.158892 0.0782483
0.645029 0.195575 0.138628
0.693309 0.20528 0.148684
0.693401 0.20531 0.148684
0.694392 0.205737 0.148669
0.694499 0.205768 0.148669
0.0584878 0.304707 0.0728313
0.0682078 0.310872 0.0701305
0.197711 0.296391 0.0976577
0.416678 0.240208 0.0597086
0.769085 0.307088 0.0986496
0.80975 0.303532 0.115038
0.8168 0.311223 0.111818
0.832593 0.329564 0.103761
0.833936 0.331151 0.103044
0.324239 0.457954 0.139116
0.329961 0.459113 0.140642
0.376654 0.463096 0.151293
0.64419 0.536065 0.0456245
0.834669 0.422141 0.0451209
0.937438 0.464118 0.0437629
0.938994 0.466072 0.043595
0.942016 0.471992 0.0432441
0.942229 0.472465 0.0432288
0.287785 0.468284 0.139086
0.294713 0.468101 0.140047
0.353902 0.475074 0.154833
0.681102 0.617548 0.0521859
0.879118 0.58056 0.0484321
0.951949 0.531075 0.0431983
0.952407 0.52755 0.0431983
0.952499 0.529503 0.0431983
0.952514 0.529641 0.0431983
0.271153 0.46891 0.136934
0.282383 0.468421 0.138338
0.370642 0.481941 0.161852
0.698283 0.626368 0.0500191
0.888762 0.580026 0.047715
0.952575 0.542107 0.0431983
0.952743 0.540047 0.0431983
0.952743 0.540093 0.0431983
0.952743 0.540093 0.0431983
0.264607 0.469413 0.136339
0.278965 0.468559 0.137896
0.394369 0.489845 0.168994
0.711482 0.630594 0.0473793
0.895201 0.576364 0.0470588
0.952636 0.542184 0.0431983
0.952743 0.540154 0.0431983
0.952743 0.540139 0.0431983
0.952743 0.540139 0.0431983
0.264195 0.469444 0.136294
0.278782 0.468559 0.137881
0.395621 0.490364 0.169223
0.711971 0.630732 0.0473335
0.895354 0.576272 0.0470436
0.952636 0.542184 0.0431983
0.952743 0.540154 0.0431983
0.952743 0.540139 0.0431983
0.952743 0.540139 0.0431983
0.0529641 0.0954299 0.107591
0.0747539 0.0941176 0.109224
0.142397 0.0981765 0.10045
0.339971 0.144533 0.0788128
0.623972 0.190097 0.135515
0.693278 0.205264 0.148684
0.693278 0.205264 0.148684
0.693278 0.205264 0.148684
0.693278 0.205264 0.148684
0.0476234 0.10428 0.111742
0.0608682 0.102174 0.112978
0.14638 0.103807 0.103548
0.361639 0.149325 0.0792248
0.65211 0.196124 0.140963
0.693278 0.205264 0.148684
0.693278 0.205264 0.148684
0.693278 0.205264 0.148684
0.693278 0.205264 0.148684
0.043534 0.156847 0.108644
0.0476539 0.158404 0.111238
0.108873 0.145678 0.107668
0.387243 0.161013 0.0792401
0.649485 0.196658 0.139376
0.693339 0.20528 0.148684
0.693507 0.205356 0.148684
0.694667 0.205844 0.148669
0.694789 0.205905 0.148669
0.0470741 0.299351 0.0895247
0.0491798 0.307164 0.0873426
0.18114 0.311025 0.100099
0.435904 0.248417 0.0601358
0.775601 0.311742 0.0974289
0.813352 0.307454 0.113405
0.820645 0.315648 0.109911
0.835981 0.333684 0.101884
0.837263 0.335225 0.101183
0.292836 0.460105 0.135256
0.29604 0.461234 0.136416
0.348409 0.463371 0.151003
0.645579 0.55021 0.0504768
0.839261 0.434012 0.0439612
0.93843 0.468666 0.043534
0.939315 0.469749 0.0434882
0.941909 0.476692 0.0432136
0.942077 0.477241 0.0431983
0.238209 0.470893 0.136049
0.244633 0.470588 0.135882
0.314702 0.475196 0.150286
0.673838 0.621851 0.0800336
0.879805 0.594781 0.0485695
0.952346 0.54374 0.0431983
0.95259 0.539818 0.0431983
0.952621 0.541848 0.0431983
0.952621 0.541985 0.0431983
0.202289 0.471458 0.141024
0.217304 0.471473 0.138308
0.322942 0.480842 0.157244
0.689632 0.631617 0.0798199
0.887602 0.59498 0.0483101
0.952575 0.551553 0.0431983
0.952712 0.549462 0.0431983
0.952712 0.549569 0.0431983
0.952712 0.549569 0.0431983
0.181521 0.470573 0.146792
0.203555 0.471412 0.140948
0.340505 0.486351 0.164904
0.701305 0.637446 0.0749218
0.892943 0.592477 0.0479286
0.95259 0.551873 0.0431983
0.952712 0.549645 0.0431983
0.952712 0.549599 0.0431983
0.952712 0.549599 0.0431983
0.180301 0.470512 0.147158
0.202869 0.471397 0.141085
0.341314 0.486625 0.16524
0.701701 0.637644 0.0747692
0.893019 0.592447 0.0479286
0.95259 0.551873 0.0431983
0.952712 0.54963 0.0431983
0.952712 0.549584 0.0431983
0.952712 0.549584 0.0431983
0.0517128 0.107805 0.125902
0.0662394 0.104952 0.124575
0.167285 0.108278 0.123766
0.338659 0.129809 0.0867475
0.619806 0.188724 0.135225
0.693141 0.205188 0.148699
0.693248 0.205249 0.148684
0.693187 0.205234 0.148684
0.693172 0.205219 0.148684
0.0465095 0.112902 0.12961
0.0569619 0.11516 0.133074
0.173022 0.112078 0.127932
0.361379 0.13019 0.0915389
0.647929 0.193683 0.141817
0.692073 0.204639 0.148836
0.69218 0.204685 0.148821
0.690974 0.204044 0.14902
0.690852 0.203983 0.149035
0.0434424 0.166155 0.161944
0.0436408 0.167224 0.16524
0.113802 0.157244 0.16788
0.40032 0.152865 0.0996414
0.641154 0.191455 0.141375
0.68986 0.203433 0.149203
0.688807 0.202838 0.149401
0.686549 0.201404 0.150027
0.686351 0.201282 0.150072
0.0431983 0.31754 0.176791
0.0431983 0.323278 0.181048
0.0587015 0.322301 0.159289
0.448463 0.280842 0.100618
0.762264 0.32192 0.0864118
0.804395 0.309209 0.108888
0.810468 0.318929 0.103792
0.823743 0.341039 0.0918746
0.824887 0.343023 0.0908217
0.132799 0.457008 0.164813
0.125216 0.45623 0.170459
0.193835 0.467567 0.158099
0.613764 0.569894 0.146395
0.830884 0.467918 0.0437476
0.931579 0.494591 0.0432593
0.932174 0.496254 0.0432593
0.934401 0.505043 0.0435035
0.934554 0.50576 0.043534
0.0563516 0.446769 0.24567
0.0564126 0.446647 0.246769
0.117937 0.463264 0.204746
0.623285 0.617319 0.209506
0.870497 0.637705 0.0484932
0.951476 0.572351 0.043473
0.952346 0.567971 0.0433204
0.952346 0.570703 0.0433661
0.952346 0.570916 0.0433661
0.0440681 0.461875 0.297856
0.0448768 0.458366 0.289403
0.102083 0.464286 0.233082
0.636133 0.62771 0.221683
0.875807 0.640955 0.0488899
0.951659 0.581659 0.0438087
0.952224 0.57879 0.0435645
0.952209 0.579019 0.043595
0.952209 0.579019 0.043595
0.0432136 0.483543 0.331182
0.0432746 0.471763 0.31429
0.105409 0.470832 0.245777
0.649531 0.636179 0.22388
0.880446 0.640192 0.0489967
0.951675 0.582315 0.0438544
0.952193 0.57911 0.043595
0.952209 0.579004 0.043595
0.952209 0.578988 0.0435798
0.0432136 0.484901 0.333074
0.0432288 0.472465 0.31545
0.105455 0.471046 0.246281
0.649927 0.636423 0.223941
0.880446 0.640192 0.0489967
0.951675 0.5823 0.0438544
0.952209 0.57908 0.043595
0.952209 0.578973 0.0435798
0.952224 0.578943 0.0435798
0.0434272 0.147799 0.177615
0.044831 0.143542 0.173739
0.0990616 0.131502 0.163775
0.348745 0.132448 0.12871
0.588449 0.170977 0.141695
0.664637 0.18793 0.157107
0.664302 0.187778 0.157183
0.661875 0.186816 0.157351
0.661662 0.18674 0.157336
0.0434272 0.157229 0.186282
0.043473 0.160067 0.190356
0.0935378 0.141497 0.174823
0.372763 0.137438 0.132403
0.617014 0.17731 0.147341
0.659632 0.186175 0.157061
0.658213 0.18584 0.156771
0.655406 0.185321 0.155978
0.655192 0.18529 0.155871
0.0435035 0.202487 0.229862
0.0435035 0.209964 0.238575
0.0466011 0.208484 0.239643
0.386374 0.157534 0.156085
0.611948 0.177279 0.144625
0.656489 0.185489 0.156344
0.655131 0.185397 0.155657
0.653193 0.185565 0.154192
0.653056 0.185595 0.15407
0.0438392 0.395636 0.381567
0.0438544 0.403937 0.391455
0.0438239 0.393576 0.381994
0.319951 0.388251 0.37998
0.719768 0.336172 0.271397
0.769589 0.268833 0.188785
0.774563 0.278553 0.201312
0.786007 0.307012 0.230793
0.786831 0.309392 0.233387
0.0439765 0.593271 0.487175
0.0440528 0.604486 0.504143
0.0439612 0.585367 0.478111
0.316899 0.559503 0.365133
0.796933 0.572595 0.287022
0.91223 0.581308 0.289204
0.912428 0.58529 0.297581
0.915496 0.597498 0.313146
0.91577 0.59852 0.314382
0.0443122 0.640726 0.57026
0.0443122 0.641474 0.574212
0.0442359 0.631525 0.546197
0.280949 0.574365 0.378073
0.842039 0.723415 0.255299
0.947875 0.643503 0.152712
0.948821 0.638209 0.154604
0.948913 0.641703 0.159945
0.948928 0.641962 0.160372
0.0443122 0.642161 0.603357
0.0443122 0.642756 0.600992
0.0443122 0.644968 0.577661
0.269764 0.58793 0.41146
0.846174 0.728878 0.278279
0.947875 0.653925 0.163317
0.948455 0.64831 0.147265
0.94847 0.648661 0.148455
0.94847 0.648676 0.148501
0.0443122 0.636255 0.616175
0.0443122 0.638636 0.611215
0.0443275 0.648783 0.590036
0.280095 0.595529 0.424491
0.851972 0.729641 0.281605
0.948058 0.654902 0.167895
0.948486 0.648707 0.148638
0.94847 0.648493 0.14786
0.94847 0.648463 0.147723
0.0443122 0.635859 0.616724
0.0443122 0.638437 0.611612
0.0443275 0.648875 0.590387
0.280354 0.595682 0.424765
0.851942 0.729656 0.281636
0.948043 0.654871 0.167697
0.94847 0.64863 0.148348
0.94847 0.648417 0.147585
0.948455 0.648371 0.147433
0.0435645 0.227024 0.273564
0.0435492 0.219867 0.266392
0.0460212 0.192355 0.236561
0.276646 0.168475 0.202518
0.583551 0.175189 0.152285
0.645563 0.186755 0.148318
0.64567 0.186847 0.148241
0.64654 0.187259 0.148333
0.646647 0.187289 0.148363
0.043595 0.240406 0.287633
0.043595 0.241947 0.289601
0.0446632 0.209873 0.256947
0.29926 0.174502 0.207202
0.611749 0.18204 0.156985
0.648234 0.187625 0.149508
0.649195 0.187793 0.150668
0.650904 0.188144 0.153506
0.651041 0.188174 0.153796
0.0437018 0.29398 0.344991
0.0437171 0.300877 0.353109
0.0437018 0.292866 0.343709
0.24033 0.216617 0.265217
0.604303 0.184787 0.165423
0.650507 0.188067 0.152697
0.65156 0.188388 0.154833
0.653132 0.189487 0.160067
0.653254 0.189609 0.160601
0.0439918 0.422309 0.482139
0.0440223 0.429938 0.491875
0.044007 0.426474 0.486595
0.109697 0.437812 0.507088
0.65211 0.344945 0.344442
0.732372 0.287602 0.269261
0.733394 0.299306 0.282948
0.737087 0.327565 0.314839
0.737377 0.330007 0.317601
0.0443275 0.603708 0.642329
0.0443427 0.604334 0.647654
0.0443122 0.601862 0.640284
0.0458228 0.638865 0.670283
0.715862 0.694789 0.671855
0.864485 0.670802 0.621973
0.863645 0.671763 0.625696
0.867033 0.688426 0.644358
0.867308 0.689815 0.645945
0.0443885 0.607263 0.662104
0.0443885 0.607279 0.662638
0.0443732 0.610468 0.658869
0.0444343 0.67892 0.705776
0.622309 0.785138 0.650431
0.940459 0.769192 0.535439
0.943862 0.76376 0.535637
0.943786 0.767254 0.541772
0.943786 0.767514 0.542199
0.0444038 0.607477 0.667292
0.0444038 0.607431 0.666667
0.0443885 0.611566 0.666117
0.0444648 0.677852 0.717449
0.60734 0.79173 0.679423
0.93959 0.77879 0.546365
0.947097 0.770016 0.524834
0.947036 0.770382 0.52604
0.947021 0.770413 0.526146
0.0444038 0.607492 0.667735
0.0444038 0.607477 0.667445
0.0443885 0.612833 0.669062
0.0444648 0.679744 0.72372
0.61735 0.794965 0.685725
0.939452 0.779995 0.55053
0.947021 0.770397 0.526055
0.947082 0.770092 0.525063
0.947082 0.770077 0.525032
0.0444038 0.607492 0.667735
0.0444038 0.607477 0.667475
0.0443885 0.612879 0.669154
0.0444648 0.679774 0.723812
0.61709 0.794934 0.685695
0.939437 0.779919 0.550225
0.947051 0.770275 0.525658
0.947097 0.770001 0.524773
0.947112 0.769985 0.524758
0.0437018 0.278187 0.335805
0.0437018 0.271626 0.328603
0.0436255 0.24361 0.299489
0.141268 0.212131 0.269749
0.511711 0.186297 0.186694
0.636667 0.19321 0.175174
0.637675 0.192981 0.174609
0.633066 0.194018 0.177325
0.632654 0.194095 0.177554
0.0437324 0.293477 0.352956
0.0437324 0.29427 0.353765
0.0436866 0.25861 0.315648
0.171496 0.213565 0.275715
0.547951 0.191119 0.188037
0.625589 0.195407 0.181155
0.625086 0.19556 0.181506
0.620645 0.196048 0.183215
0.620264 0.196078 0.183337
0.0438697 0.348165 0.414908
0.0438697 0.351492 0.418921
0.0438544 0.346487 0.412757
0.100008 0.267857 0.33051
0.530068 0.196139 0.197177
0.612924 0.196338 0.185092
0.611475 0.196567 0.185718
0.606622 0.197314 0.187655
0.606378 0.197452 0.187869
0.0441291 0.45452 0.53521
0.0441291 0.458671 0.539635
0.0441444 0.458869 0.540917
0.0469368 0.475761 0.56788
0.53611 0.368246 0.409155
0.676356 0.312947 0.311345
0.678325 0.323629 0.323262
0.680644 0.35024 0.354162
0.680873 0.352453 0.356756
0.0443885 0.603708 0.66569
0.0443885 0.604715 0.666316
0.0443885 0.603403 0.66746
0.0445869 0.627787 0.709651
0.627405 0.696574 0.762356
0.801602 0.671733 0.705333
0.802533 0.672145 0.704906
0.80856 0.687541 0.71899
0.809049 0.688777 0.720104
0.0444038 0.607492 0.66775
0.0444038 0.607492 0.66775
0.0444038 0.610117 0.670085
0.04448 0.663355 0.730419
0.522133 0.773602 0.811795
0.893172 0.848966 0.808835
0.898192 0.846937 0.805798
0.898344 0.848081 0.807477
0.89836 0.848173 0.807599
0.0444038 0.607492 0.66775
0.0444038 0.607492 0.66775
0.0444038 0.611292 0.671168
0.0444953 0.666682 0.734249
0.528969 0.77467 0.812299
0.890867 0.851972 0.813519
0.901152 0.85388 0.811002
0.901137 0.85391 0.811078
0.901152 0.853895 0.811063
0.0444038 0.607492 0.66775
0.0444038 0.607492 0.66775
0.0444038 0.612314 0.67216
0.0445106 0.669291 0.737301
0.540581 0.776959 0.812894
0.890959 0.852049 0.813825
0.901152 0.85388 0.811048
0.901167 0.85388 0.810941
0.901167 0.85388 0.810941
0.0444038 0.607492 0.66775
0.0444038 0.607492 0.66775
0.0444038 0.61236 0.672206
0.0445106 0.669291 0.737301
0.540108 0.776867 0.812879
0.890883 0.852018 0.813779
0.901167 0.85388 0.810987
0.901183 0.853864 0.810895
0.901183 0.853864 0.810895
0.0437018 0.28336 0.342275
0.0437018 0.278965 0.337682
0.0437018 0.256916 0.315694
0.109819 0.229938 0.286671
0.489265 0.19559 0.202335
0.609064 0.196445 0.185992
0.615885 0.196414 0.184726
0.61529 0.196414 0.184833
0.615228 0.196414 0.184833
0.0437476 0.297917 0.358495
0.0437476 0.298558 0.359075
0.0437018 0.266819 0.32549
0.146471 0.225422 0.287221
0.533333 0.194736 0.195285
0.606683 0.196445 0.186435
0.610315 0.196429 0.185763
0.609445 0.196445 0.185931
0.609354 0.196445 0.185946
0.0438697 0.351675 0.419135
0.0438697 0.35436 0.422293
0.0438697 0.351659 0.419226
0.082887 0.280064 0.344732
0.517189 0.202548 0.206958
0.592599 0.19646 0.188968
0.59588 0.196735 0.188785
0.596338 0.197818 0.190188
0.596582 0.198001 0.190387
0.0441444 0.458442 0.539391
0.0441444 0.462547 0.543725
0.0441596 0.462867 0.545266
0.0471199 0.482444 0.576715
0.489723 0.382681 0.446738
0.658503 0.32224 0.324758
0.664714 0.33312 0.337011
0.671458 0.358572 0.367178
0.671962 0.360708 0.369909
0.0444038 0.604791 0.666316
0.0444038 0.605753 0.666957
0.0443885 0.605203 0.668681
0.0446326 0.631861 0.713237
0.636835 0.70341 0.768246
0.785916 0.668116 0.722438
0.788983 0.668437 0.720211
0.797269 0.684398 0.731563
0.797909 0.685634 0.732433
0.0444038 0.607492 0.66775
0.0444038 0.607492 0.66775
0.0444038 0.610315 0.670268
0.04448 0.664118 0.731289
0.527306 0.774411 0.812207
0.891035 0.850401 0.817121
0.894865 0.848753 0.816495
0.895415 0.849592 0.816907
0.89546 0.849653 0.816938
0.0444038 0.607492 0.66775
0.0444038 0.607492 0.66775
0.0444038 0.611337 0.671229
0.0444953 0.666728 0.73434
0.527642 0.774395 0.812253
0.889464 0.852323 0.817426
0.899428 0.854994 0.818784
0.899428 0.854994 0.818784
0.899428 0.854994 0.818784
0.0444038 0.607492 0.66775
0.0444038 0.607492 0.66775
0.0444038 0.612222 0.672068
0.0445106 0.668894 0.736812
0.53579 0.776028 0.81265
0.889448 0.852323 0.817411
0.899428 0.854994 0.818784
0.899428 0.854994 0.818784
0.899428 0.854994 0.818784
0.0444038 0.607492 0.66775
0.0444038 0.607492 0.66775
0.0444038 0.612253 0.672099
0.0445106 0.668879 0.736812
0.535119 0.775891 0.812619
0.889372 0.852293 0.817411
0.899428 0.854994 0.818784
0.899428 0.854994 0.818784
0.899428 0.854994 0.818784
0.0437018 0.283421 0.342351
0.0437018 0.278691 0.337377
0.0437018 0.256641 0.31548
0.113817 0.229847 0.287205
0.495674 0.19588 0.201831
0.607736 0.196429 0.186236
0.614847 0.196414 0.184909
0.614786 0.196414 0.184924
0.614755 0.196414 0.184924
0.0437476 0.298756 0.359457
0.0437476 0.299489 0.360113
0.0437018 0.266865 0.325612
0.158022 0.224186 0.287358
0.539742 0.194583 0.194217
0.606638 0.196445 0.186435
0.609964 0.196429 0.185824
0.60911 0.196445 0.185992
0.609033 0.196445 0.186007
0.0438849 0.354162 0.421988
0.0438849 0.356909 0.425193
0.0438697 0.354192 0.422171
0.0881208 0.281209 0.346334
0.524102 0.202655 0.20618
0.592325 0.196521 0.18912
0.595621 0.196933 0.18909
0.597284 0.198535 0.190982
0.597528 0.198718 0.19118
0.0441444 0.462654 0.543877
0.0441444 0.466758 0.548135
0.0441596 0.467308 0.550088
0.049485 0.48809 0.583703
0.50248 0.388357 0.452171
0.661112 0.330205 0.333715
0.667063 0.342016 0.347402
0.67335 0.366857 0.377859
0.673823 0.368933 0.380545
0.0444038 0.605753 0.666865
0.0444038 0.606409 0.667308
0.0443885 0.606775 0.669749
0.0446632 0.636484 0.717403
0.649729 0.709133 0.770535
0.789563 0.674342 0.726558
0.791775 0.674159 0.724407
0.799695 0.689128 0.73492
0.800305 0.690272 0.735683
0.0444038 0.607492 0.66775
0.0444038 0.607492 0.66775
0.0444038 0.610605 0.670542
0.04448 0.665232 0.73257
0.535592 0.776013 0.81265
0.891493 0.850675 0.817197
0.895109 0.849104 0.816663
0.895567 0.849821 0.817029
0.895598 0.849882 0.817044
0.0444038 0.607492 0.66775
0.0444038 0.607492 0.66775
0.0444038 0.611505 0.671366
0.0444953 0.667201 0.734874
0.530266 0.774914 0.812375
0.889601 0.852369 0.817441
0.899428 0.854994 0.818784
0.899428 0.854994 0.818784
0.899428 0.854994 0.818784
0.0444038 0.607492 0.66775
0.0444038 0.607492 0.66775
0.0444038 0.612253 0.672099
0.0445106 0.66891 0.736828
0.5355 0.775967 0.812634
0.889418 0.852308 0.817411
0.899428 0.854994 0.818784
0.899428 0.854994 0.818784
0.899428 0.854994 0.818784
0.0444038 0.607492 0.66775
0.0444038 0.607492 0.66775
0.0444038 0.612253 0.672099
0.0445106 0.668864 0.736797
0.534676 0.775799 0.812589
0.889342 0.852277 0.817395
0.899428 0.854994 0.818784
0.899428 0.854994 0.818784
0.899428 0.854994 0.818784
0.0437018 0.283421 0.342351
0.0437018 0.27866 0.337346
0.0437018 0.256611 0.315465
0.114336 0.229755 0.287175
0.496345 0.195819 0.201678
0.607782 0.196429 0.186236
0.614847 0.196414 0.184909
0.614771 0.196414 0.184924
0.61474 0.196414 0.184924
0.0437476 0.298833 0.359548
0.0437476 0.299565 0.360204
0.0437018 0.266865 0.325612
0.159167 0.224048 0.287358
0.540307 0.194568 0.19411
0.606653 0.196445 0.186435
0.609949 0.196429 0.18584
0.609079 0.196445 0.185992
0.609003 0.196429 0.186007
0.0438849 0.354376 0.422232
0.0438849 0.357122 0.425452
0.0438697 0.354437 0.422446
0.0886549 0.281315 0.346471
0.524651 0.202655 0.206104
0.592325 0.196536 0.189136
0.59559 0.196948 0.18912
0.597375 0.198596 0.191058
0.59762 0.198779 0.191257
0.0441444 0.46305 0.544305
0.0441444 0.46714 0.548547
0.0441596 0.467704 0.550515
0.0496986 0.488579 0.584298
0.503609 0.388846 0.452567
0.661341 0.330922 0.334539
0.667262 0.342733 0.348226
0.673518 0.367605 0.37882
0.673991 0.36968 0.381491
0.0444038 0.605829 0.666896
0.0444038 0.606424 0.667323
0.0443885 0.606912 0.669856
0.0446784 0.636912 0.717784
0.650752 0.70959 0.770718
0.789914 0.674907 0.726909
0.79202 0.674617 0.724743
0.799893 0.689509 0.735164
0.800488 0.690623 0.735912
0.0444038 0.607492 0.66775
0.0444038 0.607492 0.66775
0.0444038 0.610636 0.670558
0.04448 0.665339 0.732692
0.536355 0.776165 0.812696
0.891524 0.850706 0.817212
0.895125 0.849134 0.816678
0.895582 0.849836 0.817029
0.895613 0.849897 0.81706
0.0444038 0.607492 0.66775
0.0444038 0.607492 0.66775
0.0444038 0.611505 0.671382
0.0444953 0.667216 0.734905
0.530419 0.774945 0.81239
0.889616 0.852369 0.817441
0.899428 0.854994 0.818784
0.899428 0.854994 0.818784
0.899428 0.854994 0.818784
0.0444038 0.607492 0.66775
0.0444038 0.607492 0.66775
0.0444038 0.612253 0.672099
0.0445106 0.668894 0.736812
0.535424 0.775937 0.812634
0.889403 0.852293 0.817411
0.899428 0.854994 0.818784
0.899428 0.854994 0.818784
0.899428 0.854994 0.818784
0.0444038 0.607492 0.66775
0.0444038 0.607492 0.66775
0.0444038 0.612268 0.672114
0.0445106 0.668864 0.736782
0.534646 0.775784 0.812589
0.889326 0.852277 0.817395
0.899428 0.854994 0.818784
0.899428 0.854994 0.818784
0.899428 0.854994 0.818784
