apps/typegpu-docs/public/assets/cube-luts/HollywoodBlue_Day.cube
TITLE "Generated by Resolve"
LUT_3D_SIZE 9
0 0 0.00390631
0.0139162 0 0.0295415
0.138216 0 0.00732433
0.287419 0 0
0.509407 0 0
0.629786 0 0
0.629786 0 0
0.629786 0 0
0.629786 0 0
0 0.0124514 0.00903334
0 0 0.00634775
0.117464 0 0.0134279
0.272526 0 0
0.502083 0 0
0.629786 0 0
0.629786 0 0
0.629786 0 0
0.629786 0 0
0 0.129183 0.020264
0 0.12015 0.0180667
0.0581216 0.115023 0.0373693
0.242741 0.0700847 0
0.493034 0 0
0.629786 0 0
0.629786 0 0
0.629786 0 0
0.629786 0 0
0 0.31429 0.0544594
0 0.307454 0.0547036
0 0.299138 0.0544594
0.154574 0.309163 0.0314946
0.449332 0.247379 0
0.631739 0.168261 0
0.629053 0 0
0.629786 0 0
0.629786 0 0
0 0.633951 0
0 0.63003 0
0 0.625147 0
0 0.611963 0
0.319905 0.6 0.023682
0.572656 0.567529 0.0637369
0.603662 0.531624 0.0490883
0.605615 0.506722 0.0368811
0.606348 0.497185 0.0327153
0 0.90013 0.197803
0 0.898161 0.195117
0 0.895964 0.192432
0 0.889372 0.184375
0.0920577 0.898405 0.239078
0.550423 0.823194 0.240543
0.626123 0.813184 0.260075
0.623194 0.804395 0.249332
0.621973 0.801221 0.245426
0 0.984863 0.313802
0 0.984863 0.313802
0 0.984863 0.313802
0 0.984863 0.313802
0 0.984863 0.313802
0.542855 0.940658 0.375097
0.663981 0.920882 0.393896
0.672282 0.916487 0.39292
0.671305 0.91429 0.38999
0 0.984863 0.313802
0 0.984863 0.313802
0 0.984863 0.313802
0 0.984863 0.313802
0 0.984863 0.313802
0.500862 0.952621 0.376318
0.655192 0.932845 0.403174
0.682536 0.936019 0.417823
0.682536 0.936019 0.417823
0 0.984863 0.313802
0 0.984863 0.313802
0 0.984863 0.313802
0 0.984863 0.313802
0 0.984863 0.313802
0.483268 0.957748 0.377295
0.648844 0.932357 0.400244
0.682536 0.936019 0.417823
0.682536 0.936019 0.417823
0 0 0.00976577
0 0.00463874 0.0356603
0.137728 0 0.0178225
0.285954 0 0
0.508186 0 0
0.629786 0 0
0.629786 0 0
0.629786 0 0
0.629786 0 0
0 0.000488289 0.0065919
0 0 0.00390631
0.114534 0 0.0141604
0.270329 0 0
0.501106 0 0
0.629786 0 0
0.629786 0 0
0.629786 0 0
0.629786 0 0
0 0.122103 0.018555
0 0.112093 0.0163577
0.0493324 0.105501 0.0368811
0.240787 0.0578775 0
0.491814 0 0
0.629786 0 0
0.629786 0 0
0.629786 0 0
0.629786 0 0
0 0.308919 0.0544594
0 0.302083 0.0544594
0 0.293767 0.0542153
0.152621 0.303059 0.0322271
0.448356 0.240543 0
0.630518 0.158236 0
0.629786 0 0
0.629786 0 0
0.629786 0 0
0 0.630762 0
0 0.626856 0
0 0.621973 0
0 0.608545 0
0.317952 0.596826 0.0231937
0.571923 0.563851 0.0615396
0.60415 0.527718 0.0471351
0.606104 0.502571 0.035172
0.606836 0.493034 0.0307622
0 0.89865 0.195605
0 0.896696 0.193408
0 0.894255 0.190478
0 0.887907 0.182422
0.0805829 0.896941 0.236393
0.548714 0.821729 0.23859
0.625635 0.811963 0.258366
0.622705 0.80293 0.247623
0.621485 0.799756 0.243717
0 0.984863 0.313802
0 0.984863 0.313802
0 0.984863 0.313802
0 0.984863 0.313802
0 0.984863 0.313802
0.540902 0.940169 0.373632
0.66276 0.919905 0.392432
0.671794 0.915511 0.391699
0.670817 0.913314 0.388769
0 0.984863 0.313802
0 0.984863 0.313802
0 0.984863 0.313802
0 0.984863 0.313802
0 0.984863 0.313802
0.499626 0.953109 0.376562
0.654704 0.932845 0.40293
0.682536 0.936019 0.417823
0.682536 0.936019 0.417823
0 0.984863 0.313802
0 0.984863 0.313802
0 0.984863 0.313802
0 0.984863 0.313802
0 0.984863 0.313802
0.481804 0.958236 0.377539
0.648356 0.932357 0.4
0.682536 0.936019 0.417823
0.682536 0.936019 0.417823
0 0.0292973 0.103548
0.0190433 0.0134279 0.123079
0.145296 0 0.130404
0.312825 0 0.0634928
0.532113 0 0
0.649577 0 0
0.64445 0 0
0.641764 0 0
0.640787 0 0
0 0.0256352 0.0952316
0 0.0249027 0.0935225
0.11429 0.00805676 0.119173
0.294987 0 0.0598306
0.522103 0 0
0.646647 0 0
0.641032 0 0
0.63859 0 0
0.637613 0 0
0 0.116243 0.082536
0 0.10721 0.082536
0.0373693 0.0923018 0.115999
0.263981 0.0361486 0.0598306
0.509407 0 0
0.642741 0 0
0.637125 0 0
0.63444 0 0
0.633707 0 0
0 0.30721 0.0715496
0 0.30013 0.0710613
0 0.291569 0.0703288
0.165805 0.297429 0.0815595
0.456413 0.231495 0
0.631251 0.144076 0
0.629786 0 0
0.629786 0 0
0.629786 0 0
0 0.626856 0
0 0.62295 0
0 0.618067 0
0 0.604639 0
0.315511 0.592676 0.0224613
0.571435 0.559213 0.0590982
0.604395 0.523079 0.0449378
0.606348 0.497429 0.0327153
0.607324 0.487663 0.0283207
0 0.896696 0.193408
0 0.894743 0.190967
0 0.892546 0.188037
0 0.885954 0.17998
0.0669108 0.895232 0.233463
0.546761 0.82002 0.235904
0.624903 0.810254 0.256168
0.621973 0.801221 0.245426
0.620996 0.797803 0.24152
0 0.984863 0.313802
0 0.984863 0.313802
0 0.984863 0.313802
0 0.984863 0.313802
0 0.984863 0.313802
0.538705 0.939193 0.371923
0.661784 0.918441 0.390723
0.671305 0.91429 0.38999
0.670085 0.912093 0.387304
0 0.984863 0.313802
0 0.984863 0.313802
0 0.984863 0.313802
0 0.984863 0.313802
0 0.984863 0.313802
0.497673 0.953597 0.376562
0.653971 0.932845 0.402441
0.682536 0.936019 0.417823
0.682536 0.936019 0.417823
0 0.984863 0.313802
0 0.984863 0.313802
0 0.984863 0.313802
0 0.984863 0.313802
0 0.984863 0.313802
0.479606 0.958724 0.377539
0.647623 0.932357 0.399512
0.682536 0.936019 0.417823
0.682536 0.936019 0.417823
0.0356603 0.0366369 0.302571
0.0417639 0.0368811 0.307454
0.120882 0 0.339925
0.326741 0 0.304524
0.587304 0 0.197314
0.713314 0 0.160922
0.709407 0 0.146029
0.707454 0 0.138949
0.706966 0 0.136263
0.0346838 0.0354162 0.295232
0.0344396 0.035172 0.294255
0.0803388 0 0.333822
0.306233 0 0.299382
0.578027 0 0.190723
0.710872 0 0.151888
0.70721 0 0.13724
0.705257 0 0.129915
0.704524 0 0.12723
0.021973 0.117708 0.257877
0.025391 0.108186 0.260563
0.0332036 0.0966964 0.295232
0.279606 0 0.294743
0.566049 0 0.183154
0.708186 0 0.141146
0.70428 0 0.126253
0.702327 0 0.118929
0.701595 0 0.116243
0 0.300618 0.21416
0 0.293523 0.214649
0 0.284977 0.214893
0.184619 0.277409 0.303304
0.523079 0.199756 0.211963
0.698405 0.0883955 0.144564
0.696208 0 0.0964523
0.694255 0 0.089128
0.693523 0 0.0864424
0 0.623194 0.188769
0 0.619043 0.186328
0 0.613916 0.183886
0 0.600244 0.176562
0.37998 0.594873 0.259342
0.617578 0.545052 0.216114
0.650065 0.506477 0.191211
0.651041 0.480095 0.173877
0.651774 0.470085 0.168017
0 0.891325 0.309163
0 0.889616 0.305257
0 0.887175 0.300618
0 0.880827 0.287175
0.0695964 0.892546 0.326009
0.560189 0.815625 0.290349
0.634684 0.804639 0.290105
0.629541 0.795361 0.271794
0.627588 0.791943 0.264958
0 0.984863 0.313802
0 0.984863 0.313802
0 0.984863 0.313802
0 0.984863 0.313802
0 0.984863 0.313802
0.532357 0.936751 0.367529
0.65861 0.915267 0.38584
0.669596 0.911116 0.386084
0.668376 0.908919 0.383154
0 0.984863 0.313802
0 0.984863 0.313802
0 0.984863 0.313802
0 0.984863 0.313802
0 0.984863 0.313802
0.492546 0.955062 0.376806
0.652262 0.932601 0.401709
0.682536 0.936019 0.417823
0.682536 0.936019 0.417823
0 0.984863 0.313802
0 0.984863 0.313802
0 0.984863 0.313802
0 0.984863 0.313802
0 0.984863 0.313802
0.474235 0.960433 0.378027
0.64567 0.932113 0.398779
0.682536 0.936019 0.417823
0.682536 0.936019 0.417823
0.016846 0.15555 0.625635
0.016846 0.155306 0.624903
0.0444495 0.0446937 0.673503
0.250065 0 0.685954
0.59707 0 0.615625
0.770703 0 0.595361
0.770459 0 0.586084
0.770459 0 0.581689
0.770459 0 0.57998
0.0173342 0.154574 0.621241
0.0173342 0.15433 0.620508
0.0302739 0.105501 0.650065
0.221241 0 0.684977
0.58706 0 0.611719
0.770459 0 0.58999
0.770459 0 0.580713
0.770214 0 0.57583
0.770214 0 0.574365
0.016846 0.157015 0.615381
0.0180667 0.153109 0.615137
0.0183108 0.152865 0.61416
0.180957 0 0.683757
0.574121 0 0.60708
0.770459 0 0.583398
0.770214 0 0.573877
0.770214 0 0.568994
0.76997 0 0.567285
0 0.299382 0.536995
0 0.294255 0.537972
0 0.287663 0.539437
0.0681315 0.214893 0.657145
0.546029 0.0871748 0.638834
0.760189 0 0.564095
0.769726 0 0.554574
0.769482 0 0.549935
0.769482 0 0.548226
0 0.611963 0.488151
0 0.607569 0.487907
0 0.602441 0.487419
0 0.588037 0.485954
0.40415 0.570703 0.631495
0.742367 0.512825 0.595117
0.775586 0.461784 0.579248
0.775586 0.428321 0.56997
0.775586 0.415625 0.566796
0 0.87985 0.527718
0 0.878141 0.525765
0 0.8757 0.523079
0 0.869596 0.515755
0.183154 0.867643 0.604883
0.669841 0.836149 0.638834
0.764828 0.815137 0.643961
0.762387 0.80415 0.634928
0.76141 0.8 0.631251
0 0.973632 0.603174
0 0.973632 0.602686
0 0.973632 0.602441
0 0.973388 0.601465
0 0.973388 0.599023
0.615137 0.972168 0.678386
0.761166 0.936996 0.676921
0.776318 0.931624 0.675944
0.775097 0.928939 0.673014
0 0.973388 0.594141
0 0.973388 0.593896
0 0.973388 0.593408
0 0.973144 0.592432
0 0.973144 0.590234
0.558724 0.991943 0.670329
0.747982 0.963119 0.673991
0.782177 0.965072 0.683513
0.781689 0.964828 0.682536
0 0.973144 0.590967
0 0.973144 0.590723
0 0.973144 0.590234
0 0.973144 0.589502
0 0.973144 0.58706
0.535775 0.992432 0.666667
0.73846 0.962386 0.665202
0.779492 0.964096 0.676432
0.779004 0.963851 0.675212
0 0.199512 0.90013
0 0.199512 0.899886
0 0.188769 0.906233
0.131868 0 0.96997
0.550912 0 0.93138
0.761166 0 0.920394
0.761166 0 0.916487
0.76141 0 0.914778
0.76141 0 0.914046
0 0.199268 0.898161
0 0.199268 0.897917
0 0.199268 0.897673
0.116732 0 0.96556
0.538705 0 0.93138
0.761166 0 0.917952
0.76141 0 0.91429
0.76141 0 0.912337
0.76141 0 0.911604
0 0.199023 0.89572
0 0.199023 0.895476
0 0.198779 0.894987
0.0981613 0 0.959701
0.522591 0 0.931624
0.756527 0 0.914778
0.76141 0 0.91136
0.761654 0 0.909407
0.761654 0 0.908919
0 0.290349 0.854704
0 0.285466 0.856168
0 0.279118 0.858366
0.0310063 0.174365 0.933577
0.467887 0 0.941634
0.742123 0 0.904524
0.761898 0 0.903792
0.761898 0 0.901839
0.761898 0 0.901106
0 0.581689 0.786084
0 0.577539 0.78584
0 0.572412 0.785351
0 0.558236 0.784863
0.236149 0.480339 0.9514
0.716487 0.384131 0.957748
0.778759 0.332601 0.95555
0.782177 0.289128 0.957504
0.783398 0.272282 0.958236
0 0.866911 0.786572
0 0.864958 0.78584
0 0.862516 0.784619
0 0.856168 0.781689
0 0.849332 0.827344
0.656657 0.806348 0.90135
0.809766 0.779004 0.934066
0.80708 0.765805 0.933577
0.805859 0.760922 0.933333
0 0.976562 0.804883
0 0.976562 0.804395
0 0.976562 0.80415
0 0.974853 0.802441
0 0.965316 0.79707
0.619532 0.949203 0.877165
0.817578 0.932113 0.899886
0.848356 0.927718 0.905257
0.847623 0.925032 0.904036
0 0.976562 0.796094
0 0.976562 0.795605
0 0.976562 0.795361
0 0.976562 0.794385
0 0.976562 0.792187
0.585107 0.978759 0.871061
0.809766 0.974609 0.904524
0.863493 0.979248 0.924544
0.863981 0.979004 0.9243
0 0.976562 0.79292
0 0.976562 0.792432
0 0.976562 0.792187
0 0.976562 0.791211
0 0.976562 0.788769
0.561898 0.979492 0.865934
0.799756 0.974365 0.899886
0.856901 0.978515 0.920638
0.863493 0.979248 0.923079
0 0.213184 1
0 0.213184 1
0 0.213184 1
0.0903487 0 1
0.49865 0 1
0.749447 0 1
0.752132 0 1
0.752132 0 1
0.752132 0 1
0 0.21294 1
0 0.21294 1
0 0.21294 1
0.0747234 0.0065919 1
0.483024 0 1
0.745052 0 1
0.752132 0 1
0.752377 0 1
0.752377 0 1
0 0.21294 1
0 0.212696 1
0 0.212696 1
0.0578775 0.0329595 1
0.462272 0 1
0.739681 0 1
0.752377 0 1
0.752377 0 1
0.752621 0 1
0 0.261051 1
0 0.255436 1
0 0.248844 1
0 0.15433 1
0.39707 0 1
0.7243 0 1
0.752865 0 1
0.753109 0 1
0.753109 0 1
0 0.56141 0.924788
0 0.55726 0.925032
0 0.552132 0.925521
0 0.537728 0.927474
0.159457 0.43859 1
0.680339 0.256168 1
0.765316 0.19292 1
0.771435 0.160189 1
0.773388 0.14725 1
0 0.853483 0.910628
0 0.851286 0.910384
0 0.848844 0.909651
0 0.842008 0.908431
0 0.829053 0.937728
0.616358 0.776806 1
0.778027 0.740902 1
0.776318 0.725032 1
0.775586 0.719905 1
0 0.973388 0.912093
0 0.972412 0.911604
0 0.970703 0.911116
0 0.966796 0.910628
0 0.957015 0.907454
0.576562 0.934554 0.977295
0.775341 0.915267 1
0.811231 0.91014 1
0.810498 0.906966 1
0 0.978027 0.906966
0 0.978027 0.906722
0 0.978027 0.906477
0 0.978027 0.905989
0 0.978027 0.90428
0.529183 0.979736 0.970214
0.7729 0.972412 1
0.832471 0.970214 1
0.838102 0.968505 1
0 0.978027 0.904768
0 0.978027 0.904524
0 0.978027 0.90428
0 0.978027 0.903792
0 0.978027 0.902083
0.505013 0.980468 0.965316
0.763363 0.974609 0.999512
0.831495 0.978759 1
0.846159 0.980957 1
0 0.213428 1
0 0.213428 1
0 0.213428 1
0.0766766 0.00268559 1
0.483513 0 1
0.744808 0 1
0.750912 0 1
0.750912 0 1
0.750912 0 1
0 0.213428 1
0 0.213428 1
0 0.213428 1
0.0625162 0.025391 1
0.466423 0 1
0.740169 0 1
0.750912 0 1
0.750912 0 1
0.750912 0 1
0 0.213428 1
0 0.213428 1
0 0.213428 1
0.0454261 0.0510414 1
0.443473 0 1
0.73431 0 1
0.750912 0 1
0.750912 0 1
0.750912 0 1
0 0.239078 1
0 0.232471 1
0 0.224414 1
0 0.171679 1
0.371191 0 1
0.718441 0 1
0.750912 0 1
0.750912 0 1
0.750912 0 1
0 0.54725 0.953597
0 0.542855 0.954574
0 0.537728 0.95555
0 0.523079 0.958724
0.140658 0.420752 1
0.668132 0.183398 1
0.764096 0.142123 1
0.769482 0.102083 1
0.771191 0.0854658 1
0 0.84567 0.949691
0 0.843473 0.949691
0 0.841031 0.949691
0 0.833707 0.949691
0 0.818067 0.970947
0.595117 0.762387 1
0.763607 0.725032 1
0.762875 0.706966 1
0.761898 0.700618 1
0 0.969482 0.95555
0 0.968261 0.956039
0 0.966552 0.95555
0 0.962631 0.954818
0 0.952377 0.952621
0.560678 0.926741 1
0.765805 0.905257 1
0.805127 0.90013 1
0.80415 0.896941 1
0 0.979004 0.950912
0 0.979004 0.950668
0 0.978759 0.950423
0 0.978759 0.949935
0 0.978759 0.94847
0.523079 0.977539 1
0.765072 0.963851 1
0.817334 0.961654 1
0.825391 0.960189 1
0 0.978759 0.948714
0 0.978759 0.948714
0 0.978759 0.94847
0 0.978759 0.947738
0 0.978759 0.946517
0.494743 0.978759 1
0.758724 0.971435 1
0.816358 0.976806 1
0.831983 0.979736 1
0 0.213428 1
0 0.213428 1
0 0.213428 1
0.072282 0.00976577 1
0.478874 0 1
0.743587 0 1
0.750912 0 1
0.750912 0 1
0.750912 0 1
0 0.213428 1
0 0.213428 1
0 0.213428 1
0.0586099 0.0314946 1
0.461295 0 1
0.738949 0 1
0.750912 0 1
0.750912 0 1
0.750912 0 1
0 0.213428 1
0 0.213428 1
0 0.213428 1
0.0417639 0.0564126 1
0.438102 0 1
0.733089 0 1
0.750912 0 1
0.750912 0 1
0.750912 0 1
0 0.229786 1
0 0.223194 1
0 0.213672 1
0 0.18584 1
0.364096 0 1
0.716976 0 1
0.750912 0 1
0.750912 0 1
0.750912 0 1
0 0.540902 0.955062
0 0.536751 0.955795
0 0.53138 0.957015
0 0.516732 0.959945
0.136019 0.413428 1
0.666423 0.159457 1
0.76556 0.13138 1
0.770947 0.0888838 1
0.772656 0.0713054 1
0 0.842496 0.949691
0 0.840543 0.949691
0 0.837858 0.949691
0 0.830518 0.949691
0 0.813916 0.966552
0.590478 0.75848 1
0.761898 0.719905 1
0.762142 0.701839 1
0.761166 0.696208 1
0 0.967529 0.956283
0 0.966308 0.956039
0 0.964828 0.955795
0 0.960678 0.95555
0 0.950423 0.954818
0.554818 0.924788 1
0.762875 0.902327 1
0.803418 0.897185 1
0.802441 0.893767 1
0 0.979004 0.956283
0 0.979004 0.956283
0 0.979004 0.956283
0 0.979004 0.956283
0 0.979004 0.956283
0.519173 0.977295 1
0.762387 0.960922 1
0.815137 0.95848 1
0.82417 0.957015 1
0 0.979004 0.956283
0 0.979004 0.956283
0 0.979004 0.956283
0 0.979004 0.956283
0 0.979004 0.956283
0.490837 0.978515 1
0.757015 0.970703 1
0.815381 0.97583 1
0.832227 0.979248 1
