apps/typegpu-docs/public/assets/cube-luts/HollywoodBlue_Day.cube
TITLE "Generated by Resolve"
LUT_3D_SIZE 5
0 0 0.00390631
0.138216 0 0.00732433
0.509407 0 0
0.629786 0 0
0.629786 0 0
0 0.129183 0.020264
0.0581216 0.115023 0.0373693
0.493034 0 0
0.629786 0 0
0.629786 0 0
0 0.633951 0
0 0.625147 0
0.319905 0.6 0.023682
0.603662 0.531624 0.0490883
0.606348 0.497185 0.0327153
0 0.984863 0.313802
0 0.984863 0.313802
0 0.984863 0.313802
0.663981 0.920882 0.393896
0.671305 0.91429 0.38999
0 0.984863 0.313802
0 0.984863 0.313802
0 0.984863 0.313802
0.648844 0.932357 0.400244
0.682536 0.936019 0.417823
0 0.0292973 0.103548
0.145296 0 0.130404
0.532113 0 0
0.64445 0 0
0.640787 0 0
0 0.116243 0.082536
0.0373693 0.0923018 0.115999
0.509407 0 0
0.637125 0 0
0.633707 0 0
0 0.626856 0
0 0.618067 0
0.315511 0.592676 0.0224613
0.604395 0.523079 0.0449378
0.607324 0.487663 0.0283207
0 0.984863 0.313802
0 0.984863 0.313802
0 0.984863 0.313802
0.661784 0.918441 0.390723
0.670085 0.912093 0.387304
0 0.984863 0.313802
0 0.984863 0.313802
0 0.984863 0.313802
0.647623 0.932357 0.399512
0.682536 0.936019 0.417823
0.016846 0.15555 0.625635
0.0444495 0.0446937 0.673503
0.59707 0 0.615625
0.770459 0 0.586084
0.770459 0 0.57998
0.016846 0.157015 0.615381
0.0183108 0.152865 0.61416
0.574121 0 0.60708
0.770214 0 0.573877
0.76997 0 0.567285
0 0.611963 0.488151
0 0.602441 0.487419
0.40415 0.570703 0.631495
0.775586 0.461784 0.579248
0.775586 0.415625 0.566796
0 0.973632 0.603174
0 0.973632 0.602441
0 0.973388 0.599023
0.761166 0.936996 0.676921
0.775097 0.928939 0.673014
0 0.973144 0.590967
0 0.973144 0.590234
0 0.973144 0.58706
0.73846 0.962386 0.665202
0.779004 0.963851 0.675212
0 0.213184 1
0 0.213184 1
0.49865 0 1
0.752132 0 1
0.752132 0 1
0 0.21294 1
0 0.212696 1
0.462272 0 1
0.752377 0 1
0.752621 0 1
0 0.56141 0.924788
0 0.552132 0.925521
0.159457 0.43859 1
0.765316 0.19292 1
0.773388 0.14725 1
0 0.973388 0.912093
0 0.970703 0.911116
0 0.957015 0.907454
0.775341 0.915267 1
0.810498 0.906966 1
0 0.978027 0.904768
0 0.978027 0.90428
0 0.978027 0.902083
0.763363 0.974609 0.999512
0.846159 0.980957 1
0 0.213428 1
0 0.213428 1
0.478874 0 1
0.750912 0 1
0.750912 0 1
0 0.213428 1
0 0.213428 1
0.438102 0 1
0.750912 0 1
0.750912 0 1
0 0.540902 0.955062
0 0.53138 0.957015
0.136019 0.413428 1
0.76556 0.13138 1
0.772656 0.0713054 1
0 0.967529 0.956283
0 0.964828 0.955795
0 0.950423 0.954818
0.762875 0.902327 1
0.802441 0.893767 1
0 0.979004 0.956283
0 0.979004 0.956283
0 0.979004 0.956283
0.757015 0.970703 1
0.832227 0.979248 1
