apps/typegpu-docs/public/assets/cube-luts/HollywoodBlue_Day.cube
TITLE "Generated by Resolve"
LUT_3D_SIZE 33
0 0 0.00390631
0 0 0.00390631
0 0 0.00390631
0.00695811 0 0.0167239
0.0139162 0 0.0295415
0.0534829 0 0.0246586
0.0930343 0 0.0197757
0.115633 0 0.01355
0.138216 0 0.00732433
0.169116 0 0.00366217
0.2 0 0
0.243717 0 0
0.287419 0 0
0.343099 0 0
0.398779 0 0
0.454093 0 0
0.509407 0 0
0.549691 0 0
0.58999 0 0
0.609888 0 0
0.629786 0 0
0.629786 0 0
0.629786 0 0
0.629786 0 0
0.629786 0 0
0.629786 0 0
0.629786 0 0
0.629786 0 0
0.629786 0 0
0.629786 0 0
0.629786 0 0
0.629786 0 0
0.629786 0 0
0 0 0.00390631
0 0 0.00390631
0 0 0.00390631
0.00347906 0 0.0153201
0.00695811 0 0.0267338
0.0438392 0 0.0247807
0.080705 0 0.0228275
0.106905 0 0.0158083
0.133089 0 0.0087892
0.164279 0 0.0043946
0.195483 0 0
0.239689 0 0
0.283879 0 0
0.339864 0 0
0.39585 0 0
0.451713 0 0
0.507576 0 0
0.548348 0 0
0.589136 0 0
0.609461 0 0
0.629786 0 0
0.629786 0 0
0.629786 0 0
0.629786 0 0
0.629786 0 0
0.629786 0 0
0.629786 0 0
0.629786 0 0
0.629786 0 0
0.629786 0 0
0.629786 0 0
0.629786 0 0
0.629786 0 0
0 0 0.00390631
0 0 0.00390631
0 0 0.00390631
0 0 0.0139162
0 0 0.0239261
0.0341955 0 0.0249027
0.0683757 0 0.0258793
0.0981613 0 0.0180667
0.127962 0 0.0102541
0.159457 0 0.00512703
0.190967 0 0
0.23566 0 0
0.280339 0 0
0.336629 0 0
0.39292 0 0
0.449332 0 0
0.505745 0 0
0.547005 0 0
0.588281 0 0
0.609033 0 0
0.629786 0 0
0.629786 0 0
0.629786 0 0
0.629786 0 0
0.629786 0 0
0.629786 0 0
0.629786 0 0
0.629786 0 0
0.629786 0 0
0.629786 0 0
0.629786 0 0
0.629786 0 0
0.629786 0 0
0 0.00622568 0.00646983
0 0.00427253 0.00598154
0 0.00231937 0.00549325
0 0.00115969 0.0103151
0 0 0.0151369
0.0231937 0.000610361 0.0209964
0.0464027 0.00122072 0.0268559
0.0845502 0.000610361 0.0193484
0.122713 0 0.011841
0.154513 0 0.0059205
0.186328 0 0
0.231373 0 0
0.276432 0 0
0.333211 0 0
0.38999 0 0
0.446952 0 0
0.503914 0 0
0.545541 0 0
0.587182 0 0
0.608484 0 0
0.629786 0 0
0.629786 0 0
0.629786 0 0
0.629786 0 0
0.629786 0 0
0.629786 0 0
0.629786 0 0
0.629786 0 0
0.629786 0 0
0.629786 0 0
0.629786 0 0
0.629786 0 0
0.629786 0 0
0 0.0124514 0.00903334
0 0.00854505 0.00805676
0 0.00463874 0.00708019
0 0.00231937 0.00671397
0 0 0.00634775
0.0122072 0.00122072 0.0170901
0.0244144 0.00244144 0.0278325
0.0709392 0.00122072 0.0206302
0.117464 0 0.0134279
0.149569 0 0.00671397
0.181689 0 0
0.2271 0 0
0.272526 0 0
0.329793 0 0
0.38706 0 0
0.444572 0 0
0.502083 0 0
0.544076 0 0
0.586084 0 0
0.607935 0 0
0.629786 0 0
0.629786 0 0
0.629786 0 0
0.629786 0 0
0.629786 0 0
0.629786 0 0
0.629786 0 0
0.629786 0 0
0.629786 0 0
0.629786 0 0
0.629786 0 0
0.629786 0 0
0.629786 0 0
0 0.0406653 0.0113527
0 0.0371252 0.0104982
0 0.0335851 0.0096437
0 0.0307012 0.00903334
0 0.0278325 0.00842298
0.00610361 0.0260624 0.0176394
0.0122072 0.0242924 0.0268559
0.060502 0.0222782 0.0220951
0.108797 0.020264 0.0173342
0.141634 0.015259 0.0087892
0.174487 0.0102541 0.000244144
0.221485 0.00512703 0.000122072
0.268498 0 0
0.326253 0 0
0.384009 0 0
0.44213 0 0
0.500252 0 0
0.542672 0 0
0.585107 0 0
0.607446 0 0
0.629786 0 0
0.629786 0 0
0.629786 0 0
0.629786 0 0
0.629786 0 0
0.629786 0 0
0.629786 0 0
0.629786 0 0
0.629786 0 0
0.629786 0 0
0.629786 0 0
0.629786 0 0
0.629786 0 0
0 0.068864 0.0136721
0 0.0656901 0.0129397
0 0.0625162 0.0122072
0 0.0590982 0.0113527
0 0.0556802 0.0104982
0 0.0509194 0.0181888
0 0.0461585 0.0258793
0.0500649 0.0433509 0.0235599
0.10013 0.0405432 0.0212406
0.1337 0.030518 0.0108644
0.167285 0.0205081 0.000488289
0.215869 0.0102541 0.000244144
0.264469 0 0
0.322713 0 0
0.380957 0 0
0.439689 0 0
0.498405 0 0
0.541268 0 0
0.584131 0 0
0.606958 0 0
0.629786 0 0
0.629786 0 0
0.629786 0 0
0.629786 0 0
0.629786 0 0
0.629786 0 0
0.629786 0 0
0.629786 0 0
0.629786 0 0
0.629786 0 0
0.629786 0 0
0.629786 0 0
0.629786 0 0
0 0.0990158 0.016968
0 0.0963302 0.0162966
0 0.0936446 0.0156252
0 0.0907759 0.0149538
0 0.0879072 0.0142824
0 0.0842451 0.0195926
0 0.0805829 0.0249027
0.0395666 0.0791791 0.0271
0.079118 0.0777752 0.0292973
0.118135 0.0698405 0.0200809
0.157137 0.0619059 0.0108644
0.205371 0.0484779 0.00543221
0.253605 0.03505 0
0.313497 0.0191043 0
0.373388 0.00317388 0
0.434562 0.00158694 0
0.49572 0 0
0.539193 0 0
0.582666 0 0
0.606226 0 0
0.629786 0 0
0.629786 0 0
0.629786 0 0
0.629786 0 0
0.629786 0 0
0.629786 0 0
0.629786 0 0
0.629786 0 0
0.629786 0 0
0.629786 0 0
0.629786 0 0
0.629786 0 0
0.629786 0 0
0 0.129183 0.020264
0 0.126986 0.0196536
0 0.124788 0.0190433
0 0.122469 0.018555
0 0.12015 0.0180667
0 0.117586 0.0209964
0 0.115023 0.0239261
0.0290532 0.115023 0.0306401
0.0581216 0.115023 0.0373693
0.102571 0.109163 0.0292973
0.147005 0.103304 0.0212406
0.194873 0.0866865 0.0106203
0.242741 0.0700847 0
0.30428 0.0382239 0
0.365805 0.00634775 0
0.429419 0.00317388 0
0.493034 0 0
0.537118 0 0
0.581201 0 0
0.605493 0 0
0.629786 0 0
0.629786 0 0
0.629786 0 0
0.629786 0 0
0.629786 0 0
0.629786 0 0
0.629786 0 0
0.629786 0 0
0.629786 0 0
0.629786 0 0
0.629786 0 0
0.629786 0 0
0.629786 0 0
0 0.165682 0.0289311
0 0.163668 0.0283818
0 0.161654 0.0278325
0 0.159518 0.0274052
0 0.157382 0.026978
0 0.155184 0.0281987
0 0.152987 0.0294194
0.0145266 0.153536 0.0377356
0.0290532 0.154086 0.0460365
0.0782025 0.151644 0.0380407
0.127352 0.149203 0.0300298
0.178637 0.136568 0.0192264
0.229908 0.123934 0.00842298
0.291508 0.0991379 0.00421149
0.353109 0.0743572 0
0.417823 0.0578164 0
0.482536 0.0412757 0
0.529976 0.0206302 0
0.577417 0 0
0.603601 0 0
0.629786 0 0
0.629786 0 0
0.629786 0 0
0.629786 0 0
0.629786 0 0
0.629786 0 0
0.629786 0 0
0.629786 0 0
0.629786 0 0
0.629786 0 0
0.629786 0 0
0.629786 0 0
0.629786 0 0
0 0.202197 0.0376135
0 0.200366 0.0371252
0 0.198535 0.0366369
0 0.196582 0.0362707
0 0.194629 0.0359045
0 0.192798 0.0354162
0 0.190967 0.0349279
0 0.192065 0.0448157
0 0.193164 0.0547036
0.0538491 0.194141 0.0467689
0.107698 0.195117 0.0388342
0.162387 0.18645 0.0278325
0.21709 0.177783 0.016846
0.278752 0.160067 0.00842298
0.340414 0.142367 0
0.406226 0.112459 0
0.472038 0.082536 0
0.522835 0.0412757 0
0.573632 0 0
0.601709 0 0
0.629786 0 0
0.629786 0 0
0.629786 0 0
0.629786 0 0
0.629786 0 0
0.629786 0 0
0.629786 0 0
0.629786 0 0
0.629786 0 0
0.629786 0 0
0.629786 0 0
0.629786 0 0
0.629786 0 0
0 0.258244 0.0460365
0 0.256474 0.0457923
0 0.254704 0.0455482
0 0.252872 0.0454261
0 0.251041 0.045304
0 0.249271 0.0450599
0 0.247501 0.0448157
0 0.24683 0.0496986
0 0.246159 0.0545815
0.0269169 0.250614 0.0446326
0.0538491 0.25507 0.0346838
0.119844 0.249271 0.0294194
0.18584 0.243473 0.0241703
0.254337 0.227955 0.0150149
0.322835 0.212451 0.00585946
0.39176 0.188708 0.00292973
0.460685 0.16495 0
0.514656 0.135531 0
0.568627 0.106111 0
0.599695 0.0951095 0
0.630762 0.084123 0
0.629419 0.0617838 0
0.628077 0.0394446 0
0.628748 0.0197147 0
0.629419 0 0
0.629602 0 0
0.629786 0 0
0.629786 0 0
0.629786 0 0
0.629786 0 0
0.629786 0 0
0.629786 0 0
0.629786 0 0
0 0.31429 0.0544594
0 0.312581 0.0544594
0 0.310872 0.0544594
0 0.309163 0.0545815
0 0.307454 0.0547036
0 0.305745 0.0547036
0 0.304036 0.0547036
0 0.301595 0.0545815
0 0.299138 0.0544594
0 0.307088 0.0424964
0 0.315022 0.030518
0.0772869 0.312093 0.0310063
0.154574 0.309163 0.0314946
0.229908 0.295842 0.0216068
0.305257 0.282536 0.0117189
0.377295 0.264958 0.00585946
0.449332 0.247379 0
0.506477 0.229786 0
0.563607 0.212207 0
0.597681 0.190234 0
0.631739 0.168261 0
0.629053 0.123568 0
0.626368 0.0788739 0
0.62771 0.0394446 0
0.629053 0 0
0.629419 0 0
0.629786 0 0
0.629786 0 0
0.629786 0 0
0.629786 0 0
0.629786 0 0
0.629786 0 0
0.629786 0 0
0 0.390356 0.0324712
0 0.38883 0.0325322
0 0.387304 0.0325933
0 0.385779 0.0327153
0 0.384253 0.0328374
0 0.382666 0.0329595
0 0.381079 0.0330816
0 0.378882 0.0330816
0 0.376684 0.0330816
0 0.378943 0.0273442
0 0.381201 0.0216068
0.0386511 0.386572 0.023621
0.0772869 0.391943 0.0256352
0.171313 0.379431 0.0209964
0.265324 0.366918 0.0163577
0.345174 0.349874 0.0126955
0.425025 0.332845 0.00903334
0.484611 0.319051 0.00451667
0.544198 0.305257 0
0.58175 0.289738 0
0.619287 0.274235 0
0.622583 0.242924 0
0.625879 0.211597 0
0.627771 0.183276 0
0.629664 0.15494 0
0.630518 0.148531 0
0.631373 0.142123 0
0.631739 0.137911 0
0.632105 0.1337 0
0.632227 0.131075 0
0.632349 0.12845 0
0.63241 0.126925 0
0.632471 0.125399 0
0 0.466423 0.0104982
0 0.46508 0.0106203
0 0.463737 0.0107424
0 0.462394 0.0108644
0 0.461051 0.0109865
0 0.459586 0.0112306
0 0.458122 0.0114748
0 0.456168 0.0115969
0 0.454215 0.0117189
0 0.450797 0.0122072
0 0.447379 0.0126955
0 0.461051 0.0162356
0 0.474723 0.0197757
0.112703 0.463004 0.0203861
0.225391 0.451286 0.0209964
0.313069 0.434806 0.0195315
0.400732 0.418311 0.0180667
0.46276 0.408301 0.00903334
0.524788 0.398291 0
0.565805 0.389258 0
0.606836 0.380224 0
0.616114 0.362264 0
0.625391 0.34432 0
0.627832 0.327108 0
0.630274 0.309895 0
0.631617 0.297063 0
0.632959 0.284245 0
0.633707 0.275822 0
0.63444 0.267399 0
0.634684 0.26215 0
0.634928 0.256901 0
0.63505 0.253849 0
0.635172 0.250797 0
0 0.550179 0.0052491
0 0.54902 0.00531014
0 0.54786 0.00537118
0 0.5467 0.00543221
0 0.545541 0.00549325
0 0.54432 0.00561532
0 0.543099 0.00573739
0 0.54139 0.00579843
0 0.539681 0.00585946
0 0.536751 0.00610361
0 0.533822 0.00634775
0 0.538582 0.0081178
0 0.543343 0.00988785
0.0628214 0.544442 0.0157473
0.125643 0.545541 0.0216068
0.242985 0.527352 0.0212406
0.360311 0.509163 0.0208743
0.432471 0.498405 0.0231327
0.504646 0.487663 0.025391
0.547189 0.480766 0.0286259
0.589746 0.473869 0.0318608
0.601831 0.461234 0.0309453
0.613916 0.4486 0.0300298
0.615442 0.434684 0.0272831
0.616968 0.420752 0.0245365
0.617945 0.410559 0.0227054
0.618921 0.400366 0.0208743
0.619471 0.393713 0.0196536
0.62002 0.38706 0.0184329
0.620264 0.38291 0.0177615
0.620508 0.378759 0.0170901
0.62063 0.376379 0.0167239
0.620752 0.373999 0.0163577
0 0.633951 0
0 0.632959 0
0 0.631983 0
0 0.631006 0
0 0.63003 0
0 0.629053 0
0 0.628077 0
0 0.626612 0
0 0.625147 0
0 0.622705 0
0 0.620264 0
0 0.616114 0
0 0.611963 0
0.0129397 0.625879 0.0111086
0.0258793 0.639811 0.0222171
0.1729 0.619898 0.0229496
0.319905 0.6 0.023682
0.402197 0.588525 0.0372473
0.484489 0.57705 0.0507973
0.528572 0.57229 0.0572671
0.572656 0.567529 0.0637369
0.587549 0.560189 0.0619059
0.602441 0.552865 0.0600748
0.603052 0.542245 0.0545815
0.603662 0.531624 0.0490883
0.604273 0.524056 0.0454261
0.604883 0.516487 0.0417639
0.605249 0.511604 0.0393225
0.605615 0.506722 0.0368811
0.605859 0.50367 0.0355383
0.606104 0.500618 0.0341955
0.606226 0.498894 0.033463
0.606348 0.497185 0.0327153
0 0.71014 0.0365148
0 0.709285 0.0362097
0 0.708431 0.0359045
0 0.707576 0.0355383
0 0.706722 0.035172
0 0.705867 0.0348669
0 0.705013 0.0345617
0 0.703792 0.0341344
0 0.702571 0.0337072
0 0.700435 0.0328985
0 0.698283 0.032105
0 0.694743 0.0308843
0 0.691203 0.0296635
0.00646983 0.701473 0.0429847
0.0129397 0.711727 0.0562905
0.141085 0.699199 0.0596475
0.26923 0.686687 0.0630045
0.366415 0.670939 0.0725261
0.463615 0.655192 0.0820478
0.513252 0.649821 0.0919966
0.562875 0.64445 0.101961
0.583215 0.639628 0.106416
0.60354 0.634806 0.110872
0.603601 0.626307 0.105745
0.603662 0.617823 0.100618
0.603784 0.611719 0.0971847
0.603906 0.605615 0.0937667
0.604028 0.601709 0.0915084
0.60415 0.597803 0.08925
0.604212 0.595361 0.0880293
0.604273 0.59292 0.0868086
0.604334 0.591577 0.0861372
0.604395 0.590234 0.0854658
0 0.786328 0.0730144
0 0.785595 0.0724041
0 0.784863 0.0717937
0 0.784131 0.0710613
0 0.783398 0.0703288
0 0.782666 0.0697185
0 0.781933 0.0691081
0 0.780957 0.0682536
0 0.77998 0.0673991
0 0.778149 0.0658122
0 0.776318 0.0642252
0 0.773388 0.0617838
0 0.770459 0.0593423
0 0.77705 0.0748455
0 0.783642 0.0903487
0.109285 0.778515 0.0963302
0.218555 0.773388 0.102327
0.330648 0.753353 0.10782
0.442741 0.733333 0.113313
0.497917 0.727352 0.126741
0.553109 0.72137 0.140169
0.578882 0.719051 0.150912
0.604639 0.716731 0.161654
0.60415 0.710384 0.156893
0.603662 0.704036 0.152132
0.603296 0.699382 0.148959
0.60293 0.694743 0.145785
0.602808 0.691814 0.143709
0.602686 0.688884 0.141634
0.602564 0.687053 0.140536
0.602441 0.685222 0.139437
0.602441 0.684245 0.138827
0.602441 0.683268 0.138216
0 0.843229 0.135409
0 0.842618 0.134737
0 0.842008 0.134066
0 0.841398 0.133394
0 0.840787 0.132723
0 0.840177 0.132174
0 0.839567 0.131624
0 0.838773 0.13077
0 0.83798 0.129915
0 0.836454 0.128389
0 0.834928 0.126864
0 0.83241 0.124361
0 0.829908 0.121859
0 0.831617 0.127657
0 0.833341 0.133455
0.0776532 0.834623 0.152071
0.155306 0.835904 0.170703
0.291875 0.813184 0.170703
0.428443 0.790478 0.170703
0.490105 0.781384 0.180529
0.551766 0.77229 0.190356
0.57998 0.769848 0.200244
0.608179 0.767407 0.210132
0.611536 0.762997 0.208118
0.614893 0.758602 0.206104
0.614221 0.75494 0.202869
0.61355 0.751278 0.199634
0.613245 0.748959 0.197559
0.61294 0.746639 0.195483
0.612634 0.745235 0.194263
0.612329 0.743832 0.193042
0.612268 0.743038 0.192432
0.612207 0.742245 0.191821
0 0.90013 0.197803
0 0.899641 0.19707
0 0.899138 0.196338
0 0.89865 0.195727
0 0.898161 0.195117
0 0.897673 0.194629
0 0.897185 0.194141
0 0.896574 0.193286
0 0.895964 0.192432
0 0.894743 0.190967
0 0.893523 0.189502
0 0.891447 0.186938
0 0.889372 0.184375
0 0.886198 0.180468
0 0.883024 0.176562
0.0460365 0.890715 0.207813
0.0920577 0.898405 0.239078
0.253117 0.873014 0.233585
0.41416 0.847623 0.228077
0.482292 0.835416 0.234318
0.550423 0.823194 0.240543
0.581079 0.82063 0.249577
0.611719 0.818067 0.25861
0.618921 0.815625 0.259342
0.626123 0.813184 0.260075
0.625147 0.810498 0.256779
0.62417 0.807813 0.253483
0.623682 0.806104 0.251408
0.623194 0.804395 0.249332
0.622705 0.803418 0.24799
0.622217 0.802441 0.246647
0.622095 0.801831 0.246036
0.621973 0.801221 0.245426
0 0.935897 0.246525
0 0.93547 0.245914
0 0.935042 0.245304
0 0.934615 0.244694
0 0.934188 0.244083
0 0.933822 0.243595
0 0.933455 0.243107
0 0.932906 0.242313
0 0.932357 0.24152
0 0.931258 0.240177
0 0.930159 0.238834
0 0.92845 0.236515
0 0.926741 0.234195
0 0.923995 0.230579
0 0.921248 0.226978
0.0230106 0.925948 0.250309
0.0460365 0.930648 0.273625
0.224353 0.911177 0.276066
0.402686 0.891691 0.278508
0.476066 0.874418 0.279484
0.549447 0.857145 0.280461
0.58291 0.853422 0.288151
0.616358 0.849699 0.295842
0.628138 0.848051 0.299077
0.639933 0.846403 0.302327
0.638956 0.844022 0.299382
0.63798 0.841642 0.296452
0.63743 0.840116 0.294499
0.636881 0.83859 0.292546
0.636454 0.837736 0.291386
0.636027 0.836881 0.290227
0.635843 0.836332 0.289616
0.63566 0.835782 0.289006
0 0.971679 0.295232
0 0.971313 0.294743
0 0.970947 0.294255
0 0.970581 0.293645
0 0.970214 0.293034
0 0.96997 0.292546
0 0.969726 0.292058
0 0.969238 0.291325
0 0.96875 0.290593
0 0.967773 0.289372
0 0.966796 0.288151
0 0.965438 0.286076
0 0.964096 0.284001
0 0.961776 0.280705
0 0.959457 0.277409
0 0.961166 0.29279
0 0.962875 0.308186
0.195605 0.949325 0.318563
0.391211 0.935775 0.328939
0.469841 0.913436 0.324666
0.54847 0.891081 0.320394
0.584741 0.886198 0.326741
0.620996 0.881315 0.333089
0.637369 0.880461 0.338827
0.653727 0.879606 0.344564
0.65275 0.877531 0.342
0.651774 0.875456 0.339437
0.651164 0.874113 0.337606
0.650553 0.87277 0.335775
0.650187 0.872038 0.334798
0.649821 0.871305 0.333822
0.649577 0.870817 0.333211
0.649332 0.870329 0.332601
0 0.978271 0.304524
0 0.978088 0.30428
0 0.977905 0.304036
0 0.977722 0.303731
0 0.977539 0.303426
0 0.977417 0.303181
0 0.977295 0.302937
0 0.97705 0.302571
0 0.976806 0.302205
0 0.976318 0.301595
0 0.97583 0.300984
0 0.975158 0.299931
0 0.974487 0.298894
0 0.973327 0.297246
0 0.972168 0.295598
0 0.973022 0.303304
0 0.973877 0.310994
0.186816 0.967712 0.334066
0.373632 0.961532 0.357137
0.459648 0.938704 0.352438
0.545663 0.915877 0.347738
0.584436 0.909285 0.352743
0.623194 0.902693 0.357748
0.641032 0.901473 0.363485
0.658854 0.900252 0.369238
0.660746 0.89865 0.368444
0.662638 0.897063 0.367651
0.662028 0.895842 0.365988
0.661418 0.894621 0.36434
0.661051 0.893889 0.363363
0.660685 0.893156 0.362387
0.660502 0.892729 0.361837
0.660319 0.892302 0.361288
0 0.984863 0.313802
0 0.984863 0.313802
0 0.984863 0.313802
0 0.984863 0.313802
0 0.984863 0.313802
0 0.984863 0.313802
0 0.984863 0.313802
0 0.984863 0.313802
0 0.984863 0.313802
0 0.984863 0.313802
0 0.984863 0.313802
0 0.984863 0.313802
0 0.984863 0.313802
0 0.984863 0.313802
0 0.984863 0.313802
0 0.984863 0.313802
0 0.984863 0.313802
0.178027 0.986084 0.349569
0.356039 0.987305 0.385351
0.449454 0.963973 0.380224
0.542855 0.940658 0.375097
0.584131 0.932357 0.378759
0.625391 0.924056 0.382422
0.644694 0.922469 0.388159
0.663981 0.920882 0.393896
0.668742 0.919783 0.394873
0.673503 0.918685 0.39585
0.672892 0.917586 0.394385
0.672282 0.916487 0.39292
0.671916 0.915755 0.391943
0.67155 0.915022 0.390967
0.671427 0.914656 0.390478
0.671305 0.91429 0.38999
0 0.984863 0.313802
0 0.984863 0.313802
0 0.984863 0.313802
0 0.984863 0.313802
0 0.984863 0.313802
0 0.984863 0.313802
0 0.984863 0.313802
0 0.984863 0.313802
0 0.984863 0.313802
0 0.984863 0.313802
0 0.984863 0.313802
0 0.984863 0.313802
0 0.984863 0.313802
0 0.984863 0.313802
0 0.984863 0.313802
0 0.984863 0.313802
0 0.984863 0.313802
0.161959 0.987732 0.349447
0.323934 0.9906 0.385107
0.427344 0.967468 0.380346
0.53077 0.94432 0.375586
0.575769 0.936263 0.380591
0.620752 0.928206 0.385595
0.641764 0.927657 0.392859
0.66276 0.927108 0.400122
0.67039 0.92723 0.403479
0.678019 0.927352 0.406836
0.677714 0.926802 0.406104
0.677409 0.926253 0.405371
0.677226 0.925887 0.404883
0.677043 0.925521 0.404395
0.676982 0.925338 0.40415
0.676921 0.925155 0.403906
0 0.984863 0.313802
0 0.984863 0.313802
0 0.984863 0.313802
0 0.984863 0.313802
0 0.984863 0.313802
0 0.984863 0.313802
0 0.984863 0.313802
0 0.984863 0.313802
0 0.984863 0.313802
0 0.984863 0.313802
0 0.984863 0.313802
0 0.984863 0.313802
0 0.984863 0.313802
0 0.984863 0.313802
0 0.984863 0.313802
0 0.984863 0.313802
0 0.984863 0.313802
0.145907 0.98938 0.349325
0.291814 0.993896 0.384863
0.405249 0.970947 0.380468
0.518685 0.947982 0.376074
0.567407 0.940169 0.382422
0.616114 0.932357 0.388769
0.638834 0.932845 0.397559
0.66154 0.933333 0.406348
0.672038 0.934676 0.412085
0.682536 0.936019 0.417823
0.682536 0.936019 0.417823
0.682536 0.936019 0.417823
0.682536 0.936019 0.417823
0.682536 0.936019 0.417823
0.682536 0.936019 0.417823
0.682536 0.936019 0.417823
0 0.984863 0.313802
0 0.984863 0.313802
0 0.984863 0.313802
0 0.984863 0.313802
0 0.984863 0.313802
0 0.984863 0.313802
0 0.984863 0.313802
0 0.984863 0.313802
0 0.984863 0.313802
