apps/typegpu-docs/public/assets/cube-luts/kodaRG400.cube
TITLE "Generated by Resolve"
LUT_3D_SIZE 5
0.00918593 0.0563973 0.0637522
0.117342 0.0728466 0.0699626
0.74316 0 0
1 0.07364 0
1 0.07364 0
0 0.139178 0.100572
0.0776989 0.115343 0.0765545
0.69102 0 0
1 0.07364 0
1 0.07364 0
0 0.805615 0.406821
0 0.749172 0.318791
0.596017 0.591363 0
1 0.453452 0
1 0.429847 0
0.62771 0.957046 0.745098
0.60325 0.954269 0.726192
0.698528 0.954376 0.7075
0.949554 0.914168 0.227955
1 0.90367 0
0.624552 0.956161 0.744854
0.614832 0.955612 0.735058
0.697108 0.955276 0.713512
0.918563 0.959228 0.528634
0.98027 0.949355 0.354818
0.00276188 0.0829175 0.125963
0.109499 0.0845655 0.104387
0.720745 0 0
1 0.07364 0
1 0.07364 0
0 0.149447 0.153124
0.0788434 0.123125 0.129137
0.66894 0 0
1 0.07364 0
1 0.07364 0
0 0.806134 0.507912
0 0.756374 0.422568
0.605997 0.604974 0
1 0.451102 0
1 0.426062 0
0.646616 0.954467 0.776989
0.635111 0.95462 0.765042
0.708232 0.954528 0.732341
0.949096 0.918898 0.321767
1 0.907103 0.0384527
0.659861 0.955337 0.786954
0.631128 0.95349 0.765179
0.702556 0.954131 0.734737
0.921752 0.96144 0.569894
0.979767 0.95404 0.43064
0 0.166903 0.592432
0 0.162097 0.545403
0.754437 0.00105287 0.378439
1 0.0116426 0.155215
1 0.0566873 0.12253
0 0.24387 0.636255
0 0.210666 0.593896
0.732219 0.131655 0.445716
1 0.0031281 0.214633
1 0.00479133 0.188357
0.206104 0.80061 0.785595
0.0194095 0.74609 0.744839
0.58735 0.605524 0.62237
1 0.438605 0.358129
1 0.413886 0.331624
0.629084 0.956451 0.894408
0.611368 0.956283 0.879088
0.729152 0.954528 0.848798
0.926238 0.923903 0.713695
0.979431 0.913649 0.658457
0.632212 0.955901 0.899809
0.619745 0.95642 0.886046
0.70959 0.954986 0.848676
0.915175 0.960204 0.781888
0.962325 0.958053 0.736645
0.428016 0.433921 0.923201
0.425711 0.409033 0.908934
0.807767 0.571084 0.862196
1 0.548394 0.75491
1 0.526085 0.739178
0.492409 0.525963 0.940322
0.454826 0.465995 0.923339
0.778943 0.553277 0.875212
0.997864 0.585428 0.785107
0.999863 0.575936 0.774563
0.317357 0.803922 0.960143
0.238132 0.758572 0.960082
0.674022 0.698604 0.91371
0.963165 0.726268 0.855161
0.965637 0.70724 0.843519
0.61355 0.949554 0.968933
0.61355 0.949554 0.968933
0.710613 0.953048 0.968505
0.913481 0.923079 0.923827
0.955642 0.907393 0.907149
0.61355 0.949554 0.968933
0.61355 0.949554 0.968933
0.705165 0.952819 0.968536
0.924056 0.962585 0.948974
0.961807 0.966049 0.938643
0.524926 0.523384 0.951019
0.512383 0.493111 0.939345
0.812467 0.612741 0.895186
0.993484 0.606577 0.808484
0.995682 0.595728 0.796567
0.520836 0.549325 0.949477
0.537758 0.542306 0.949569
0.788998 0.603021 0.907408
0.987137 0.621653 0.830945
0.9906 0.620356 0.823758
0.318669 0.804913 0.960113
0.241535 0.760067 0.960128
0.716915 0.739208 0.947448
0.960204 0.755337 0.893111
0.960662 0.737377 0.882551
0.61355 0.949554 0.968933
0.61355 0.949554 0.968933
0.710353 0.953033 0.968505
0.92752 0.93756 0.965545
0.960021 0.937667 0.954696
0.61355 0.949554 0.968933
0.61355 0.949554 0.968933
0.70486 0.952804 0.968536
0.927489 0.968734 0.971176
0.971435 0.974762 0.974884
