apps/typegpu-docs/public/assets/cube-luts/kodaRG400.cube
TITLE "Generated by Resolve"
LUT_3D_SIZE 33
0.00918593 0.0563973 0.0637522
0.0104982 0.0561227 0.0634928
0.0134432 0.0561532 0.0631876
0.0174411 0.0563363 0.0628367
0.0249027 0.0569467 0.0626993
0.0383307 0.0590524 0.0632639
0.0654917 0.0623178 0.0649882
0.0922866 0.0670481 0.0669718
0.117342 0.0728466 0.0699626
0.152041 0.0725719 0.073228
0.198581 0.064622 0.0755627
0.25948 0.0397955 0.0764019
0.335225 0.00230411 0.0729839
0.424994 0 0.0627909
0.524834 0 0.0417334
0.629877 0 0.0077821
0.74316 0 0
0.839689 0 0
0.917662 0 0
0.983322 0 0
1 0 0
1 0.0261692 0
1 0.07364 0
1 0.07364 0
1 0.07364 0
1 0.07364 0
1 0.07364 0
1 0.07364 0
1 0.07364 0
1 0.07364 0
1 0.07364 0
1 0.07364 0
1 0.07364 0
0.00872816 0.0573892 0.0641031
0.00968948 0.0572213 0.0637064
0.0121462 0.0572519 0.0633402
0.0163577 0.057557 0.0629129
0.0231174 0.0579995 0.0626688
0.03682 0.059266 0.0632181
0.0632486 0.0620584 0.0648508
0.0906539 0.0667124 0.0668498
0.115846 0.0725261 0.0697795
0.149966 0.0727398 0.0730755
0.196475 0.0652171 0.0754711
0.256687 0.0412146 0.0764477
0.332021 0.00308232 0.0732738
0.421485 0 0.0632792
0.521141 0 0.0426795
0.626474 0 0.0084535
0.739956 0 0
0.837049 0 0
0.915389 0 0
0.981033 0 0
1 0 0
1 0.0241703 0
1 0.07364 0
1 0.07364 0
1 0.07364 0
1 0.07364 0
1 0.07364 0
1 0.07364 0
1 0.07364 0
1 0.07364 0
1 0.07364 0
1 0.07364 0
1 0.07364 0
0.00761425 0.0614939 0.0655985
0.00866712 0.0603494 0.0647135
0.0106813 0.0592508 0.063859
0.0151522 0.0586404 0.0630655
0.0214389 0.059144 0.0626841
0.0354162 0.0601358 0.0631113
0.0611124 0.0625925 0.064332
0.0890974 0.0665446 0.0666819
0.114549 0.072221 0.0696117
0.148409 0.0728771 0.0729534
0.194354 0.0656443 0.0753948
0.254582 0.0422827 0.0764782
0.329305 0.00373846 0.0735027
0.418509 0 0.0636912
0.518013 0 0.0434882
0.623255 0 0.00907912
0.736568 0 0
0.834241 0 0
0.9131 0 0
0.978988 0 0
1 0 0
1 0.0212863 0
1 0.07364 0
1 0.07364 0
1 0.07364 0
1 0.07364 0
1 0.07364 0
1 0.07364 0
1 0.07364 0
1 0.07364 0
1 0.07364 0
1 0.07364 0
1 0.07364 0
0.00622568 0.0668193 0.0675975
0.007187 0.0658579 0.0666514
0.00851453 0.0647898 0.0657359
0.0125734 0.063859 0.0646067
0.0181125 0.0627756 0.0633707
0.0334173 0.06215 0.0629587
0.0586862 0.0633707 0.0638132
0.0873121 0.067277 0.0661479
0.112902 0.0721294 0.0692149
0.146136 0.0730755 0.0728008
0.192111 0.0661173 0.0753033
0.251514 0.0438392 0.0765393
0.326101 0.00451667 0.0737774
0.415 0 0.0641947
0.514519 0 0.0444038
0.619501 0 0.0101167
0.732998 0 0
0.831296 0 0
0.910414 0 0
0.976593 0 0
1 0 0
1 0.0184024 0
1 0.07364 0
1 0.07364 0
1 0.07364 0
1 0.07364 0
1 0.07364 0
1 0.07364 0
1 0.07364 0
1 0.07364 0
1 0.07364 0
1 0.07364 0
1 0.07364 0
0.00344854 0.0761578 0.0711833
0.00471504 0.0742962 0.0699321
0.0059205 0.0725719 0.0686809
0.00956741 0.0706645 0.066804
0.0142824 0.0691997 0.0650034
0.0291295 0.0689555 0.0628824
0.0540932 0.0687724 0.0625467
0.0852522 0.0692607 0.0651102
0.110796 0.0727245 0.0684215
0.143389 0.0742657 0.0721294
0.189181 0.0667124 0.0751812
0.24831 0.0454719 0.076585
0.322423 0.00541695 0.0740978
0.410971 0 0.0647593
0.510109 0 0.0455482
0.614832 0 0.0118563
0.728298 0 0
0.827405 0 0
0.907332 0 0
0.973816 0 0
1 0 0
1 0.0152438 0
1 0.07364 0
1 0.07364 0
1 0.07364 0
1 0.07364 0
1 0.07364 0
1 0.07364 0
1 0.07364 0
1 0.07364 0
1 0.07364 0
1 0.07364 0
1 0.07364 0
7.62951e-05 0.0888228 0.076463
0.000732433 0.0872969 0.0751659
0.00189212 0.08542 0.0741894
0.00521859 0.083299 0.0728466
0.0104982 0.0807965 0.0708019
0.0224918 0.0789654 0.0665904
0.0470436 0.0777752 0.0620279
0.0814069 0.0772259 0.0624704
0.108248 0.0770428 0.0664683
0.139483 0.0768902 0.0707866
0.184558 0.0696422 0.0746319
0.243824 0.0478981 0.0766155
0.317449 0.00662242 0.0745251
0.405539 0 0.065507
0.504402 0 0.0470283
0.609415 0 0.0138705
0.722728 0 0
0.822889 0 0
0.903166 0 0
0.970092 0 0
1 0 0
1 0.0106508 0
1 0.07364 0
1 0.07364 0
1 0.07364 0
1 0.07364 0
1 0.07364 0
1 0.07364 0
1 0.07364 0
1 0.07364 0
1 0.07364 0
1 0.07364 0
1 0.07364 0
0 0.10013 0.0851453
3.0518e-05 0.0986343 0.083772
0.000198367 0.0971695 0.0824903
0.00128176 0.0957046 0.0812085
0.00543221 0.0938277 0.0792401
0.0144503 0.0918593 0.0755016
0.0331273 0.0903639 0.0680552
0.0721904 0.088304 0.0610361
0.105043 0.0856794 0.0621805
0.135912 0.0826429 0.0682536
0.179416 0.0761273 0.0725109
0.236652 0.0536965 0.0758679
0.310414 0.00950637 0.0747234
0.399039 0 0.0664225
0.49778 0 0.0487373
0.602136 0 0.0165866
0.714458 0 0
0.816831 0 0
0.897932 0 0
0.965652 0 0
1 0 0
1 0.00517281 0
1 0.0690318 0
1 0.07364 0
1 0.07364 0
1 0.07364 0
1 0.07364 0
1 0.07364 0
1 0.07364 0
1 0.07364 0
1 0.07364 0
1 0.07364 0
1 0.07364 0
0 0.115526 0.0926986
0 0.113497 0.0917067
0 0.111772 0.0907149
0 0.109957 0.0894636
0.000839246 0.107988 0.0879072
0.00505074 0.105608 0.0859846
0.0197452 0.1028 0.0826276
0.0507973 0.100877 0.0716564
0.0979782 0.0986191 0.0605478
0.131975 0.0938277 0.0608225
0.174243 0.0873579 0.0676432
0.229725 0.0686656 0.0728161
0.300481 0.0208438 0.0734112
0.387869 0 0.0679484
0.488029 0 0.0508736
0.593545 0 0.0197757
0.704723 0 0
0.808927 0 0
0.891737 0 0
0.960128 0 0
0.999466 0 0
1 0 0
1 0.0624247 0
1 0.07364 0
1 0.07364 0
1 0.07364 0
1 0.07364 0
1 0.07364 0
1 0.07364 0
1 0.07364 0
1 0.07364 0
1 0.07364 0
1 0.07364 0
0 0.139178 0.100572
0 0.136843 0.0995804
0 0.134737 0.0986496
0 0.132189 0.0975662
0 0.129091 0.0961013
0 0.125872 0.094255
0.00477607 0.121828 0.092134
0.0280003 0.118196 0.0879225
0.0776989 0.115343 0.0765545
0.123125 0.111589 0.0598459
0.16817 0.102754 0.0566567
0.222812 0.0912642 0.0639658
0.291936 0.052369 0.0678264
0.376104 0.000885023 0.0649119
0.473869 0 0.0513924
0.579767 0 0.0236057
0.69102 0 0
0.799725 0 0
0.883879 0 0
0.952972 0 0
0.997192 0 0
1 0 0
1 0.0546578 0
1 0.07364 0
1 0.07364 0
1 0.07364 0
1 0.07364 0
1 0.07364 0
1 0.07364 0
1 0.07364 0
1 0.07364 0
1 0.07364 0
1 0.07364 0
0 0.173083 0.110491
0 0.16994 0.109453
0 0.1673 0.108476
0 0.164324 0.107362
0 0.16083 0.106035
0 0.156298 0.104143
0 0.150744 0.101579
0.00218204 0.144976 0.0984207
0.0399329 0.140291 0.0933547
0.105577 0.137255 0.0802014
0.160723 0.131106 0.0592355
0.217029 0.116686 0.047013
0.283146 0.0983291 0.053666
0.364202 0.037995 0.0539864
0.459449 0 0.0445411
0.563378 0 0.0216068
0.672938 0 0
0.780987 0 0
0.870451 0 0
0.945006 0 0
0.994583 0 0
1 0 0
1 0.0457313 0
1 0.07364 0
1 0.07364 0
1 0.07364 0
1 0.07364 0
1 0.07364 0
1 0.07364 0
1 0.07364 0
1 0.07364 0
1 0.07364 0
1 0.07364 0
0 0.226566 0.123232
0 0.222431 0.121828
0 0.218402 0.120699
0 0.213794 0.119432
0 0.208118 0.117861
0 0.201419 0.115953
0 0.193973 0.113542
0 0.185977 0.110185
0.00550851 0.176776 0.105791
0.0731518 0.169863 0.0985885
0.138994 0.166827 0.0822156
0.210544 0.158679 0.0564584
0.284657 0.140627 0.0356451
0.361776 0.115923 0.0276493
0.447883 0.0479744 0.0247196
0.548821 0 0.00856031
0.654994 0 4.57771e-05
0.760555 0 0
0.85185 0 0
0.926574 0 0
0.98677 0 0
1 0 0
1 0.0316777 0
1 0.07364 0
1 0.07364 0
1 0.07364 0
1 0.07364 0
1 0.07364 0
1 0.07364 0
1 0.07364 0
1 0.07364 0
1 0.07364 0
1 0.07364 0
0 0.299184 0.136782
0 0.293553 0.135393
0 0.288487 0.134127
0 0.282918 0.132708
0 0.276356 0.131029
0 0.268879 0.129091
0 0.259434 0.126696
0 0.248569 0.123537
0 0.235584 0.11931
0.0113527 0.221866 0.113527
0.110597 0.211826 0.102373
0.183413 0.206317 0.0801862
0.271015 0.197009 0.038468
0.356603 0.175067 0.00967422
0.447364 0.14786 0.000274662
0.547524 0.10248 0
0.652338 0.0119326 0
0.773159 0 0
0.845777 0 0
0.911315 0 0
0.975433 0 0
1 0 0
1 0.0219577 0
1 0.0577096 0
1 0.0513161 0
1 0.0462348 0
1 0.0425422 0
1 0.0459297 0
1 0.0483711 0
1 0.0492256 0
1 0.0497139 0
1 0.0502022 0
1 0.0506905 0
0 0.38912 0.150225
0 0.383734 0.148974
0 0.378363 0.147753
0 0.372229 0.146349
0 0.364614 0.144656
0 0.355215 0.142428
0 0.34374 0.139696
0 0.330327 0.136065
0 0.315129 0.132158
0 0.298283 0.126818
0.0430915 0.279789 0.119554
0.155962 0.26688 0.102052
0.243244 0.260075 0.0549935
0.343771 0.248798 0.00207523
0.43888 0.222675 0
0.538384 0.196201 0
0.644739 0.168627 0
0.750225 0.137835 0
0.845701 0.089128 0
0.924025 0.091722 0
0.986007 0.0989395 0
1 0.114061 0
1 0.108965 0
1 0.123827 0
1 0.118013 0
1 0.109972 0
1 0.103914 0
1 0.099794 0
1 0.0972915 0
1 0.0961013 0
1 0.0955062 0
1 0.0949264 0
1 0.0943313 0
0 0.504173 0.172305
0 0.497414 0.169421
0 0.491524 0.167254
0 0.485679 0.165393
0 0.478279 0.163287
0 0.46894 0.16054
0 0.456947 0.157061
0 0.441733 0.152331
0 0.421347 0.146563
0 0.39675 0.139544
0 0.373938 0.131884
0.110582 0.353552 0.120745
0.218967 0.341756 0.0879835
0.324804 0.335988 0.00265507
0.45626 0.335225 0
0.554299 0.302235 0
0.636759 0.264469 0
0.734417 0.246281 0
0.823911 0.232883 0
0.902617 0.221042 0
0.96582 0.213809 0
0.99855 0.214694 0
1 0.216648 0
1 0.218494 0
1 0.214572 0
1 0.208133 0
1 0.203464 0
1 0.200427 0
1 0.198489 0
1 0.197803 0
1 0.197406 0
1 0.197024 0
1 0.196628 0
0 0.611337 0.214054
0 0.606821 0.21088
0 0.602274 0.207691
0 0.59704 0.204089
0 0.590539 0.199481
0 0.582834 0.19498
0 0.57525 0.190372
0 0.565759 0.184878
0 0.549508 0.17644
0 0.523003 0.16408
0 0.496818 0.150179
0 0.46804 0.137163
0.187076 0.440345 0.116106
0.290242 0.419745 0.0294652
0.409323 0.416236 0
0.549264 0.417563 0
0.652903 0.387793 0
0.744549 0.359365 0
0.829328 0.344015 0
0.889433 0.324498 0
0.944961 0.3075 0
0.990295 0.299825 0
1 0.29546 0
1 0.290974 0
1 0.285893 0
1 0.277668 0
1 0.271565 0
1 0.267445 0
1 0.265324 0
1 0.264332 0
1 0.263828 0
1 0.26334 0
1 0.262837 0
0 0.72134 0.298909
0 0.715572 0.292699
0 0.710124 0.286824
0 0.70425 0.2804
0 0.696437 0.271992
0 0.686412 0.261143
0 0.67425 0.248432
0 0.66125 0.236881
0 0.647013 0.223789
0 0.630091 0.209201
0 0.609216 0.192401
0 0.585702 0.171618
0.0818036 0.559838 0.149477
0.276692 0.533867 0.104875
0.37998 0.511025 0.000198367
0.500877 0.50248 0
0.635126 0.501534 0
0.727169 0.46949 0
0.806394 0.439094 0
0.877562 0.419883 0
0.938842 0.409247 0
0.986725 0.398581 0
1 0.389288 0
1 0.379416 0
1 0.370245 0
1 0.359609 0
1 0.35172 0
1 0.34641 0
1 0.344076 0
1 0.342763 0
1 0.342245 0
1 0.341711 0
1 0.341451 0
0 0.805615 0.406821
0 0.801801 0.399908
0 0.797894 0.392798
0 0.793454 0.384756
0 0.786938 0.374334
0 0.77998 0.363622
0 0.772183 0.352239
0 0.761578 0.336065
0 0.749172 0.318791
0 0.734691 0.299123
0 0.71516 0.273762
0 0.688746 0.241917
0.0112154 0.663935 0.21062
0.249546 0.634867 0.174334
0.367102 0.612146 0.0965744
0.477989 0.599878 0
0.596017 0.591363 0
0.714611 0.585153 0
0.791516 0.54905 0
0.860487 0.519402 0
0.919921 0.496101 0
0.968399 0.483146 0
1 0.473976 0
1 0.462638 0
1 0.453452 0
1 0.445426 0
1 0.439002 0
1 0.434958 0
1 0.432471 0
1 0.431418 0
1 0.4309 0
1 0.430365 0
1 0.429847 0
0.212039 0.868345 0.519905
0.187366 0.865278 0.512886
0.162997 0.862272 0.505913
0.133928 0.858686 0.497566
0.0962692 0.854047 0.486763
0.0462501 0.847929 0.472282
0.0161288 0.840375 0.45623
0.0011902 0.83151 0.438224
0 0.823209 0.422553
0 0.812924 0.404273
0 0.80296 0.386221
0 0.786313 0.357305
0.0752117 0.763638 0.317708
0.265919 0.743877 0.283207
0.382315 0.716091 0.235172
0.460609 0.682994 0.123476
0.554223 0.66215 0
0.665003 0.655863 0
0.780331 0.658 0
0.850263 0.62649 0
0.907637 0.597223 0
0.953521 0.572915 0
0.99472 0.556329 0
1 0.54609 0
1 0.536294 0
1 0.528206 0
1 0.52166 0
1 0.517571 0
1 0.515053 0
1 0.514 0
1 0.513481 0
1 0.512947 0
1 0.512551 0
0.433738 0.912474 0.619669
0.425376 0.910628 0.61445
0.418677 0.908995 0.610468
0.411383 0.90721 0.606073
0.401282 0.904814 0.600214
0.388113 0.901778 0.592584
0.370092 0.897719 0.582284
0.336629 0.891249 0.565499
0.291493 0.882872 0.543725
0.245777 0.873137 0.518181
0.147173 0.859022 0.484703
0.155245 0.844312 0.45005
0.214633 0.829755 0.419074
0.304524 0.814679 0.386862
0.397406 0.797147 0.349294
0.481193 0.77377 0.291203
0.557534 0.753521 0.19057
0.646448 0.73727 0.0200961
0.743175 0.728496 0
0.839643 0.726329 0
0.894972 0.692927 0
0.937957 0.663615 0
0.978485 0.642115 0
0.998581 0.625956 0
1 0.614282 0
1 0.606058 0
1 0.600092 0
1 0.595987 0
1 0.593881 0
1 0.592889 0
1 0.592386 0
1 0.591882 0
1 0.591394 0
0.575204 0.946685 0.706981
0.569696 0.945235 0.703166
0.564431 0.943877 0.699535
0.558297 0.942306 0.695277
0.549325 0.940139 0.689357
0.537377 0.937316 0.681468
0.521553 0.933654 0.671046
0.499504 0.928786 0.656733
0.472114 0.922545 0.639292
0.4439 0.915496 0.619715
0.418906 0.907713 0.598321
0.397787 0.898085 0.57258
0.384771 0.885649 0.538872
0.397116 0.871641 0.500648
0.439292 0.855375 0.459693
0.501076 0.837858 0.413413
0.566918 0.820157 0.347631
0.636622 0.803815 0.248371
0.716411 0.790372 0.0746166
0.800793 0.781308 0
0.880629 0.776074 0
0.927916 0.751247 0
0.967956 0.728344 0
0.994965 0.709697 0
1 0.695979 0
1 0.684794 0
1 0.676982 0
1 0.672038 0
1 0.669184 0
1 0.667994 0
1 0.667536 0
1 0.666941 0
1 0.666331 0
0.587625 0.950149 0.716075
0.585489 0.949523 0.714473
0.583352 0.948928 0.712902
0.581155 0.948302 0.711238
0.578134 0.947448 0.708965
0.574411 0.946441 0.706172
0.569696 0.945174 0.702586
0.563485 0.943572 0.697841
0.552331 0.941024 0.689967
0.536019 0.937331 0.677958
0.52105 0.933104 0.664393
0.512444 0.928878 0.650507
0.501595 0.921431 0.628275
0.495933 0.910704 0.597147
0.509987 0.898726 0.562875
0.546273 0.886152 0.526772
0.596277 0.871519 0.481239
0.643153 0.855238 0.399405
0.70013 0.837812 0.287984
0.773358 0.827527 0.116854
0.846738 0.81973 0
0.910155 0.81387 0
0.951522 0.793286 0
0.984131 0.77438 0
1 0.759854 0
1 0.749981 0
1 0.742901 0
1 0.738994 0
1 0.736736 0
1 0.73579 0
1 0.735317 0
1 0.734844 0
1 0.734371 0
0.610452 0.955108 0.731701
0.608606 0.954894 0.730282
0.606653 0.954665 0.728801
0.604807 0.954452 0.727382
0.603571 0.954345 0.726284
0.605386 0.954696 0.727123
0.607767 0.955139 0.728237
0.610574 0.955673 0.729534
0.609277 0.955108 0.727993
0.601114 0.952758 0.721294
0.585153 0.948745 0.707897
0.57261 0.944503 0.693721
0.565301 0.939834 0.677989
0.566079 0.934524 0.66067
0.579797 0.929351 0.64332
0.597635 0.919814 0.614176
0.627115 0.907851 0.577066
0.667826 0.896315 0.52987
0.71017 0.885084 0.4533
0.765682 0.874052 0.360174
0.823453 0.860899 0.210697
0.877195 0.849088 0.016434
0.933104 0.844648 0
0.97142 0.832837 0
0.997177 0.817624 0
1 0.806699 0
1 0.79884 0
1 0.79469 0
1 0.792477 0
1 0.791547 0
1 0.791089 0
1 0.790738 0
1 0.790265 0
0.617655 0.955932 0.737209
0.615717 0.955703 0.735729
0.614054 0.95552 0.734462
0.611917 0.955276 0.732815
0.609476 0.954986 0.730953
0.606271 0.95462 0.728496
0.603464 0.95433 0.726223
0.606317 0.954864 0.72755
0.609857 0.955535 0.729213
0.614389 0.956283 0.731014
0.618738 0.956771 0.731411
0.617853 0.956054 0.726528
0.615106 0.953552 0.716731
0.616678 0.949569 0.704341
0.617731 0.94374 0.683696
0.633295 0.938338 0.664591
0.662379 0.933211 0.646998
0.693797 0.924575 0.617502
0.723781 0.915343 0.562341
0.763348 0.906233 0.490257
0.811719 0.896025 0.396765
0.861708 0.887587 0.290028
0.912184 0.880537 0.0995499
0.956481 0.875319 0
0.986801 0.865644 0
0.997574 0.854566 0
0.999222 0.846403 0
1 0.841566 0
1 0.839673 0
1 0.838849 0
1 0.838437 0
1 0.838132 0
1 0.837705 0
0.623896 0.956649 0.741985
0.621942 0.95642 0.74049
0.620295 0.956237 0.739223
0.618143 0.955993 0.737591
0.615717 0.955703 0.735729
0.612497 0.955337 0.733272
0.608804 0.95491 0.730434
0.60383 0.954345 0.726635
0.606012 0.954803 0.727413
0.611093 0.955673 0.729686
0.616449 0.956374 0.730968
0.620371 0.956451 0.729335
0.623392 0.955734 0.724224
0.642329 0.956771 0.726543
0.656733 0.956176 0.721325
0.664897 0.951324 0.702724
0.682338 0.945739 0.682063
0.71133 0.940703 0.663569
0.742596 0.936584 0.637339
0.769741 0.929732 0.581964
0.806882 0.921553 0.510292
0.847639 0.913237 0.425727
0.891737 0.905638 0.32462
0.933181 0.899413 0.179828
0.969512 0.89575 0.00582895
0.992966 0.891737 0
0.997528 0.886168 0
0.999939 0.881971 0
1 0.880064 0
1 0.879316 0
1 0.87895 0
1 0.87866 0
1 0.878294 0
0.62771 0.957046 0.745098
0.627207 0.957031 0.744518
0.62536 0.956817 0.743099
0.623316 0.956588 0.741543
0.620874 0.956298 0.739681
0.617853 0.955962 0.737362
0.61387 0.955489 0.73431
0.608988 0.95494 0.730587
0.60325 0.954269 0.726192
0.608194 0.955139 0.72845
0.614267 0.955962 0.730343
0.620523 0.956436 0.730373
0.624933 0.956039 0.726497
0.640665 0.956634 0.726894
0.657801 0.956619 0.724071
0.675273 0.95555 0.71635
0.698528 0.954376 0.7075
0.725963 0.951553 0.694972
0.754238 0.947234 0.674037
0.779919 0.944427 0.638972
0.807599 0.939818 0.586801
0.840162 0.932357 0.516884
0.878553 0.925719 0.437476
0.916152 0.919493 0.345968
0.949554 0.914168 0.227955
0.976226 0.909911 0.0511482
0.990616 0.907866 0.0170748
0.997864 0.906065 0.00340276
1 0.904891 0
1 0.904387 0
1 0.904189 0
1 0.903914 0
1 0.90367 0
0.626566 0.956725 0.745007
0.6271 0.956878 0.745052
0.627558 0.957 0.745083
0.627405 0.957061 0.744671
0.624964 0.956771 0.742809
0.621759 0.956405 0.740337
0.617853 0.955962 0.737362
0.613077 0.955413 0.733715
0.607431 0.954757 0.729397
0.605768 0.954696 0.727398
0.612406 0.955612 0.729717
0.619074 0.956176 0.73019
0.626047 0.956252 0.728191
0.639368 0.956527 0.727138
0.656748 0.956619 0.724819
0.675395 0.955871 0.718441
0.697963 0.954696 0.709682
0.727123 0.953872 0.701747
0.762036 0.95433 0.697383
0.788449 0.953628 0.673961
0.812863 0.949981 0.629923
0.838834 0.945464 0.576455
0.869673 0.939208 0.504784
0.90428 0.934127 0.432013
0.936233 0.930007 0.358099
0.962707 0.926284 0.27155
0.98117 0.923568 0.178668
0.990768 0.921721 0.126513
0.996231 0.920668 0.0978408
0.996429 0.920241 0.0930648
0.996551 0.919997 0.0903944
0.996674 0.919753 0.0876478
0.99678 0.919509 0.0848859
0.625757 0.956497 0.744945
0.626261 0.956649 0.744976
0.62678 0.956786 0.745022
0.627314 0.956939 0.745068
0.627985 0.957122 0.745113
0.624765 0.956756 0.742657
0.620874 0.956298 0.739681
0.616098 0.955749 0.736019
0.610452 0.955108 0.731701
0.604913 0.954498 0.727214
0.610971 0.955352 0.729229
0.61799 0.955978 0.730037
0.626413 0.956329 0.729152
0.638392 0.956451 0.727337
0.655634 0.956558 0.725093
0.675517 0.9561 0.719982
0.697551 0.954925 0.711254
0.724819 0.953719 0.701488
0.759762 0.954086 0.6972
0.789639 0.95613 0.684215
0.817655 0.95761 0.661891
0.84097 0.953704 0.614054
0.868818 0.949752 0.557244
0.897063 0.944289 0.486198
0.926406 0.940169 0.41973
0.952438 0.937133 0.354131
0.972168 0.934752 0.288716
0.98294 0.933013 0.244938
0.989471 0.932082 0.217914
0.990478 0.93164 0.212085
0.990662 0.931411 0.210086
0.990845 0.931167 0.208072
0.991012 0.930938 0.206073
0.625223 0.956344 0.7449
0.625711 0.956481 0.744945
0.626215 0.956634 0.744976
0.62678 0.956786 0.745022
0.627451 0.95697 0.745068
0.626917 0.957 0.744289
0.622919 0.956542 0.741238
0.618051 0.955978 0.737514
0.612299 0.955322 0.73312
