apps/typegpu-docs/public/assets/cube-luts/kodaRG400.cube
TITLE "Generated by Resolve"
LUT_3D_SIZE 9
0.00918593 0.0563973 0.0637522
0.0249027 0.0569467 0.0626993
0.117342 0.0728466 0.0699626
0.335225 0.00230411 0.0729839
0.74316 0 0
1 0 0
1 0.07364 0
1 0.07364 0
1 0.07364 0
0.00344854 0.0761578 0.0711833
0.0142824 0.0691997 0.0650034
0.110796 0.0727245 0.0684215
0.322423 0.00541695 0.0740978
0.728298 0 0
1 0 0
1 0.07364 0
1 0.07364 0
1 0.07364 0
0 0.139178 0.100572
0 0.129091 0.0961013
0.0776989 0.115343 0.0765545
0.291936 0.052369 0.0678264
0.69102 0 0
0.997192 0 0
1 0.07364 0
1 0.07364 0
1 0.07364 0
0 0.38912 0.150225
0 0.364614 0.144656
0 0.315129 0.132158
0.243244 0.260075 0.0549935
0.644739 0.168627 0
0.986007 0.0989395 0
1 0.118013 0
1 0.0972915 0
1 0.0943313 0
0 0.805615 0.406821
0 0.786938 0.374334
0 0.749172 0.318791
0.0112154 0.663935 0.21062
0.596017 0.591363 0
0.919921 0.496101 0
1 0.453452 0
1 0.432471 0
1 0.429847 0
0.587625 0.950149 0.716075
0.578134 0.947448 0.708965
0.552331 0.941024 0.689967
0.501595 0.921431 0.628275
0.596277 0.871519 0.481239
0.846738 0.81973 0
1 0.759854 0
1 0.736736 0
1 0.734371 0
0.62771 0.957046 0.745098
0.620874 0.956298 0.739681
0.60325 0.954269 0.726192
0.624933 0.956039 0.726497
0.698528 0.954376 0.7075
0.807599 0.939818 0.586801
0.949554 0.914168 0.227955
1 0.904891 0
1 0.90367 0
0.624933 0.956268 0.744884
0.627161 0.956893 0.745052
0.613474 0.955459 0.734005
0.625238 0.956161 0.729122
0.697139 0.955169 0.712825
0.816892 0.958007 0.666316
0.920455 0.953643 0.497215
0.979553 0.944228 0.325353
0.982605 0.943084 0.311315
0.624552 0.956161 0.744854
0.62678 0.956786 0.745022
0.614832 0.955612 0.735058
0.624781 0.9561 0.729122
0.697108 0.955276 0.713512
0.816022 0.957916 0.666728
0.918563 0.959228 0.528634
0.976944 0.95053 0.3691
0.98027 0.949355 0.354818
0.00738537 0.0594797 0.0782025
0.0214847 0.0589151 0.0723888
0.114595 0.07187 0.0692302
0.334585 0.0024567 0.0730449
0.742397 0 0
1 0 0
1 0.07364 0
1 0.07364 0
1 0.07364 0
0.00247196 0.0789807 0.0856184
0.0132906 0.0715953 0.0791943
0.108309 0.072694 0.069337
0.321782 0.00556954 0.0741588
0.727916 0 0
1 0 0
1 0.07364 0
1 0.07364 0
1 0.07364 0
0 0.143099 0.113512
0 0.13312 0.107286
0.076173 0.115969 0.0867933
0.287205 0.0568551 0.0675669
0.69044 0 0
0.997101 0 0
1 0.07364 0
1 0.07364 0
1 0.07364 0
0 0.392874 0.168978
0 0.366125 0.160082
0 0.319341 0.144152
0.243717 0.261448 0.0683604
0.63888 0.168811 0
0.985428 0.0999771 0
1 0.119005 0
1 0.0984665 0
1 0.0955062 0
0 0.806561 0.432258
0 0.793057 0.409033
0 0.752926 0.345312
0.00900282 0.664195 0.228183
0.59089 0.588388 0
0.913787 0.492256 0
1 0.455055 0
1 0.433509 0
1 0.4309 0
0.60914 0.952117 0.734783
0.598367 0.949325 0.726589
0.554589 0.940124 0.696269
0.508492 0.92166 0.638102
0.595575 0.871092 0.488548
0.847822 0.822065 0
1 0.75906 0
1 0.736141 0
1 0.733669 0
0.628656 0.95584 0.751232
0.623438 0.955398 0.746639
0.624949 0.956268 0.744884
0.62536 0.9552 0.730632
0.705364 0.95552 0.71783
0.808621 0.942168 0.600275
0.952605 0.919097 0.270634
1 0.908339 0
1 0.906676 0
0.635248 0.956405 0.757046
0.629969 0.955962 0.752392
0.622171 0.955489 0.744671
0.630472 0.955993 0.736858
0.70016 0.955352 0.71931
0.814786 0.95697 0.6654
0.925795 0.958663 0.531395
0.983154 0.948928 0.36463
0.98349 0.94728 0.352697
0.63595 0.956466 0.757656
0.630732 0.956024 0.753063
0.621836 0.955398 0.744656
0.630991 0.956069 0.737514
0.699489 0.955306 0.719387
0.814252 0.957015 0.666636
0.923964 0.96231 0.552392
0.981338 0.95465 0.403723
0.981704 0.952941 0.391394
0.00276188 0.0829175 0.125963
0.0182345 0.0818494 0.119219
0.109499 0.0845655 0.104387
0.328176 0.0149386 0.0775616
0.720745 0 0
1 0 0
1 0.07364 0
1 0.07364 0
1 0.07364 0
0 0.0929427 0.132906
0.00943008 0.0891737 0.126055
0.102113 0.0869612 0.109789
0.318853 0.026688 0.0820478
0.703746 0 0
1 0 0
1 0.07364 0
1 0.07364 0
1 0.07364 0
0 0.149447 0.153124
0 0.139849 0.146273
0.0788434 0.123125 0.129137
0.282994 0.0843519 0.0971695
0.66894 0 0
0.994598 0 0
1 0.07364 0
1 0.07364 0
1 0.07364 0
0 0.40502 0.244816
0 0.380301 0.230076
0 0.330159 0.199512
0.252033 0.269917 0.128237
0.630945 0.168795 0
0.958846 0.0513466 0
1 0.0972152 0
1 0.0824292 0
1 0.0818494 0
0 0.806134 0.507912
0 0.791928 0.483711
0 0.756374 0.422568
0.00622568 0.668452 0.299306
0.605997 0.604974 0
0.908812 0.489632 0
1 0.451102 0
1 0.428824 0
1 0.426062 0
0.623301 0.950988 0.757961
0.613581 0.94818 0.750393
0.577218 0.939849 0.724971
0.531273 0.922042 0.670283
0.603952 0.872999 0.53341
0.847288 0.824918 0.0623636
1 0.758602 0
1 0.735958 0
1 0.733501 0
0.646616 0.954467 0.776989
0.63711 0.953841 0.769863
0.635111 0.95462 0.765042
0.647807 0.955993 0.757916
0.708232 0.954528 0.732341
0.807889 0.941787 0.621057
0.949096 0.918898 0.321767
1 0.90866 0.0467079
1 0.907103 0.0384527
0.658381 0.955261 0.785824
0.648981 0.954635 0.778775
0.631556 0.953613 0.765164
0.64654 0.955642 0.760281
0.702632 0.954055 0.733959
0.814801 0.955901 0.680583
0.923323 0.959121 0.557031
0.981109 0.950057 0.406577
0.981674 0.948486 0.396017
0.659861 0.955337 0.786954
0.650568 0.954742 0.779965
0.631128 0.95349 0.765179
0.646387 0.955596 0.760555
0.702556 0.954131 0.734737
0.814435 0.955993 0.682185
0.921752 0.96144 0.569894
0.978943 0.955306 0.439078
0.979767 0.95404 0.43064
0 0.109041 0.263371
0 0.107851 0.254017
0.109361 0.111635 0.227756
0.336034 0.0805524 0.183627
0.719829 0 0.0959335
1 0.031281 0
1 0.03505 0
1 0.0379492 0
1 0.0383459 0
0 0.119234 0.273747
0 0.114321 0.263523
0.0960403 0.113161 0.239322
0.324788 0.0938888 0.19237
0.703273 0 0.114534
1 0.0248417 0
1 0.0605173 0
1 0.035584 0
1 0.035935 0
0 0.175463 0.306294
0 0.165957 0.29453
0.0662089 0.150546 0.26743
0.299901 0.125795 0.214176
0.676371 0 0.141878
0.991958 0.00943008 0
1 0.120378 0
1 0.086244 0
1 0.0815747 0
0 0.416312 0.408728
0 0.39379 0.389883
0 0.345068 0.346578
0.271366 0.287419 0.284398
0.632303 0.169818 0.181399
0.957641 0.114046 0
1 0.166857 0
1 0.149294 0
1 0.147311 0
0.23386 0.811475 0.654459
0.172747 0.795239 0.635508
0 0.758587 0.595285
0.243748 0.690837 0.51603
0.599084 0.602426 0.313237
0.907851 0.48394 0
1 0.450904 0
1 0.430838 0
1 0.428656 0
0.612696 0.95172 0.798169
0.610269 0.948318 0.793942
0.603265 0.941039 0.782849
0.599283 0.922835 0.753857
0.628763 0.876448 0.649195
0.836973 0.825025 0.391455
0.999969 0.760266 0
1 0.73431 0
1 0.731609 0
0.610391 0.957183 0.810162
0.614313 0.95642 0.807721
0.620127 0.954559 0.801648
0.675242 0.954452 0.807675
0.724178 0.953658 0.780941
0.817655 0.944137 0.707088
0.939498 0.92015 0.496651
0.99675 0.911147 0.376883
0.997086 0.909575 0.370413
0.596994 0.957397 0.810712
0.607721 0.957229 0.810269
0.61677 0.955642 0.805158
0.665263 0.954543 0.807309
0.724132 0.954192 0.787549
0.824155 0.955718 0.745541
0.91751 0.959381 0.642618
0.972473 0.950561 0.537194
0.973434 0.949203 0.530251
0.595331 0.957412 0.810788
0.60592 0.957244 0.810346
0.616388 0.955764 0.80557
0.663844 0.954543 0.807233
0.724208 0.954253 0.788434
0.823514 0.955627 0.746349
0.916411 0.959548 0.644663
0.969833 0.955825 0.560449
0.971878 0.954543 0.552438
0 0.166903 0.592432
0 0.163119 0.576898
0 0.162097 0.545403
0.408225 0.202396 0.502358
0.754437 0.00105287 0.378439
0.999832 0 0.232853
1 0.0116426 0.155215
1 0.0523232 0.125643
1 0.0566873 0.12253
0 0.180209 0.607385
0 0.174075 0.595407
0 0.166232 0.561379
0.39585 0.201221 0.516457
0.744137 0.00776684 0.397009
0.999817 0 0.254612
1 0.00782788 0.173678
1 0.0189364 0.149447
1 0.0236973 0.146044
0 0.24387 0.636255
0 0.231601 0.623285
0 0.210666 0.593896
0.370672 0.212741 0.549889
0.732219 0.131655 0.445716
0.988327 0 0.298665
1 0.0031281 0.214633
1 0.00422675 0.191028
1 0.00479133 0.188357
0 0.440818 0.675303
0 0.419104 0.661234
0 0.37499 0.631083
0.287282 0.347601 0.604074
0.673335 0.307332 0.520211
0.950454 0.0979019 0.377127
1 0.11194 0.281453
1 0.101472 0.262272
1 0.0999619 0.259693
0.206104 0.80061 0.785595
0.144076 0.783047 0.771908
0.0194095 0.74609 0.744839
0.203815 0.675975 0.691585
0.58735 0.605524 0.62237
0.893309 0.482811 0.470497
1 0.438605 0.358129
1 0.416571 0.334737
1 0.413886 0.331624
0.608698 0.954253 0.877745
0.603021 0.950622 0.87245
0.590555 0.942779 0.860655
0.581231 0.92639 0.834485
0.665339 0.879866 0.785672
0.822538 0.828519 0.66807
0.992905 0.751202 0.471427
1 0.722164 0.406485
1 0.719493 0.40235
0.629084 0.956451 0.894408
0.624155 0.956497 0.889708
0.611368 0.956283 0.879088
0.616632 0.957137 0.861967
0.729152 0.954528 0.848798
0.835111 0.945708 0.818555
0.926238 0.923903 0.713695
0.978821 0.9149 0.661402
0.979431 0.913649 0.658457
0.631922 0.955947 0.89929
0.629602 0.956359 0.895293
0.618753 0.956405 0.885222
0.618463 0.956909 0.867765
0.711742 0.95494 0.848692
0.837964 0.954772 0.835279
0.915969 0.96025 0.780591
0.960876 0.954116 0.730892
0.962921 0.952941 0.726223
0.632212 0.955901 0.899809
0.629969 0.956298 0.895949
0.619745 0.95642 0.886046
0.618341 0.956847 0.868269
0.70959 0.954986 0.848676
0.837324 0.954757 0.835798
0.915175 0.960204 0.781888
0.959319 0.959304 0.741848
0.962325 0.958053 0.736645
0.155734 0.286122 0.833738
0.137728 0.276463 0.824826
0.216739 0.269627 0.809018
0.477455 0.293233 0.77879
0.781125 0.331716 0.717479
0.995773 0.357794 0.61474
1 0.321691 0.559136
1 0.292653 0.533562
1 0.289311 0.530617
0.177981 0.300084 0.839445
0.156481 0.288731 0.830991
0.2159 0.275517 0.815351
0.470192 0.297536 0.788357
0.775113 0.347204 0.733074
0.992233 0.372656 0.631052
1 0.341894 0.57763
1 0.315816 0.553964
1 0.312474 0.551019
0.239353 0.368841 0.856748
0.23534 0.359213 0.85362
0.228733 0.321614 0.830228
0.452415 0.317205 0.806195
0.760906 0.391806 0.763394
0.979202 0.412238 0.668589
1 0.372152 0.60914
1 0.354788 0.591058
1 0.352804 0.588998
0.0438697 0.507683 0.867964
0.03888 0.489448 0.859541
0.0663615 0.467353 0.84921
0.40412 0.446036 0.828824
0.730282 0.524544 0.80531
0.940642 0.480659 0.719921
1 0.447715 0.667964
1 0.421393 0.648173
1 0.417777 0.64538
0 0.778378 0.900282
0 0.762325 0.893202
0 0.728542 0.878325
0 0.653666 0.843702
0.623133 0.652125 0.825559
0.870832 0.661402 0.784695
0.99379 0.613718 0.735653
0.996735 0.583505 0.715511
0.997131 0.580316 0.713359
0.54905 0.937591 0.941802
0.544594 0.934539 0.937774
0.527459 0.924849 0.925704
0.526665 0.909239 0.905531
0.626184 0.866636 0.871443
0.808316 0.823102 0.82916
0.956344 0.760998 0.764309
0.98407 0.739559 0.74432
0.984176 0.737697 0.742901
0.605127 0.947982 0.965682
0.583429 0.943923 0.957321
0.550011 0.938201 0.942306
0.582208 0.947097 0.93315
0.723705 0.955032 0.923796
0.844236 0.95021 0.902266
0.920195 0.926986 0.85742
0.96408 0.913695 0.826886
0.964324 0.911925 0.824506
0.571954 0.941787 0.952895
0.561227 0.939773 0.948775
0.549889 0.93814 0.942412
0.576532 0.943786 0.93463
0.71017 0.955077 0.926757
0.837736 0.95639 0.907286
0.919951 0.960662 0.887129
0.956283 0.958236 0.86627
0.958984 0.957214 0.863783
0.57348 0.942061 0.95349
0.562509 0.940017 0.949264
0.54963 0.938018 0.942611
0.575891 0.943328 0.934829
0.7084 0.955093 0.927123
0.836637 0.956374 0.907744
0.919326 0.96054 0.887877
0.955917 0.963485 0.871351
0.959304 0.962341 0.868482
0.428016 0.433921 0.923201
0.419089 0.424964 0.919188
0.425711 0.409033 0.908934
0.553628 0.417182 0.886198
0.807767 0.571084 0.862196
0.974777 0.555184 0.787335
1 0.548394 0.75491
1 0.528359 0.74081
1 0.526085 0.739178
0.442679 0.451835 0.927398
0.428901 0.436835 0.922728
0.431632 0.418402 0.912978
0.550591 0.423728 0.89221
0.7991 0.567803 0.866606
0.967147 0.551751 0.795316
1 0.564218 0.766049
1 0.544198 0.751949
1 0.542092 0.750469
0.492409 0.525963 0.940322
0.473182 0.504738 0.934783
0.454826 0.465995 0.923339
0.547097 0.449271 0.90338
0.778943 0.553277 0.875212
0.952773 0.554803 0.815686
0.997864 0.585428 0.785107
0.999664 0.576837 0.775555
0.999863 0.575936 0.774563
0.484016 0.633478 0.95169
0.465217 0.610986 0.946578
0.463584 0.58706 0.937545
0.535607 0.553765 0.918532
0.750912 0.599695 0.894087
0.929412 0.588952 0.855253
0.988998 0.615091 0.814359
0.991104 0.599908 0.802136
0.99144 0.598459 0.800702
0.317357 0.803922 0.960143
0.299229 0.790784 0.960464
0.238132 0.758572 0.960082
0.175128 0.677668 0.943923
0.674022 0.698604 0.91371
0.880262 0.762417 0.89305
0.963165 0.726268 0.855161
0.965209 0.708385 0.844358
0.965637 0.70724 0.843519
0.61355 0.949554 0.968933
0.606683 0.945663 0.968643
0.592325 0.937301 0.968078
0.592966 0.922759 0.967666
0.61178 0.870985 0.952361
0.820401 0.840223 0.917174
0.933959 0.851377 0.899825
0.951324 0.844694 0.892576
0.951461 0.843351 0.891554
0.61355 0.949554 0.968933
0.61355 0.949554 0.968933
0.61355 0.949554 0.968933
0.629816 0.950118 0.9691
0.710613 0.953048 0.968505
0.81796 0.945724 0.947936
0.913481 0.923079 0.923827
0.955779 0.909133 0.908309
0.955642 0.907393 0.907149
0.61355 0.949554 0.968933
0.61355 0.949554 0.968933
0.61355 0.949554 0.968933
0.627787 0.950072 0.969116
0.705715 0.952834 0.968536
0.821286 0.954437 0.95761
0.924804 0.962661 0.94844
0.957977 0.961181 0.936492
0.961196 0.959899 0.93431
0.61355 0.949554 0.968933
0.61355 0.949554 0.968933
0.61355 0.949554 0.968933
0.627588 0.950057 0.969116
0.705165 0.952819 0.968536
0.821103 0.954833 0.958556
0.924056 0.962585 0.948974
0.957885 0.966323 0.940352
0.961807 0.966049 0.938643
0.516579 0.515358 0.948684
0.506584 0.504173 0.945266
0.502464 0.483085 0.93611
0.592767 0.481376 0.915999
0.811124 0.606744 0.891295
0.964889 0.588205 0.830533
0.994507 0.601495 0.802899
0.996384 0.592371 0.792844
0.996612 0.591302 0.791653
0.52134 0.523476 0.950179
0.514138 0.514488 0.947707
0.514321 0.498314 0.940948
0.591974 0.489448 0.920851
0.805386 0.606943 0.896727
0.95877 0.586053 0.837949
0.992889 0.609491 0.811688
0.994873 0.599695 0.800946
0.995102 0.598566 0.799695
0.520851 0.54931 0.949493
0.524392 0.547707 0.950134
0.529427 0.534447 0.947051
0.589502 0.510918 0.928985
0.788495 0.598993 0.904677
0.94934 0.595773 0.859846
0.988769 0.621042 0.827573
0.991394 0.616846 0.819745
0.991669 0.615518 0.818311
0.485344 0.635233 0.952056
0.469337 0.613977 0.947646
0.499062 0.607813 0.948089
0.594415 0.608713 0.944488
0.760708 0.632898 0.918776
0.925231 0.667781 0.894881
0.978225 0.636484 0.84892
0.98085 0.627512 0.840726
0.981186 0.627054 0.84004
0.318425 0.80473 0.960113
0.300862 0.791959 0.960433
0.240986 0.759823 0.960128
0.284871 0.689921 0.953735
0.712535 0.734997 0.94406
0.886915 0.799344 0.920546
0.95967 0.750927 0.888579
0.960845 0.73666 0.879911
0.961089 0.735256 0.878889
0.61355 0.949554 0.968933
0.607309 0.946014 0.968673
0.592935 0.937652 0.968109
0.593423 0.923125 0.967681
0.639429 0.880354 0.964904
0.837659 0.856489 0.949783
0.942123 0.872816 0.932311
0.950896 0.859297 0.920424
0.95079 0.858152 0.91957
0.61355 0.949554 0.968933
0.61355 0.949554 0.968933
0.61355 0.949554 0.968933
0.629725 0.950118 0.9691
0.710353 0.953033 0.968505
0.830503 0.955688 0.968124
0.92549 0.935271 0.960464
0.958389 0.9355 0.951186
0.957549 0.933654 0.94966
0.61355 0.949554 0.968933
0.61355 0.949554 0.968933
0.61355 0.949554 0.968933
0.627726 0.950072 0.969116
0.705562 0.952834 0.968536
0.827863 0.959304 0.968063
0.928496 0.968856 0.971252
0.965194 0.96939 0.968673
0.967773 0.967865 0.966751
0.61355 0.949554 0.968933
0.61355 0.949554 0.968933
0.61355 0.949554 0.968933
0.627512 0.950057 0.969116
0.704967 0.952804 0.968536
0.8271 0.959258 0.968063
0.927626 0.96875 0.971191
0.965881 0.972961 0.970962
0.969558 0.973175 0.970199
0.524926 0.523384 0.951019
0.515023 0.512367 0.947631
0.512383 0.493111 0.939345
0.597314 0.488899 0.919036
0.812467 0.612741 0.895186
0.963684 0.590097 0.834531
0.993484 0.606577 0.808484
0.995422 0.596963 0.79794
0.995682 0.595728 0.796567
0.52134 0.523476 0.950179
0.522118 0.522087 0.950011
0.52108 0.505333 0.943053
0.596841 0.4972 0.923964
0.805066 0.609476 0.899229
0.957671 0.588418 0.842344
0.991852 0.614588 0.817273
0.993835 0.604791 0.806516
0.994064 0.603662 0.80528
0.520836 0.549325 0.949477
0.524346 0.547738 0.950134
0.537758 0.542306 0.949569
0.596307 0.520455 0.932235
0.788998 0.603021 0.907408
0.950256 0.604746 0.866331
0.987137 0.621653 0.830945
0.990188 0.620508 0.824613
0.9906 0.620356 0.823758
0.485344 0.635233 0.952056
0.469581 0.614282 0.947723
0.499062 0.607813 0.948089
0.601877 0.615702 0.947509
0.763104 0.638636 0.921828
0.923384 0.673503 0.89749
0.977234 0.640345 0.853269
0.979767 0.631022 0.844984
0.980117 0.630457 0.844221
0.318669 0.804913 0.960113
0.300862 0.791959 0.960433
0.241535 0.760067 0.960128
0.284459 0.689906 0.953735
0.716915 0.739208 0.947448
0.88777 0.80206 0.923308
0.960204 0.755337 0.893111
0.960449 0.738735 0.883391
0.960662 0.737377 0.882551
0.61355 0.949554 0.968933
0.607309 0.946014 0.968673
0.592935 0.937652 0.968109
0.593423 0.923125 0.967681
0.639536 0.880507 0.964904
0.840909 0.859586 0.954208
0.943618 0.876143 0.936385
0.95169 0.861021 0.923873
0.951568 0.859876 0.923064
0.61355 0.949554 0.968933
0.61355 0.949554 0.968933
0.61355 0.949554 0.968933
0.629725 0.950118 0.9691
0.710353 0.953033 0.968505
0.830701 0.955886 0.968139
0.92752 0.93756 0.965545
0.960693 0.939315 0.955947
0.960021 0.937667 0.954696
0.61355 0.949554 0.968933
0.61355 0.949554 0.968933
0.61355 0.949554 0.968933
0.627726 0.950072 0.969116
0.705455 0.952834 0.968536
0.827741 0.959304 0.968063
0.928496 0.968856 0.971252
0.966995 0.971359 0.97348
0.969757 0.970489 0.972152
0.61355 0.949554 0.968933
0.61355 0.949554 0.968933
0.61355 0.949554 0.968933
0.627512 0.950057 0.969116
0.70486 0.952804 0.968536
0.827039 0.959258 0.968063
0.927489 0.968734 0.971176
0.9673 0.974197 0.974517
0.971435 0.974762 0.974884
