apps/typegpu-docs/public/assets/cube-luts/Romantic_Memory_33.cube
TITLE "Generated by Resolve"
LUT_3D_SIZE 9
0.0567636 0.0661326 0.0639963
0.124849 0.0420844 0.0487526
0.305623 0.00123598 0.0142824
0.606638 0 0
0.861234 0 0
0.979889 0 0
1 0 0
1 0 0
1 0 0
0.0499733 0.121981 0.0840162
0.0963912 0.118181 0.0691997
0.256016 0.066743 0.0333562
0.56614 0.00227359 7.62951e-05
0.839231 0 0
0.974182 0 0
1 0 0
1 0 0
1 0 0
0.0355077 0.250019 0.125154
0.0717174 0.261936 0.115602
0.195865 0.246052 0.0809033
0.481361 0.158648 0.0201572
0.788983 0.0517433 0
0.959152 0.00825513 0
1 0 0
1 0 0
1 0 0
0.00851453 0.499611 0.205371
0.0492256 0.506447 0.200473
0.143984 0.524773 0.164752
0.400381 0.473365 0.0978256
0.707515 0.385229 0.0283818
0.903532 0.308049 0.000976577
0.999985 0.204379 0
1 0.0750134 0
1 0.0750134 0
0.000183108 0.810864 0.340352
0.0375982 0.797162 0.346578
0.133364 0.803326 0.297444
0.336996 0.774792 0.217517
0.635019 0.703166 0.121752
0.835233 0.649851 0.0592813
0.989609 0.59173 0.0103151
1 0.504433 4.57771e-05
1 0.504433 4.57771e-05
0.000549325 0.982147 0.553399
0.056611 0.972992 0.573404
0.166476 0.972274 0.528862
0.34023 0.95111 0.437568
0.579736 0.898222 0.307057
0.78912 0.846235 0.171206
0.955032 0.80325 0.0734112
1 0.769253 0.0147707
1 0.769253 0.0147707
0.000885023 1 0.866239
0.0802472 1 0.866926
0.224384 1 0.852628
0.377417 1 0.797787
0.564324 0.999435 0.711696
0.738842 0.992401 0.565911
0.915709 0.958907 0.292515
0.999893 0.93434 0.0664988
0.999893 0.93434 0.0664988
0 1 1
0.019852 1 1
0.168688 1 1
0.38555 1 0.999908
0.564065 1 0.982574
0.719432 1 0.941268
0.87805 1 0.853483
0.997406 0.987243 0.457191
0.997406 0.987243 0.457191
0 1 1
0.019852 1 1
0.168688 1 1
0.38555 1 0.999908
0.564065 1 0.982574
0.719432 1 0.941268
0.87805 1 0.853483
0.997406 0.987243 0.457191
0.997406 0.987243 0.457191
0.0430915 0.0814832 0.126711
0.101884 0.0556649 0.12285
0.243 0.0151522 0.0803693
0.535698 0 0.0242924
0.830808 0 0.000610361
0.975036 0 0
1 0 0
1 0 0
1 0 0
0.0387884 0.151843 0.126665
0.0990768 0.122454 0.118639
0.264622 0.0642557 0.0821546
0.562799 0.00164797 0.0222324
0.835737 0 0.00062562
0.973236 0 0
1 0 0
1 0 0
1 0 0
0.022858 0.302541 0.170321
0.0870832 0.26334 0.169909
0.207919 0.251652 0.132494
0.502846 0.155657 0.0596628
0.800259 0.0454108 0.00488289
0.959686 0.00669871 9.15541e-05
1 0 0
1 0 0
1 0 0
0.00407416 0.552361 0.26038
0.0660258 0.516045 0.270085
0.17026 0.519112 0.2421
0.414557 0.479789 0.157626
0.715755 0.389639 0.0754559
0.909087 0.303441 0.0206302
1 0.198199 0.000946059
1 0.0684367 0
1 0.0684367 0
0.000320439 0.842756 0.406531
0.0519722 0.812161 0.42356
0.172686 0.791257 0.409003
0.359991 0.772457 0.318746
0.641611 0.708278 0.199664
0.837415 0.654246 0.116472
0.991272 0.589746 0.048188
1 0.500282 0.00856031
1 0.500282 0.00856031
0.000717174 0.98706 0.621729
0.0657359 0.978515 0.637613
0.210788 0.968109 0.641352
0.373022 0.945006 0.563729
0.590997 0.898924 0.436149
0.790433 0.849928 0.277104
0.955627 0.805753 0.139956
1 0.768566 0.0438544
1 0.768566 0.0438544
0.00105287 1 0.900145
0.0848859 1 0.896727
0.248295 1 0.88542
0.416037 1 0.85095
0.582879 0.999146 0.785397
0.743038 0.993164 0.674205
0.915511 0.962432 0.426062
0.999817 0.935866 0.120836
0.999817 0.935866 0.120836
0 1 1
0.0198825 1 1
0.173251 1 1
0.4056 1 0.999939
0.590539 1 0.990188
0.729885 1 0.958358
0.881331 1 0.885466
0.997269 0.990036 0.589761
0.997269 0.990036 0.589761
0 1 1
0.0198825 1 1
0.173251 1 1
0.4056 1 0.999939
0.590539 1 0.990188
0.729885 1 0.958358
0.881331 1 0.885466
0.997269 0.990036 0.589761
0.997269 0.990036 0.589761
0.0287785 0.103761 0.291554
0.0687572 0.0816052 0.317845
0.212711 0.029633 0.280827
0.488945 1.5259e-05 0.182422
0.780804 0 0.107424
0.963775 0 0.0774395
1 0 0.0582895
1 0 0.0641794
1 0 0.0641794
0.0214237 0.195636 0.249622
0.0669261 0.161593 0.26743
0.214939 0.0971084 0.258686
0.487907 0.0201724 0.178058
0.793637 0 0.116533
0.964004 0 0.0785687
1 0 0.0520485
1 0 0.0506905
1 0 0.0506905
0.00614939 0.368139 0.286213
0.0590219 0.330526 0.277836
0.214817 0.262943 0.258915
0.513802 0.155917 0.192996
0.799588 0.0440375 0.12549
0.959014 0.00494392 0.082887
1 0 0.0537423
1 0 0.0450752
1 0 0.0450752
4.57771e-05 0.643397 0.372015
0.042359 0.592035 0.369802
0.207034 0.521706 0.366751
0.432547 0.489647 0.292256
0.728862 0.392554 0.195483
0.914366 0.29633 0.134356
1 0.192004 0.0957961
1 0.060853 0.0667277
1 0.060853 0.0667277
3.0518e-05 0.890272 0.508736
0.0432898 0.853132 0.518517
0.209201 0.79617 0.527199
0.396506 0.766552 0.478599
0.649592 0.71635 0.349477
0.840177 0.660441 0.247517
0.993408 0.587579 0.160113
1 0.495872 0.114946
1 0.495872 0.114946
0.000244144 0.992569 0.707698
0.0634165 0.986603 0.715587
0.232868 0.973648 0.717906
0.420356 0.933959 0.694942
0.606653 0.899413 0.59472
0.791882 0.85597 0.44242
0.956512 0.809934 0.282689
1 0.768414 0.133944
1 0.768414 0.133944
0.00047303 1 0.93637
0.0829175 1 0.929412
0.256672 1 0.912367
0.45774 0.999969 0.891463
0.607355 0.998779 0.846357
0.749233 0.993637 0.769558
0.91545 0.966857 0.585016
0.999725 0.939132 0.253758
0.999725 0.939132 0.253758
0 1 1
0.01738 1 1
0.173693 1 1
0.413886 1 0.999985
0.618601 1 0.998566
0.743008 1 0.975021
0.885695 1 0.915938
0.996536 0.99295 0.718547
0.996536 0.99295 0.718547
0 1 1
0.01738 1 1
0.173693 1 1
0.413886 1 0.999985
0.618601 1 0.998566
0.743008 1 0.975021
0.885695 1 0.915938
0.996536 0.99295 0.718547
0.996536 0.99295 0.718547
0.0161288 0.135012 0.520439
0.0401007 0.115724 0.581735
0.127932 0.0767224 0.592248
0.436484 0.00169375 0.509468
0.766232 0 0.391806
0.947219 0 0.313832
1 0 0.310582
1 0 0.330861
1 0 0.330861
0.00262455 0.258442 0.509377
0.0326543 0.220996 0.539437
0.133074 0.163622 0.557427
0.444251 0.0453803 0.494133
0.758633 0.00077821 0.38584
0.942824 0 0.334203
1 0 0.318944
1 0 0.32459
1 0 0.32459
4.57771e-05 0.453834 0.511101
0.017792 0.425742 0.512459
0.134813 0.353933 0.52549
0.442359 0.218448 0.49366
0.741497 0.129992 0.404257
0.935973 0.0347295 0.363897
1 0.000259403 0.330343
1 0 0.316869
1 0 0.316869
0 0.715358 0.578256
0.00717174 0.683009 0.572808
0.146227 0.619944 0.551507
0.439857 0.509865 0.513573
0.733516 0.400275 0.449912
0.912902 0.297093 0.398459
0.999985 0.185245 0.357031
1 0.0528115 0.335256
1 0.0528115 0.335256
0 0.957122 0.678828
0.00411994 0.926452 0.676112
0.167712 0.858946 0.659525
0.442679 0.766537 0.642969
0.659754 0.726955 0.566369
0.845563 0.666453 0.476417
0.994095 0.58732 0.411749
1 0.492241 0.382528
1 0.492241 0.382528
0 0.998825 0.81709
0.0303197 0.996567 0.814389
0.219181 0.988968 0.799832
0.458106 0.933547 0.783642
0.632364 0.896147 0.744213
0.794079 0.863828 0.639597
0.957794 0.816098 0.511452
1 0.771405 0.385748
1 0.771405 0.385748
3.0518e-05 1 0.97232
0.0617075 1 0.963958
0.249714 1 0.945312
0.471626 0.999954 0.918975
0.640864 0.997879 0.896651
0.758587 0.993973 0.846632
0.916152 0.971389 0.732692
0.999603 0.945251 0.497032
0.999603 0.945251 0.497032
0 1 1
0.0115663 1 1
0.16492 1 1
0.416312 1 1
0.635477 1 0.999435
0.759899 1 0.990768
0.892561 1 0.947021
0.995834 0.99527 0.818998
0.995834 0.99527 0.818998
0 1 1
0.0115663 1 1
0.16492 1 1
0.416312 1 1
0.635477 1 0.999435
0.759899 1 0.990768
0.892561 1 0.947021
0.995834 0.99527 0.818998
0.995834 0.99527 0.818998
0.00782788 0.18352 0.677455
0.0139315 0.164843 0.785183
0.0625315 0.132311 0.787854
0.272969 0.0515755 0.757656
0.716106 0 0.659083
0.943862 0 0.585153
1 0 0.53579
1 0 0.546807
1 0 0.546807
0 0.325872 0.72433
0.0028687 0.306371 0.785367
0.0578012 0.254963 0.786679
0.284077 0.15079 0.757488
0.716915 0.00801099 0.663523
0.933333 3.0518e-05 0.59379
1 4.57771e-05 0.555581
1 0 0.553597
1 0 0.553597
0 0.574517 0.771969
6.10361e-05 0.543755 0.793164
0.0455329 0.479545 0.795666
0.292988 0.355703 0.766903
0.702876 0.175723 0.685359
0.908461 0.124849 0.621927
0.999924 0.0428779 0.588403
1 6.10361e-05 0.567681
1 6.10361e-05 0.567681
0 0.809186 0.817197
1.5259e-05 0.789639 0.814969
0.0480049 0.748486 0.804623
0.307912 0.635248 0.778027
0.673655 0.477226 0.724773
0.867079 0.422354 0.672068
0.998871 0.292393 0.635615
1 0.0908522 0.599954
1 0.0908522 0.599954
0 0.982223 0.87361
0 0.969238 0.868711
0.0730907 0.931792 0.84828
0.355596 0.846281 0.801511
0.660685 0.744503 0.756863
0.846036 0.675303 0.719158
0.992859 0.589288 0.67921
1 0.482597 0.654765
1 0.482597 0.654765
0 1 0.943908
0.00015259 0.999969 0.938125
0.0956588 0.999786 0.913725
0.402533 0.972045 0.866575
0.66154 0.896468 0.836576
0.798795 0.870726 0.79266
0.961074 0.820478 0.725795
1 0.774731 0.687144
1 0.774731 0.687144
0 1 0.99678
0.0105745 1 0.996536
0.190661 1 0.982101
0.453147 1 0.95494
0.659312 0.999039 0.931411
0.774624 0.993286 0.909316
0.91812 0.97528 0.838849
0.999542 0.951064 0.735409
0.999542 0.951064 0.735409
0 1 1
0.0015259 1 1
0.129747 1 1
0.402762 1 1
0.639521 1 1
0.781842 1 0.999268
0.901961 1 0.976287
0.995224 0.99707 0.894957
0.995224 0.99707 0.894957
0 1 1
0.0015259 1 1
0.129747 1 1
0.402762 1 1
0.639521 1 1
0.781842 1 0.999268
0.901961 1 0.976287
0.995224 0.99707 0.894957
0.995224 0.99707 0.894957
0.000213626 0.280903 0.814145
0.000549325 0.266453 0.877104
0.0109865 0.225483 0.914961
0.103868 0.167361 0.900938
0.503731 0.0276646 0.828367
0.915511 0 0.740551
1 0 0.690135
1 0 0.67303
1 0 0.67303
0 0.43769 0.860609
0 0.435798 0.916274
0.00227359 0.39794 0.935729
0.10309 0.31928 0.916915
0.508125 0.143191 0.843107
0.905028 0.00376898 0.75581
1 0.000518807 0.708293
1 0.00015259 0.689265
1 0.00015259 0.689265
0 0.662852 0.913802
0 0.680262 0.96228
0.00030518 0.642191 0.96495
0.0979477 0.555337 0.944518
0.504326 0.372839 0.872602
0.878737 0.176272 0.789624
0.999771 0.15288 0.745327
1 0.0425727 0.7196
1 0.0425727 0.7196
0 0.904463 0.96698
0 0.917571 0.985229
0.000122072 0.885313 0.986084
0.105089 0.806668 0.967529
0.504158 0.645685 0.904997
0.83711 0.481041 0.838682
0.988998 0.451637 0.796536
1 0.284962 0.767102
1 0.284962 0.767102
0 0.995361 0.998581
0 0.992523 0.997559
0.00213626 0.982574 0.991226
0.157763 0.94931 0.971344
0.527749 0.839277 0.918257
0.805417 0.729717 0.876814
0.966751 0.681575 0.838788
1 0.568505 0.816724
1 0.568505 0.816724
0 1 0.999985
0 1 0.999985
0.00454719 1 0.998871
0.232792 0.999008 0.984085
0.580224 0.953017 0.929747
0.796613 0.884031 0.897353
0.960937 0.826795 0.865888
1 0.773632 0.846769
1 0.773632 0.846769
0 1 1
0 1 1
0.0153506 1 0.999985
0.272526 1 0.997223
0.61268 0.999969 0.976272
0.792554 0.993652 0.958541
0.922591 0.979217 0.922408
0.999527 0.953933 0.875639
0.999527 0.953933 0.875639
0 1 1
0 1 1
0.0322118 1 1
0.32018 1 1
0.62121 1 1
0.790936 1 1
0.919585 1 0.996582
0.995407 0.998322 0.957626
0.995407 0.998322 0.957626
0 1 1
0 1 1
0.0322118 1 1
0.32018 1 1
0.62121 1 1
0.790936 1 1
0.919585 1 0.996582
0.995407 0.998322 0.957626
0.995407 0.998322 0.957626
0 0.515419 0.954726
0 0.513985 0.980056
0 0.492622 0.997513
0.00103761 0.423606 0.999817
0.107225 0.320928 0.991043
0.674449 0.0812543 0.891752
0.997192 0.000396735 0.803967
1 0 0.780392
1 0 0.780392
0 0.662654 0.983719
0 0.669184 0.997864
0 0.66334 0.999985
0.000122072 0.620813 1
0.0992905 0.51574 0.997299
0.661814 0.255726 0.920073
0.996109 0.0237736 0.827543
1 0.0226139 0.807126
1 0.0226139 0.807126
0 0.826444 0.998581
0 0.839673 0.999985
0 0.849088 1
1.5259e-05 0.830869 1
0.0940871 0.736263 0.999741
0.643305 0.495872 0.956176
0.984726 0.238834 0.868421
1 0.254459 0.849729
1 0.254459 0.849729
0 0.97499 1
0 0.983856 1
0 0.990463 1
0 0.98085 1
0.102876 0.912795 1
0.633158 0.717922 0.984176
0.961181 0.526375 0.917403
1 0.523049 0.896574
1 0.523049 0.896574
0 0.998886 1
0 0.999588 1
0 0.999817 1
0.000106813 0.998978 1
0.135439 0.987961 1
0.640574 0.862623 0.995224
0.936019 0.733364 0.952834
1 0.712139 0.93051
1 0.712139 0.93051
0 1 1
0 1 1
0 1 1
0.00381476 1 1
0.212024 0.999878 1
0.663386 0.96582 0.99794
0.921187 0.873808 0.975402
1 0.840681 0.954849
1 0.840681 0.954849
0 1 1
0 1 1
0 1 1
0.00709544 1 1
0.324971 1 1
0.709117 0.999969 0.999222
0.919081 0.986679 0.990555
0.999451 0.95967 0.976226
0.999451 0.95967 0.976226
0 1 1
0 1 1
0 1 1
0.0127871 1 1
0.345693 1 1
0.743252 1 1
0.937072 1 0.999969
0.995789 0.999268 0.994141
0.995789 0.999268 0.994141
0 1 1
0 1 1
0 1 1
0.0127871 1 1
0.345693 1 1
0.743252 1 1
0.937072 1 0.999969
0.995789 0.999268 0.994141
0.995789 0.999268 0.994141
0 0.938201 1
0 0.941817 1
0 0.943709 1
0 0.941772 1
0 0.92604 1
0.00802625 0.851194 1
0.607645 0.496345 0.957885
1 0.0198367 0.820539
1 0.0198367 0.820539
0 0.972305 1
0 0.975387 1
0 0.978042 1
0 0.978714 1
0 0.972427 1
0.00704967 0.936126 1
0.590433 0.654185 0.976577
0.99971 0.146426 0.853773
0.99971 0.146426 0.853773
0 0.996612 1
0 0.997116 1
0 0.99762 1
0 0.997757 1
0 0.997726 1
0.00691234 0.984924 1
0.58114 0.784176 0.989532
0.998672 0.389975 0.896422
0.998672 0.389975 0.896422
0 0.999115 1
0 0.999451 1
0 0.999512 1
0 0.999649 1
0 0.999863 1
0.00810254 0.997024 1
0.580789 0.881987 0.996902
0.997177 0.617502 0.935699
0.997177 0.617502 0.935699
0 1 1
0 1 1
0 1 1
0 1 1
0 1 1
0.0104524 0.999985 1
0.590219 0.945724 0.999374
0.995834 0.771481 0.962356
0.995834 0.771481 0.962356
0 1 1
0 1 1
0 1 1
0 1 1
0 1 1
0.0154421 1 1
0.611185 0.990005 0.999939
0.994461 0.891966 0.98262
0.994461 0.891966 0.98262
0 1 1
0 1 1
0 1 1
0 1 1
0 1 1
0.0514992 1 1
0.660838 0.999954 1
0.991119 0.984649 0.997711
0.991119 0.984649 0.997711
0 1 1
0 1 1
0 1 1
0 1 1
0.00047303 1 1
0.14995 1 1
0.821546 1 1
0.995041 0.99971 0.999756
0.995041 0.99971 0.999756
0 1 1
0 1 1
0 1 1
0 1 1
0.00047303 1 1
0.14995 1 1
0.821546 1 1
0.995041 0.99971 0.999756
0.995041 0.99971 0.999756
0 0.938201 1
0 0.941817 1
0 0.943709 1
0 0.941772 1
0 0.92604 1
0.00802625 0.851194 1
0.607645 0.496345 0.957885
1 0.0198367 0.820539
1 0.0198367 0.820539
0 0.972305 1
0 0.975387 1
0 0.978042 1
0 0.978714 1
0 0.972427 1
0.00704967 0.936126 1
0.590433 0.654185 0.976577
0.99971 0.146426 0.853773
0.99971 0.146426 0.853773
0 0.996612 1
0 0.997116 1
0 0.99762 1
0 0.997757 1
0 0.997726 1
0.00691234 0.984924 1
0.58114 0.784176 0.989532
0.998672 0.389975 0.896422
0.998672 0.389975 0.896422
0 0.999115 1
0 0.999451 1
0 0.999512 1
0 0.999649 1
0 0.999863 1
0.00810254 0.997024 1
0.580789 0.881987 0.996902
0.997177 0.617502 0.935699
0.997177 0.617502 0.935699
0 1 1
0 1 1
0 1 1
0 1 1
0 1 1
0.0104524 0.999985 1
0.590219 0.945724 0.999374
0.995834 0.771481 0.962356
0.995834 0.771481 0.962356
0 1 1
0 1 1
0 1 1
0 1 1
0 1 1
0.0154421 1 1
0.611185 0.990005 0.999939
0.994461 0.891966 0.98262
0.994461 0.891966 0.98262
0 1 1
0 1 1
0 1 1
0 1 1
0 1 1
0.0514992 1 1
0.660838 0.999954 1
0.991119 0.984649 0.997711
0.991119 0.984649 0.997711
0 1 1
0 1 1
0 1 1
0 1 1
0.00047303 1 1
0.14995 1 1
0.821546 1 1
0.995041 0.99971 0.999756
0.995041 0.99971 0.999756
0 1 1
0 1 1
0 1 1
0 1 1
0.00047303 1 1
0.14995 1 1
0.821546 1 1
0.995041 0.99971 0.999756
0.995041 0.99971 0.999756
