apps/typegpu-docs/public/assets/cube-luts/Romantic_Memory_33.cube
TITLE "Generated by Resolve"
LUT_3D_SIZE 5
0.0567636 0.0661326 0.0639963
0.305623 0.00123598 0.0142824
0.861234 0 0
1 0 0
1 0 0
0.0355077 0.250019 0.125154
0.195865 0.246052 0.0809033
0.788983 0.0517433 0
1 0 0
1 0 0
0.000183108 0.810864 0.340352
0.133364 0.803326 0.297444
0.635019 0.703166 0.121752
0.989609 0.59173 0.0103151
1 0.504433 4.57771e-05
0.000885023 1 0.866239
0.224384 1 0.852628
0.564324 0.999435 0.711696
0.915709 0.958907 0.292515
0.999893 0.93434 0.0664988
0 1 1
0.168688 1 1
0.564065 1 0.982574
0.87805 1 0.853483
0.997406 0.987243 0.457191
0.0287785 0.103761 0.291554
0.212711 0.029633 0.280827
0.780804 0 0.107424
1 0 0.0582895
1 0 0.0641794
0.00614939 0.368139 0.286213
0.214817 0.262943 0.258915
0.799588 0.0440375 0.12549
1 0 0.0537423
1 0 0.0450752
3.0518e-05 0.890272 0.508736
0.209201 0.79617 0.527199
0.649592 0.71635 0.349477
0.993408 0.587579 0.160113
1 0.495872 0.114946
0.00047303 1 0.93637
0.256672 1 0.912367
0.607355 0.998779 0.846357
0.91545 0.966857 0.585016
0.999725 0.939132 0.253758
0 1 1
0.173693 1 1
0.618601 1 0.998566
0.885695 1 0.915938
0.996536 0.99295 0.718547
0.00782788 0.18352 0.677455
0.0625315 0.132311 0.787854
0.716106 0 0.659083
1 0 0.53579
1 0 0.546807
0 0.574517 0.771969
0.0455329 0.479545 0.795666
0.702876 0.175723 0.685359
0.999924 0.0428779 0.588403
1 6.10361e-05 0.567681
0 0.982223 0.87361
0.0730907 0.931792 0.84828
0.660685 0.744503 0.756863
0.992859 0.589288 0.67921
1 0.482597 0.654765
0 1 0.99678
0.190661 1 0.982101
0.659312 0.999039 0.931411
0.91812 0.97528 0.838849
0.999542 0.951064 0.735409
0 1 1
0.129747 1 1
0.639521 1 1
0.901961 1 0.976287
0.995224 0.99707 0.894957
0 0.515419 0.954726
0 0.492622 0.997513
0.107225 0.320928 0.991043
0.997192 0.000396735 0.803967
1 0 0.780392
0 0.826444 0.998581
0 0.849088 1
0.0940871 0.736263 0.999741
0.984726 0.238834 0.868421
1 0.254459 0.849729
0 0.998886 1
0 0.999817 1
0.135439 0.987961 1
0.936019 0.733364 0.952834
1 0.712139 0.93051
0 1 1
0 1 1
0.324971 1 1
0.919081 0.986679 0.990555
0.999451 0.95967 0.976226
0 1 1
0 1 1
0.345693 1 1
0.937072 1 0.999969
0.995789 0.999268 0.994141
0 0.938201 1
0 0.943709 1
0 0.92604 1
0.607645 0.496345 0.957885
1 0.0198367 0.820539
0 0.996612 1
0 0.99762 1
0 0.997726 1
0.58114 0.784176 0.989532
0.998672 0.389975 0.896422
0 1 1
0 1 1
0 1 1
0.590219 0.945724 0.999374
0.995834 0.771481 0.962356
0 1 1
0 1 1
0 1 1
0.660838 0.999954 1
0.991119 0.984649 0.997711
0 1 1
0 1 1
0.00047303 1 1
0.821546 1 1
0.995041 0.99971 0.999756
