apps/typegpu-docs/public/assets/cube-luts/Romantic_Memory_33.cube
TITLE "Generated by Resolve"
LUT_3D_SIZE 33
0.0567636 0.0661326 0.0639963
0.0682536 0.061799 0.0616007
0.0823529 0.0567025 0.0582132
0.101198 0.0501564 0.0539101
0.124849 0.0420844 0.0487526
0.155749 0.0317235 0.0426337
0.196017 0.0194553 0.0346532
0.246098 0.00791943 0.0248569
0.305623 0.00123598 0.0142824
0.373678 0.00015259 0.00521859
0.448676 0 0.000793469
0.527565 0 0.000106813
0.606638 0 0
0.681926 0 0
0.750317 0 0
0.809995 0 0
0.861234 0 0
0.905837 0 0
0.942565 0 0
0.964065 0 0
0.979889 0 0
0.994095 0 0
0.999756 0 0
1 0 0
1 0 0
1 0 0
1 0 0
1 0 0
1 0 0
1 0 0
1 0 0
1 0 0
1 0 0
0.0552682 0.0772717 0.0671702
0.0649577 0.0746166 0.0645914
0.078233 0.0703899 0.0610208
0.096849 0.0638132 0.0562753
0.120394 0.0556344 0.0509346
0.15108 0.0449531 0.0447547
0.191012 0.0320134 0.036759
0.240391 0.0174868 0.0270695
0.299138 0.00588998 0.0160372
0.366491 0.00112917 0.00616464
0.440696 6.10361e-05 0.000946059
0.519142 0 0.000106813
0.598184 0 0
0.674205 0 0
0.743557 0 0
0.804273 0 0
0.856397 0 0
0.90161 0 0
0.939239 0 0
0.962112 0 0
0.978683 0 0
0.993317 0 0
0.99971 0 0
1 0 0
1 0 0
1 0 0
1 0 0
1 0 0
1 0 0
1 0 0
1 0 0
1 0 0
1 0 0
0.0538033 0.0894179 0.0719615
0.0620279 0.0880598 0.0696117
0.0734417 0.0859083 0.0656748
0.0897688 0.0808423 0.0610513
0.111772 0.0731823 0.0555428
0.141924 0.0629282 0.049012
0.181201 0.0498207 0.04094
0.230259 0.0338445 0.0310216
0.288838 0.0173953 0.0195621
0.356451 0.00540169 0.00843824
0.430823 0.000915541 0.00184634
0.509346 4.57771e-05 0.000167849
0.588785 0 0
0.665583 0 0
0.736019 0 0
0.797818 0 0
0.85098 0 0
0.897139 0 0
0.935729 0 0
0.95993 0 0
0.977401 0 0
0.99263 0 0
0.99968 0 0
1 0 0
1 0 0
1 0 0
1 0 0
1 0 0
1 0 0
1 0 0
1 0 0
1 0 0
1 0 0
0.0520333 0.104417 0.0775464
0.0597086 0.103532 0.0757153
0.0692607 0.103365 0.0721599
0.0832227 0.100496 0.0674601
0.103517 0.0943008 0.0616159
0.131136 0.0852064 0.0552529
0.167895 0.0732128 0.0471809
0.215549 0.0572824 0.0371252
0.274174 0.0380407 0.0252079
0.342748 0.0192111 0.0127565
0.418448 0.00637827 0.0037232
0.498238 0.0010071 0.00047303
0.579004 0.000137331 0
0.656962 1.5259e-05 0
0.728603 0 0
0.791196 0 0
0.845289 0 0
0.892363 0 0
0.931579 0 0
0.957382 0 0
0.975799 0 0
0.992142 0 0
0.999664 0 0
1 0 0
1 0 0
1 0 0
1 0 0
1 0 0
1 0 0
1 0 0
1 0 0
1 0 0
1 0 0
0.0499733 0.121981 0.0840162
0.0576791 0.121187 0.0827039
0.0658122 0.122774 0.0797436
0.0775464 0.122621 0.0752422
0.0963912 0.118181 0.0691997
0.121981 0.110475 0.0625467
0.15555 0.0997482 0.0546731
0.199939 0.0852522 0.0451667
0.256016 0.066743 0.0333562
0.323644 0.0448005 0.0199435
0.400381 0.0229191 0.00814832
0.482673 0.00816358 0.00169375
0.56614 0.00227359 7.62951e-05
0.64622 0.000427253 0
0.71986 7.62951e-05 0
0.78407 1.5259e-05 0
0.839231 0 0
0.886885 0 0
0.926787 0 0
0.954253 0 0
0.974182 0 0
0.991363 0 0
0.999619 0 0
1 0 0
1 0 0
1 0 0
1 0 0
1 0 0
1 0 0
1 0 0
1 0 0
1 0 0
1 0 0
0.0475166 0.144747 0.0916304
0.0552682 0.143725 0.0909895
0.0627909 0.146014 0.0883192
0.0730449 0.148013 0.0839399
0.0893111 0.146395 0.0783093
0.112947 0.140551 0.0716564
0.14493 0.131121 0.0635691
0.186511 0.118334 0.0541695
0.239353 0.101274 0.042649
0.30396 0.0802319 0.0292058
0.378988 0.0559701 0.0152438
0.461387 0.032105 0.00474556
0.547036 0.0142061 0.000610361
0.630854 0.00480659 3.0518e-05
0.707958 0.00129702 0
0.774945 0.000183108 0
0.831968 0 0
0.880705 0 0
0.921538 0 0
0.950515 0 0
0.971756 0 0
0.99025 0 0
0.999557 0 0
1 0 0
1 0 0
1 0 0
1 0 0
1 0 0
1 0 0
1 0 0
1 0 0
1 0 0
1 0 0
0.044358 0.172366 0.100862
0.0524605 0.170794 0.100511
0.0598611 0.173953 0.098024
0.0690013 0.178042 0.0940108
0.0830854 0.179599 0.089128
0.103731 0.176867 0.0826123
0.133898 0.169421 0.0743877
0.174563 0.157458 0.0647593
0.225055 0.141772 0.053315
0.286275 0.122621 0.0400702
0.358526 0.0991531 0.0254063
0.439429 0.0723583 0.01149
0.524941 0.0457008 0.00294499
0.610315 0.0240482 0.000335698
0.690608 0.00993362 1.5259e-05
0.761654 0.00306706 0
0.821836 0.0009308 0
0.872587 0.000198367 0
0.914534 1.5259e-05 0
0.945434 0 0
0.968505 0 0
0.988815 0 0
0.999496 0 0
1 0 0
1 0 0
1 0 0
1 0 0
1 0 0
1 0 0
1 0 0
1 0 0
1 0 0
1 0 0
0.0404822 0.207095 0.112078
0.0486915 0.204913 0.112093
0.0561532 0.208316 0.109987
0.0647898 0.213657 0.106081
0.0772564 0.217639 0.101289
0.0953994 0.218387 0.0952773
0.122469 0.214221 0.0875105
0.161395 0.204242 0.0775769
0.211368 0.189364 0.0659342
0.270802 0.171588 0.0526894
0.340078 0.150179 0.0379797
0.418463 0.124636 0.0222782
0.502953 0.0963455 0.00898756
0.588479 0.0675364 0.00195315
0.670268 0.0414282 0.000167849
0.743725 0.0225376 0
0.806973 0.0114443 0
0.860777 0.00477607 0
0.905028 0.00222782 0
0.938582 0.00123598 0
0.964477 0.000595102 0
0.98735 0.000198367 0
0.99942 1.5259e-05 0
1 0 0
1 0 0
1 0 0
1 0 0
1 0 0
1 0 0
1 0 0
1 0 0
1 0 0
1 0 0
0.0355077 0.250019 0.125154
0.0439002 0.247288 0.125673
0.051606 0.25037 0.124239
0.0602579 0.256474 0.1205
0.0717174 0.261936 0.115602
0.0881666 0.265522 0.109865
0.112337 0.264866 0.102358
0.147677 0.258534 0.0927138
0.195865 0.246052 0.0809033
0.255421 0.228595 0.0672465
0.323415 0.208209 0.052491
0.3991 0.184985 0.0364691
0.481361 0.158648 0.0201572
0.566262 0.130343 0.00733959
0.648676 0.101808 0.00148013
0.723812 0.074876 0.000183108
0.788983 0.0517433 0
0.84477 0.0335393 0
0.89192 0.0221561 0
0.929488 0.0142519 0
0.959152 0.00825513 0
0.985122 0.0039826 0
0.999313 0.00120546 0
1 9.15541e-05 0
1 0 0
1 0 0
1 0 0
1 0 0
1 0 0
1 0 0
1 0 0
1 0 0
1 0 0
0.0294957 0.300725 0.140597
0.0383764 0.297276 0.141527
0.046479 0.299596 0.140627
0.0550851 0.306554 0.137087
0.0661936 0.313558 0.132418
0.0816358 0.318837 0.126665
0.103487 0.321157 0.11931
0.135378 0.318822 0.110079
0.179553 0.310323 0.0985275
0.237308 0.295109 0.0846265
0.306203 0.2748 0.0691081
0.381521 0.252674 0.0528725
0.461372 0.228717 0.0358587
0.544503 0.202396 0.0192569
0.626581 0.175036 0.007187
0.702647 0.147997 0.00170901
0.769314 0.122667 0.000259403
0.826413 0.099321 3.0518e-05
0.875364 0.0787366 0
0.916899 0.0601511 0
0.951354 0.0432136 0
0.981933 0.0278172 0
0.999054 0.0147555 0
1 0.0059968 0
1 0.00337224 0
1 0.00180056 0
1 0.000595102 0
1 3.0518e-05 0
1 0 0
1 0 0
1 0 0
1 0 0
1 0 0
0.0224613 0.359655 0.159213
0.0318608 0.355428 0.160525
0.04094 0.356451 0.160082
0.0496376 0.363882 0.15671
0.0602884 0.372076 0.151843
0.0751354 0.378759 0.146105
0.0955825 0.383215 0.138903
0.124941 0.383703 0.129671
0.165026 0.379171 0.118425
0.218494 0.368154 0.104784
0.285969 0.350164 0.0886549
0.363058 0.327749 0.0714122
0.443091 0.304387 0.0539864
0.524392 0.28043 0.0364691
0.605264 0.25539 0.0202335
0.681208 0.229969 0.00840772
0.748577 0.205783 0.00259403
0.806729 0.182773 0.000610361
0.85687 0.160769 9.15541e-05
0.901015 0.138781 1.5259e-05
0.939651 0.11632 0
0.975326 0.0930648 0
0.997391 0.069398 0
0.999924 0.0479591 0
1 0.0322881 0
1 0.019791 0
1 0.00918593 0
1 0.00274662 0
1 0.00140383 0
1 0.00140383 0
1 0.00140383 0
1 0.00140383 0
1 0.00140383 0
0.0149386 0.426474 0.18088
0.0243534 0.421637 0.182635
0.0346227 0.421027 0.182895
0.0439307 0.427893 0.179721
0.0545663 0.436851 0.174456
0.0691691 0.444343 0.168429
0.0887312 0.450248 0.160891
0.116182 0.452674 0.151461
0.153185 0.45095 0.140475
0.202365 0.444038 0.127108
0.265263 0.430472 0.111055
0.34078 0.410269 0.0931563
0.423545 0.386206 0.0743267
0.505943 0.362661 0.0560616
0.58526 0.339925 0.0388342
0.660334 0.316823 0.0231327
0.727626 0.294652 0.011429
0.786145 0.273335 0.00463874
0.837217 0.252491 0.00143435
0.882506 0.231479 0.000289921
0.922866 0.209583 4.57771e-05
0.961944 0.186435 0
0.991394 0.160708 0
0.999649 0.133303 0
1 0.105455 0
1 0.0787213 0
1 0.0512245 0
1 0.0268559 0
1 0.0167086 0
1 0.0167086 0
1 0.0167086 0
1 0.0167086 0
1 0.0167086 0
0.00851453 0.499611 0.205371
0.0169985 0.494301 0.207721
0.027924 0.492134 0.208972
0.038056 0.497505 0.20618
0.0492256 0.506447 0.200473
0.0637369 0.514443 0.193668
0.0828717 0.520943 0.185855
0.109026 0.524697 0.176059
0.143984 0.524773 0.164752
0.189685 0.520912 0.151308
0.247807 0.511269 0.135607
0.31873 0.495262 0.11751
0.400381 0.473365 0.0978256
0.485893 0.448676 0.0780194
0.566873 0.42594 0.0596475
0.640925 0.405081 0.0430915
0.707515 0.385229 0.0283818
0.765896 0.365972 0.0164797
0.817227 0.347127 0.00810254
0.86273 0.328038 0.00303655
0.903532 0.308049 0.000976577
0.943999 0.286351 0.000244144
0.980713 0.261875 4.57771e-05
0.998734 0.234348 0
0.999985 0.204379 0
1 0.17293 0
1 0.137285 0
1 0.0978103 0
1 0.0750134 0
1 0.0750134 0
1 0.0750134 0
1 0.0750134 0
1 0.0750134 0
0.00331121 0.577447 0.23357
0.0107271 0.571847 0.236301
0.0211948 0.568536 0.238239
0.0323339 0.571603 0.236225
0.0440833 0.579614 0.230533
0.0588693 0.587564 0.22298
0.0783246 0.593866 0.21442
0.103853 0.598016 0.204135
0.137285 0.599145 0.192035
0.180285 0.596933 0.178134
0.234424 0.589776 0.162173
0.300511 0.57734 0.143938
0.377584 0.559548 0.123934
0.462303 0.53669 0.103014
0.547051 0.512444 0.0825666
0.623026 0.491417 0.0647593
0.688945 0.473503 0.0493019
0.74667 0.456794 0.0353704
0.797818 0.440162 0.0233158
0.843259 0.423545 0.0134279
0.884199 0.406149 0.0065919
0.925109 0.38706 0.00254826
0.966583 0.365011 0.00077821
0.994842 0.339574 0.000106813
0.99971 0.310658 1.5259e-05
1 0.279133 0
1 0.243824 0
1 0.202106 0
1 0.174823 0
1 0.174823 0
1 0.174823 0
1 0.174823 0
1 0.174823 0
0.00178531 0.657404 0.265217
0.00677501 0.651896 0.268696
0.0150607 0.647745 0.271534
0.0271763 0.648081 0.270604
0.0399176 0.654139 0.264622
0.0554818 0.661006 0.256306
0.0751965 0.666606 0.246723
0.100649 0.670253 0.235706
0.133135 0.671595 0.222629
0.174228 0.669993 0.207965
0.225238 0.664363 0.191257
0.286946 0.654322 0.172503
0.359045 0.639673 0.151858
0.439475 0.620295 0.130266
0.523751 0.597574 0.108461
0.603983 0.574945 0.0883345
0.672221 0.556558 0.0713054
0.729458 0.541695 0.0565957
0.780072 0.527489 0.0434119
0.82504 0.513405 0.0314488
0.865873 0.498711 0.0206607
0.906584 0.482399 0.0116732
0.949203 0.463218 0.00529488
0.983886 0.441016 0.00144961
0.998428 0.415167 0.000289921
0.999954 0.385748 3.0518e-05
1 0.352575 0
1 0.314519 0
1 0.289219 0
1 0.289219 0
1 0.289219 0
1 0.289219 0
1 0.289219 0
0.000503548 0.736217 0.300679
0.00267033 0.730846 0.304585
0.0106203 0.725994 0.308217
0.0236057 0.723842 0.308995
0.0377508 0.72755 0.303044
0.0541695 0.732708 0.29424
0.0742962 0.737072 0.283833
0.0999008 0.739773 0.271687
0.131716 0.740551 0.257542
0.171374 0.738552 0.241733
0.22005 0.733318 0.223957
0.27808 0.724453 0.204303
0.345525 0.711818 0.182773
0.421225 0.695232 0.160052
0.50193 0.675502 0.136919
0.582269 0.654002 0.114641
0.654841 0.633677 0.0948959
0.714397 0.617884 0.0786755
0.764446 0.605188 0.064683
0.808865 0.593118 0.0518196
0.849393 0.58053 0.0397345
0.889494 0.566796 0.0280766
0.932097 0.550668 0.0171969
0.970626 0.532219 0.00790417
0.995346 0.510475 0.00257877
0.999847 0.485588 0.000442512
1 0.456611 4.57771e-05
1 0.423499 0
1 0.402197 0
1 0.402197 0
1 0.402197 0
1 0.402197 0
1 0.402197 0
0.000183108 0.810864 0.340352
0.00207523 0.805554 0.345083
0.0100099 0.800275 0.349218
0.0220035 0.796231 0.351324
0.0375982 0.797162 0.346578
0.0548714 0.800397 0.337163
0.0759747 0.802701 0.32578
0.101564 0.803937 0.312551
0.133364 0.803326 0.297444
0.171954 0.800427 0.280415
0.218616 0.794766 0.261311
0.273487 0.786343 0.240299
0.336996 0.774792 0.217517
0.408194 0.759823 0.193378
0.48452 0.742184 0.168719
0.562005 0.72285 0.144305
0.635019 0.703166 0.121752
0.698817 0.685405 0.10251
0.750957 0.671839 0.0864424
0.795102 0.660716 0.0723888
0.835233 0.649851 0.0592813
0.874662 0.638117 0.0463417
0.916793 0.624842 0.0336309
0.957626 0.609461 0.021088
0.989609 0.59173 0.0103151
0.999512 0.571664 0.00329595
1 0.548165 0.000732433
1 0.521187 0.00015259
1 0.504433 4.57771e-05
1 0.504433 4.57771e-05
1 0.504433 4.57771e-05
1 0.504433 4.57771e-05
1 0.504433 4.57771e-05
0.000381476 0.878096 0.384375
0.00263981 0.872938 0.389548
0.0084535 0.867475 0.394293
0.0216983 0.862226 0.397772
0.0396582 0.860288 0.395331
0.058381 0.861189 0.385992
0.0802167 0.861646 0.373434
0.106203 0.861021 0.359228
0.13814 0.858686 0.343359
0.17583 0.854551 0.325277
0.220462 0.848264 0.304967
0.272877 0.839445 0.282506
0.332967 0.828351 0.258213
0.399847 0.814542 0.232303
0.471733 0.798413 0.205631
0.545556 0.780865 0.178958
0.616617 0.762966 0.153613
0.681346 0.745632 0.130632
0.73756 0.729976 0.110872
0.78352 0.717968 0.0943465
0.823423 0.707897 0.0795605
0.862211 0.697459 0.0651713
0.903593 0.686137 0.0514382
0.944869 0.672923 0.0372168
0.98088 0.657893 0.0235447
0.998428 0.641611 0.0117189
0.999969 0.623453 0.0043946
1 0.602838 0.00112917
1 0.589853 0.00030518
1 0.589853 0.00030518
1 0.589853 0.00030518
1 0.589853 0.00030518
1 0.589853 0.00030518
0.000183108 0.933272 0.433585
0.00157168 0.92845 0.439017
0.00743114 0.923125 0.444602
0.0238193 0.917098 0.449302
0.0440528 0.913069 0.449531
0.0645151 0.911482 0.440818
0.0867475 0.910246 0.427832
0.113436 0.908553 0.412955
0.145006 0.90547 0.396582
0.182177 0.900435 0.377615
0.225254 0.893828 0.356405
0.275288 0.885313 0.332921
0.332235 0.874052 0.307271
0.395254 0.860502 0.279454
0.462898 0.845182 0.25037
0.532784 0.828763 0.221057
0.601236 0.812161 0.19237
0.664714 0.796231 0.16527
0.721859 0.781003 0.141176
0.771725 0.767132 0.119982
0.81326 0.756283 0.1019
0.851469 0.746532 0.0856794
0.892195 0.736477 0.0699016
0.933761 0.724636 0.053727
0.972198 0.71136 0.0382391
0.996292 0.697673 0.0238499
0.999893 0.683619 0.0120851
1 0.668345 0.00416571
1 0.658763 0.00158694
1 0.658763 0.00158694
1 0.658763 0.00158694
1 0.658763 0.00158694
1 0.658763 0.00158694
0.000167849 0.964675 0.489845
0.00215152 0.961166 0.495506
0.0112612 0.957076 0.500908
0.0276341 0.952499 0.50605
0.0500343 0.948196 0.508995
0.0727855 0.944976 0.503227
0.0964523 0.942824 0.490257
0.123354 0.941192 0.475212
0.154788 0.939223 0.458366
0.191348 0.937011 0.439048
0.233249 0.933074 0.417304
0.281025 0.925338 0.393301
0.33489 0.914137 0.366903
0.394308 0.901427 0.337835
0.457954 0.887144 0.306676
0.523827 0.871946 0.27451
0.58912 0.85658 0.242283
0.650431 0.84184 0.210636
0.706477 0.827924 0.18117
0.757137 0.81445 0.154345
0.802533 0.801663 0.130785
0.841917 0.791226 0.110201
0.882399 0.781933 0.0912337
0.92372 0.771359 0.0724041
0.963592 0.759609 0.0543832
0.992111 0.7476 0.0373999
0.999741 0.736049 0.0227054
1 0.724376 0.0110475
1 0.717235 0.00607309
1 0.717235 0.00607309
1 0.717235 0.00607309
1 0.717235 0.00607309
1 0.717235 0.00607309
0.000549325 0.982147 0.553399
0.00416571 0.980331 0.559045
0.014435 0.977966 0.56437
0.0315709 0.975433 0.569421
0.056611 0.972992 0.573404
0.0826734 0.971084 0.57174
0.108064 0.971008 0.560433
0.135241 0.971557 0.545647
0.166476 0.972274 0.528862
0.202274 0.972519 0.509621
0.243107 0.969802 0.488197
0.28896 0.961761 0.464195
0.34023 0.95111 0.437568
0.396216 0.939666 0.408042
0.455955 0.926619 0.376074
0.517922 0.912596 0.342336
0.579736 0.898222 0.307057
0.638453 0.884382 0.271275
0.692836 0.871229 0.235935
0.742901 0.858671 0.202228
0.78912 0.846235 0.171206
0.831876 0.834028 0.143282
0.873594 0.823819 0.118563
0.914824 0.813993 0.095613
0.955032 0.80325 0.0734112
0.987106 0.792523 0.0528878
0.999527 0.782788 0.0352331
1 0.774197 0.0211643
1 0.769253 0.0147707
1 0.769253 0.0147707
1 0.769253 0.0147707
1 0.769253 0.0147707
1 0.769253 0.0147707
0.00111391 0.995651 0.624949
0.00602731 0.995102 0.629816
0.016556 0.994369 0.634562
0.0370489 0.993667 0.638987
0.0639353 0.993042 0.643244
0.0932784 0.992615 0.644587
0.120699 0.993225 0.636851
0.148638 0.994659 0.623468
0.179797 0.996475 0.607584
0.215152 0.997482 0.589334
0.25478 0.994659 0.568795
0.298955 0.987213 0.545724
0.347662 0.979797 0.520027
0.400443 0.972335 0.491508
0.45658 0.962188 0.459876
0.514794 0.94931 0.425788
0.572992 0.935973 0.389029
0.628702 0.923018 0.35024
0.680995 0.910506 0.310338
0.729915 0.898848 0.270024
0.775692 0.887343 0.229938
0.818586 0.875746 0.192309
0.863478 0.86363 0.157855
0.906096 0.853178 0.127321
0.9467 0.843046 0.0986954
0.98143 0.83357 0.0726635
0.998947 0.825208 0.0500496
0.999985 0.818509 0.0324102
1 0.814771 0.0245365
1 0.814771 0.0245365
1 0.814771 0.0245365
1 0.814771 0.0245365
1 0.814771 0.0245365
0.00128176 0.999863 0.703456
0.00578317 0.999832 0.707408
0.0188449 0.999802 0.711086
0.0426642 0.999786 0.714626
0.0711986 0.999756 0.717708
0.102235 0.999756 0.719478
0.133898 0.999771 0.716472
0.163485 0.999832 0.705928
0.194751 0.999878 0.691752
0.229511 0.999603 0.675258
0.268025 0.998459 0.656565
0.310353 0.996872 0.635523
0.356695 0.995727 0.612253
0.406592 0.994064 0.586038
0.459205 0.988647 0.556619
0.513695 0.980026 0.524147
0.568154 0.97116 0.48838
0.620768 0.960586 0.449271
0.670619 0.949279 0.407385
0.717662 0.938643 0.3626
0.762325 0.927764 0.315038
0.804654 0.91693 0.266804
0.849577 0.90518 0.219028
0.895857 0.892668 0.175174
0.938247 0.881987 0.135637
0.975052 0.872923 0.10013
0.996872 0.865614 0.0691691
0.999924 0.860639 0.0455787
1 0.858183 0.0354009
1 0.858183 0.0354009
1 0.858183 0.0354009
1 0.858183 0.0354009
1 0.858183 0.0354009
0.000869764 1 0.785794
0.00553903 1 0.788266
0.0225223 1 0.790539
0.0475166 1 0.79237
0.0773175 1 0.793713
0.109789 1 0.794583
0.144594 1 0.793606
0.178027 1 0.787152
0.210147 1 0.775418
0.244373 0.999985 0.761379
0.281804 0.999954 0.745617
0.32256 0.999878 0.727596
0.366705 0.999634 0.707515
0.413962 0.99913 0.68513
0.463539 0.997772 0.659602
0.514443 0.996048 0.631174
0.565286 0.994018 0.599512
0.614633 0.9888 0.563912
0.661738 0.982544 0.523903
0.706798 0.975677 0.479332
0.749874 0.966354 0.429465
0.791241 0.956649 0.373892
0.834897 0.946136 0.313558
0.882429 0.933837 0.252506
0.92842 0.92134 0.194354
0.967773 0.91133 0.142245
0.992813 0.904463 0.0971847
0.999741 0.900618 0.0629282
0.999985 0.899168 0.0485389
0.999985 0.899168 0.0485389
0.999985 0.899168 0.0485389
0.999985 0.899168 0.0485389
0.999985 0.899168 0.0485389
0.000885023 1 0.866239
0.007187 1 0.866941
0.0249485 1 0.86743
0.0497749 1 0.867308
0.0802472 1 0.866926
0.114199 1 0.865888
0.150927 1 0.864256
0.189105 1 0.860624
0.224384 1 0.852628
0.259068 1 0.841413
0.295659 1 0.828656
0.335271 1 0.81416
0.377417 1 0.797787
0.422187 0.999985 0.779828
0.468971 0.999954 0.759701
0.516808 0.999863 0.736965
0.564324 0.999435 0.711696
0.61059 0.998672 0.682963
0.654841 0.998398 0.649775
0.697719 0.996948 0.611063
0.738842 0.992401 0.565911
0.778851 0.987076 0.511635
0.820981 0.980514 0.446769
0.868238 0.971008 0.372534
0.915709 0.958907 0.292515
0.958862 0.947066 0.213977
0.98819 0.938949 0.143542
0.999222 0.935195 0.0889906
0.999893 0.93434 0.0664988
0.999893 0.93434 0.0664988
0.999893 0.93434 0.0664988
0.999893 0.93434 0.0664988
0.999893 0.93434 0.0664988
0.00102235 1 0.934859
0.00755322 1 0.934768
0.0231937 1 0.934478
0.0470436 1 0.933654
0.0777752 1 0.932387
0.112902 1 0.9299
0.150927 1 0.926787
0.192004 1 0.923232
0.232914 1 0.918303
0.271565 1 0.910491
0.308873 1 0.900572
0.347539 1 0.889067
0.388251 1 0.87599
0.431083 1 0.861784
0.475395 1 0.846296
0.520455 1 0.829145
0.564996 1 0.810559
0.60856 0.999985 0.789731
0.650385 0.999985 0.765621
0.69099 0.999954 0.737377
0.730144 0.999786 0.703426
0.768734 0.99913 0.660548
0.808988 0.997452 0.605219
0.854444 0.993866 0.534173
0.902159 0.986801 0.443931
0.948272 0.976532 0.338781
0.98262 0.966079 0.229267
0.997833 0.960464 0.136248
0.999542 0.959136 0.0964828
0.999542 0.959136 0.0964828
0.999542 0.959136 0.0964828
0.999542 0.959136 0.0964828
0.999542 0.959136 0.0964828
0.00047303 1 0.982986
0.0040589 1 0.982971
0.0155337 1 0.982879
0.0353552 1 0.982589
0.064744 1 0.981826
0.100084 1 0.979538
0.138933 1 0.976455
0.181765 1 0.97322
0.226978 1 0.970108
0.272725 1 0.966125
0.315709 1 0.959976
0.355978 1 0.951644
0.39675 1 0.941726
0.43856 1 0.930938
0.481315 1 0.919158
0.524208 1 0.906188
0.566583 1 0.892348
0.608118 1 0.877302
0.648112 1 0.860197
0.686793 1 0.841062
0.724407 1 0.818418
0.76141 1 0.790417
0.799817 0.999985 0.753704
0.84303 0.999802 0.703655
0.889967 0.998459 0.630365
0.937362 0.993545 0.525612
0.975814 0.98436 0.386191
0.995682 0.976135 0.238636
0.998978 0.973526 0.16585
0.998978 0.973526 0.16585
0.998978 0.973526 0.16585
0.998978 0.973526 0.16585
0.998978 0.973526 0.16585
3.0518e-05 1 1
0.000717174 1 1
0.0052491 1 1
0.0163272 1 0.999985
0.0369573 1 0.999847
0.0694591 1 0.999115
0.107561 1 0.998062
0.150439 1 0.996948
0.198306 1 0.995941
