apps/typegpu-docs/public/assets/cube-luts/tinyglade-Bluecine_75.cube
TITLE "Generated by Resolve"
LUT_3D_SIZE 9
1.5259e-05 0 0
0.100099 0.00459297 0.00643931
0.190921 0.0106508 0.0127718
0.278523 0.0146639 0.0170291
0.368353 0.0179904 0.0205997
0.45304 0.0211948 0.024033
0.536233 0.0246433 0.0277104
0.61474 0.0289769 0.0322576
0.669444 0.0329595 0.0363928
0.00366217 0.0986038 0.108751
0.104646 0.10663 0.117113
0.195148 0.112306 0.123079
0.283528 0.117342 0.128389
0.375128 0.122255 0.133593
0.461387 0.127245 0.138827
0.546456 0.133425 0.145281
0.628077 0.140948 0.153079
0.682597 0.147478 0.159808
0.00610361 0.19057 0.209476
0.108873 0.200534 0.219883
0.201236 0.208896 0.228595
0.2925 0.216831 0.236896
0.386816 0.225116 0.245518
0.476799 0.23418 0.254902
0.564858 0.244221 0.265248
0.65037 0.255894 0.277241
0.703868 0.264164 0.285725
0.0101778 0.281575 0.309148
0.116274 0.29543 0.3234
0.212512 0.307897 0.336156
0.307729 0.320119 0.348684
0.405783 0.33225 0.361089
0.498497 0.344244 0.373327
0.58732 0.356268 0.385595
0.674479 0.369345 0.398917
0.725505 0.377707 0.407401
0.0213931 0.380163 0.415
0.132418 0.398779 0.433936
0.231754 0.414694 0.450141
0.328954 0.428656 0.464393
0.428244 0.442069 0.47808
0.522179 0.455283 0.491569
0.611734 0.468437 0.504982
0.699825 0.482475 0.519265
0.749126 0.490867 0.527794
0.0403754 0.485863 0.527916
0.153185 0.506233 0.548547
0.253697 0.523308 0.565835
0.352392 0.538659 0.581384
0.452399 0.553094 0.595987
0.547463 0.567254 0.6103
0.636805 0.580591 0.623789
0.725231 0.59469 0.63801
0.773129 0.60293 0.646326
0.0597696 0.590066 0.637415
0.174212 0.6121 0.65951
0.276005 0.630289 0.67776
0.375036 0.645945 0.693446
0.475532 0.660456 0.707973
0.570138 0.674205 0.721752
0.65922 0.686809 0.734386
0.746319 0.699489 0.747082
0.79469 0.707225 0.754833
0.0800488 0.696834 0.747707
0.195377 0.719387 0.77026
0.297383 0.737331 0.788205
0.395315 0.751751 0.802609
0.495171 0.765377 0.816251
0.588296 0.777356 0.828229
0.677348 0.78851 0.839399
0.76257 0.799237 0.850141
0.814328 0.806455 0.857374
0.102388 0.798138 0.852277
0.215824 0.819409 0.873671
0.317006 0.836027 0.89041
0.41323 0.848753 0.903212
0.511391 0.860563 0.91516
0.603052 0.870848 0.925582
0.69189 0.88011 0.934981
0.774975 0.888945 0.943954
0.830701 0.895445 0.950561
0.000411994 0.0220493 0.025742
0.101335 0.0304875 0.0345006
0.191714 0.035935 0.0401923
0.279332 0.0400092 0.0445106
0.369314 0.0434882 0.0482338
0.454108 0.0468299 0.0518044
0.53782 0.0508736 0.0560616
0.616968 0.055787 0.0612039
0.671641 0.0603189 0.0658885
0.00430304 0.124178 0.136629
0.105318 0.132342 0.145174
0.196368 0.138674 0.151812
0.285252 0.144335 0.157794
0.377295 0.149981 0.16376
0.464515 0.155856 0.169909
0.550484 0.16318 0.177508
0.63331 0.171908 0.186526
0.687877 0.17882 0.193622
0.00665293 0.218112 0.239765
0.109987 0.228946 0.251026
0.20354 0.238575 0.261036
0.29572 0.247532 0.270344
0.391608 0.25742 0.280568
0.482506 0.267582 0.291035
0.57142 0.278782 0.302541
0.657481 0.291005 0.315038
0.710613 0.299306 0.323522
0.0122835 0.310536 0.340505
0.119783 0.32578 0.356085
0.217502 0.339956 0.37055
0.313313 0.352651 0.38349
0.411948 0.365423 0.39649
0.505058 0.377813 0.40911
0.594232 0.390341 0.421851
0.681758 0.403723 0.435431
0.732494 0.412253 0.444068
0.0273747 0.414511 0.451804
0.139025 0.433845 0.471489
0.238834 0.450172 0.488106
0.336538 0.464622 0.502831
0.436072 0.478264 0.516716
0.530373 0.492012 0.530709
0.619959 0.505364 0.544289
0.708431 0.519539 0.558679
0.757244 0.528145 0.567407
0.0467384 0.517388 0.561273
0.160159 0.538201 0.582284
0.261021 0.55581 0.600061
0.360006 0.571267 0.615671
0.460044 0.585855 0.630381
0.555077 0.599802 0.64445
0.64448 0.613245 0.657984
0.73257 0.627039 0.67187
0.779843 0.63505 0.679927
0.0687724 0.626932 0.675593
0.183658 0.649287 0.697978
0.285466 0.667475 0.716182
0.384146 0.682551 0.731273
0.484718 0.697154 0.745892
0.578851 0.710231 0.758984
0.667414 0.722316 0.771084
0.754208 0.734539 0.783307
0.801556 0.741695 0.790463
0.0892958 0.729351 0.781155
0.20444 0.751629 0.803449
0.306172 0.769177 0.821012
0.403677 0.782956 0.834791
0.503075 0.796109 0.847974
0.595636 0.80734 0.859251
0.683894 0.817639 0.869581
0.768917 0.828183 0.880186
0.819898 0.835019 0.887068
0.112444 0.832135 0.887709
0.225254 0.852506 0.908263
0.325795 0.868284 0.924208
0.421378 0.880491 0.936568
0.518944 0.891463 0.947723
0.609842 0.900984 0.957412
0.697826 0.909529 0.966125
0.780346 0.917693 0.974487
0.834577 0.923186 0.980117
0.00108339 0.0419776 0.0473182
0.102083 0.0499428 0.0555886
0.19263 0.0555734 0.0614633
0.280369 0.0597238 0.0658732
0.370398 0.0632486 0.0696422
0.455497 0.0669108 0.073518
0.539391 0.0712749 0.0781109
0.619181 0.0768444 0.0839094
0.673716 0.0816968 0.0889143
0.004654 0.145937 0.160464
0.105974 0.154406 0.169329
0.19762 0.161654 0.176913
0.287037 0.167758 0.183352
0.379782 0.174289 0.190204
0.467842 0.181018 0.197238
0.554559 0.189349 0.205859
0.63827 0.199084 0.2159
0.692973 0.206683 0.223682
0.00721752 0.239429 0.263172
0.111345 0.251041 0.275196
0.205814 0.261723 0.286244
0.299214 0.271946 0.296803
0.395666 0.282414 0.307561
0.487694 0.293828 0.31928
0.576577 0.305119 0.330846
0.662882 0.317632 0.343633
0.715648 0.326085 0.352255
0.0149233 0.336385 0.368307
0.123903 0.353262 0.385489
0.222522 0.368185 0.400656
0.319158 0.381781 0.414481
0.417899 0.394537 0.42742
0.511467 0.407477 0.440574
0.600458 0.42005 0.453361
0.688212 0.433448 0.466957
0.738766 0.442405 0.476081
0.0319829 0.440726 0.479866
0.144793 0.461051 0.500542
0.244739 0.477729 0.517479
0.342596 0.492226 0.532235
0.442313 0.506172 0.546395
0.537102 0.520287 0.560723
0.626657 0.533654 0.574289
0.714839 0.547662 0.588464
0.763149 0.556176 0.597101
0.0534524 0.548898 0.5944
0.167498 0.570489 0.616159
0.268772 0.588281 0.634073
0.36759 0.60354 0.649409
0.467933 0.618585 0.664546
0.563073 0.632441 0.678462
0.652018 0.645594 0.691691
0.73994 0.658946 0.705074
0.786358 0.666712 0.712886
0.0760204 0.654841 0.704402
0.191165 0.677195 0.726772
0.292912 0.695247 0.744839
0.391592 0.710216 0.759793
0.49163 0.72433 0.773938
0.585748 0.737255 0.786862
0.673747 0.74876 0.798367
0.760281 0.760616 0.810208
0.806775 0.767407 0.817014
0.0987259 0.761349 0.81413
0.213474 0.78323 0.836057
0.314763 0.800168 0.853056
0.411826 0.813474 0.866407
0.51075 0.82591 0.87892
0.603082 0.836896 0.889982
0.690547 0.846555 0.899718
0.775036 0.856367 0.909636
0.824964 0.862669 0.915999
0.120165 0.859693 0.916609
0.233097 0.879515 0.93666
0.332677 0.894499 0.951858
0.428061 0.90631 0.963867
0.524666 0.916381 0.974166
0.615061 0.925338 0.983337
0.702449 0.933471 0.991699
0.7841 0.940673 0.998779
0.836973 0.94522 1
0.00205997 0.0617227 0.0686961
0.102815 0.069398 0.0766766
0.193469 0.0751965 0.0827497
0.281193 0.0793622 0.0871748
0.371725 0.08336 0.0914168
0.457252 0.08748 0.0957656
0.541604 0.0925307 0.101061
0.621973 0.0986038 0.107362
0.676387 0.103822 0.112749
0.00517281 0.166903 0.183474
0.106859 0.175906 0.192874
0.198825 0.183658 0.200992
0.289097 0.190661 0.208331
0.382315 0.197696 0.215702
0.471489 0.205753 0.224063
0.558801 0.214847 0.233478
0.643458 0.225559 0.24448
0.698024 0.233539 0.252674
0.00819409 0.261494 0.287297
0.113359 0.274342 0.300557
0.208804 0.285985 0.31252
0.303029 0.297063 0.323919
0.400305 0.308431 0.335561
0.492744 0.320272 0.347692
0.582071 0.332311 0.360006
0.668406 0.344732 0.372656
0.72076 0.353384 0.381476
0.0179599 0.361105 0.394705
0.128603 0.379461 0.413352
0.22768 0.394919 0.429038
0.324361 0.408484 0.442863
0.423529 0.42179 0.456413
0.517388 0.434867 0.469734
0.606836 0.447944 0.483101
0.69453 0.461387 0.496773
0.744701 0.470329 0.505882
0.0375067 0.467857 0.508782
0.150393 0.48838 0.52961
0.250645 0.505211 0.54667
0.348486 0.519692 0.561349
0.44889 0.534524 0.576394
0.543725 0.548516 0.590555
0.633127 0.561837 0.604028
0.721691 0.57615 0.618509
0.769314 0.584573 0.627024
0.0597238 0.576669 0.623438
0.174365 0.598764 0.645624
0.275898 0.6168 0.663752
0.374716 0.631907 0.678889
0.474739 0.646677 0.693706
0.570138 0.660609 0.707668
0.658549 0.673167 0.720256
0.746105 0.686275 0.73341
0.792004 0.693889 0.741024
0.0835431 0.682841 0.733272
0.199054 0.705364 0.755795
0.300679 0.723247 0.773663
0.398917 0.737697 0.788113
0.498695 0.751537 0.801953
0.592401 0.76376 0.814176
0.679606 0.774578 0.824994
0.765896 0.78613 0.836545
0.81181 0.792752 0.843198
0.107134 0.789075 0.842802
0.221363 0.81033 0.864164
0.321874 0.826352 0.880262
0.419043 0.839673 0.893706
0.517189 0.851408 0.905547
0.608957 0.861723 0.915969
0.69575 0.870787 0.925139
0.77995 0.880232 0.934707
0.829236 0.886351 0.940917
0.12784 0.885603 0.943954
0.239857 0.904448 0.963088
0.338964 0.91902 0.97792
0.433677 0.930037 0.98883
0.530159 0.939879 0.998917
0.619898 0.948272 1
0.705867 0.95523 1
0.786526 0.961303 1
0.838407 0.965316 1
0.00282292 0.0818036 0.090486
0.103441 0.0893263 0.0983139
0.194095 0.0952163 0.104494
0.282124 0.099733 0.10927
0.373007 0.104036 0.113817
0.459159 0.108843 0.118883
0.543786 0.114305 0.124605
0.624659 0.120912 0.131441
0.679438 0.126848 0.13756
0.00518807 0.18613 0.204593
0.107424 0.195743 0.214633
0.200153 0.204456 0.223743
0.29099 0.211887 0.23151
0.385061 0.219989 0.239933
0.474907 0.228916 0.24921
0.563195 0.239017 0.259632
0.648356 0.250233 0.271138
0.702846 0.258595 0.279698
0.00924697 0.284489 0.312306
0.115465 0.298497 0.326711
0.212116 0.311421 0.339971
0.307225 0.323369 0.352193
0.405249 0.335622 0.364706
0.497993 0.347646 0.376974
0.587411 0.35996 0.389532
0.67422 0.372839 0.402625
0.726345 0.381567 0.411505
0.021912 0.385977 0.421225
0.133028 0.404822 0.440406
0.232639 0.420874 0.456764
0.329427 0.434409 0.470558
0.429252 0.448386 0.48484
0.52314 0.461616 0.498344
0.61265 0.474693 0.51165
0.700954 0.488884 0.526085
0.750713 0.497627 0.534981
0.0428779 0.495598 0.538231
0.156054 0.51632 0.559213
0.256657 0.533486 0.576577
0.355215 0.548577 0.591821
0.455375 0.563394 0.606821
0.550668 0.577585 0.621134
0.639612 0.59057 0.634256
0.728115 0.604868 0.648692
0.775219 0.61297 0.656855
0.066392 0.604349 0.652201
0.181079 0.62649 0.674388
0.282567 0.644388 0.692332
0.381521 0.659648 0.707622
0.481682 0.674418 0.722408
0.576638 0.687907 0.735912
0.664637 0.699962 0.747982
0.752209 0.712917 0.760952
0.797177 0.719905 0.767956
0.0915694 0.711635 0.76289
0.206928 0.733883 0.785138
0.307866 0.750973 0.802213
0.406455 0.765637 0.816876
0.505379 0.778775 0.83003
0.598733 0.790478 0.841749
0.685771 0.801083 0.852384
0.771511 0.811933 0.863264
0.816571 0.818082 0.869444
0.114366 0.813962 0.868696
0.228489 0.834852 0.889708
0.328435 0.850446 0.90544
0.425116 0.863188 0.918318
0.522835 0.874296 0.929564
0.613809 0.88394 0.939361
0.70045 0.89279 0.948348
0.78407 0.901717 0.957458
0.832456 0.907134 0.962966
0.134936 0.911604 0.971222
0.24654 0.930007 0.989929
0.344839 0.943694 1
0.439231 0.954406 1
0.535088 0.963668 1
0.623758 0.970993 1
0.708644 0.976959 1
0.788403 0.98204 1
0.839323 0.985473 1
0.00268559 0.101503 0.11191
0.103548 0.109361 0.120119
0.194614 0.115724 0.126787
0.282994 0.120668 0.132006
0.374182 0.125322 0.136934
0.460868 0.130739 0.142611
0.546304 0.137072 0.149233
0.627955 0.144533 0.156939
0.683192 0.151049 0.163668
0.00497444 0.206302 0.22678
0.108125 0.216876 0.237812
0.201236 0.226184 0.247532
0.292851 0.234516 0.256184
0.387869 0.243626 0.265629
0.478889 0.253819 0.276158
0.56762 0.264393 0.287037
0.653086 0.276036 0.298955
0.707774 0.284733 0.307851
0.0104067 0.307347 0.337072
0.117815 0.322576 0.352651
0.215595 0.33666 0.367041
0.31136 0.349172 0.379797
0.409796 0.362005 0.392874
0.50312 0.374563 0.405661
0.592218 0.386526 0.417823
0.6795 0.399939 0.431449
0.731746 0.408896 0.440513
0.0259251 0.411856 0.448966
0.137789 0.431464 0.46894
0.237766 0.447913 0.485695
0.334905 0.461921 0.499962
0.43473 0.475837 0.514138
0.529183 0.489662 0.528222
0.618631 0.502617 0.541375
0.706996 0.51693 0.555917
0.756664 0.525673 0.564782
0.0478065 0.521538 0.565637
0.161486 0.542702 0.587015
0.262333 0.560189 0.604654
0.360967 0.57525 0.619852
0.461448 0.590387 0.635126
0.556588 0.604349 0.64918
0.645548 0.617441 0.662364
0.733913 0.631479 0.676493
0.780835 0.639445 0.684504
0.0723735 0.630426 0.679179
0.187335 0.652873 0.701671
0.288945 0.670604 0.719402
0.388022 0.686015 0.734844
0.487694 0.700236 0.749065
0.58262 0.713481 0.762325
0.670298 0.725261 0.774105
0.757519 0.737804 0.786664
0.802182 0.744533 0.793393
0.0986038 0.737972 0.789975
0.213947 0.760159 0.812192
0.314763 0.777066 0.829114
0.41268 0.790875 0.842939
0.511421 0.803754 0.855879
0.604334 0.814847 0.867018
0.690944 0.825071 0.877287
0.776257 0.835431 0.887709
0.820981 0.841138 0.893462
0.12224 0.841291 0.897231
0.235187 0.861112 0.91725
0.335134 0.876493 0.932799
0.431006 0.888518 0.945006
0.528405 0.899229 0.955901
0.618891 0.90837 0.965225
0.705013 0.916686 0.973724
0.787762 0.924651 0.981903
0.835248 0.929122 0.986496
0.141665 0.937652 0.998932
0.252155 0.955123 1
0.350164 0.968368 1
0.444007 0.978531 1
0.538705 0.986831 1
0.626627 0.993255 1
0.710292 0.998047 1
0.789425 1 1
0.840345 1 1
0.00222782 0.120775 0.132937
0.103334 0.129015 0.141543
0.194629 0.135653 0.148516
0.283268 0.140841 0.153994
0.375189 0.146426 0.159884
0.46247 0.152514 0.166262
0.54844 0.15938 0.173419
0.6309 0.167681 0.181979
0.687114 0.175006 0.189532
0.004654 0.22681 0.249348
0.10837 0.238193 0.261173
0.202411 0.248417 0.271778
0.294514 0.257389 0.281056
0.390799 0.267826 0.291829
0.482383 0.278462 0.30277
0.571633 0.289631 0.314214
0.657588 0.301976 0.326848
0.712627 0.310704 0.335775
0.0118105 0.331456 0.363027
0.120714 0.348318 0.380224
0.219196 0.363104 0.395254
0.315267 0.376028 0.408392
0.414405 0.389471 0.422065
0.507607 0.40206 0.434836
0.597391 0.41445 0.447425
0.684733 0.427878 0.461051
0.737545 0.437171 0.470512
0.0300145 0.439231 0.478279
0.142428 0.459312 0.498711
0.242344 0.475685 0.515328
0.339879 0.490059 0.529946
0.440452 0.504738 0.544854
0.534783 0.518395 0.558724
0.624552 0.531762 0.57229
0.712779 0.545953 0.586679
0.763088 0.555016 0.59585
0.0526741 0.548669 0.594171
0.166705 0.57026 0.615946
0.26772 0.587732 0.633494
0.366766 0.603433 0.649302
0.467323 0.618433 0.664393
0.562097 0.632013 0.678035
0.651164 0.64509 0.691173
0.739269 0.658763 0.70489
0.786343 0.666667 0.712825
0.0786603 0.658228 0.707897
0.193881 0.680583 0.730251
0.295247 0.698222 0.74789
0.394095 0.713161 0.762844
0.493919 0.727443 0.777127
0.588144 0.740078 0.789761
0.675532 0.751354 0.801038
0.762188 0.763348 0.813031
0.80734 0.770001 0.819684
0.106279 0.767758 0.820722
0.221302 0.789456 0.842466
0.321706 0.805844 0.858915
0.419364 0.819425 0.872572
0.517464 0.831434 0.884642
0.609812 0.842039 0.895338
0.695949 0.851713 0.905104
0.780804 0.861494 0.914992
0.825849 0.867109 0.920653
0.129046 0.868452 0.925795
0.241688 0.887785 0.945357
0.340795 0.902449 0.96025
0.436377 0.913985 0.972015
0.532845 0.923964 0.982223
0.623102 0.932677 0.991165
0.708583 0.940337 0.998703
0.79028 0.947234 1
0.837339 0.950988 1
0.146822 0.961776 1
0.256748 0.978622 1
0.354314 0.99147 1
0.44741 1 1
0.541146 1 1
0.627771 1 1
0.711223 1 1
0.789868 1 1
0.840986 1 1
0.00177005 0.140429 0.154452
0.102739 0.149142 0.163561
0.194247 0.156085 0.170855
0.283452 0.161959 0.17702
0.375875 0.16817 0.183566
0.463859 0.175082 0.190784
0.550927 0.182803 0.198779
0.63418 0.192142 0.208423
0.691646 0.200153 0.216648
0.00407416 0.249271 0.273945
0.108476 0.261463 0.286564
0.20351 0.272541 0.298009
0.296742 0.282948 0.308721
0.393881 0.294255 0.320348
0.486137 0.305608 0.331991
0.575769 0.317174 0.343801
0.662089 0.3299 0.356817
0.718166 0.339086 0.366171
0.01355 0.356802 0.390143
0.123583 0.374823 0.408453
0.222629 0.390127 0.423987
0.319463 0.403876 0.43798
0.418677 0.417365 0.451698
0.512078 0.430091 0.464683
0.602457 0.442939 0.47776
0.690272 0.456809 0.491905
0.743969 0.466361 0.50164
0.0336309 0.465324 0.506127
0.146349 0.485756 0.526848
0.24654 0.502373 0.543709
0.344671 0.517418 0.558968
0.445258 0.532067 0.573831
0.539666 0.545892 0.587808
0.62977 0.559319 0.601404
0.718212 0.573663 0.615915
0.768811 0.582376 0.624704
0.0579385 0.578042 0.624887
0.172198 0.599908 0.646845
0.273716 0.617838 0.664851
0.372763 0.633509 0.680568
0.473442 0.648402 0.695491
0.567987 0.661891 0.70901
0.65716 0.674815 0.721981
0.744579 0.687755 0.734936
0.79237 0.69546 0.742657
0.0845808 0.685512 0.736004
0.199741 0.70753 0.758022
0.301396 0.725551 0.776043
0.400015 0.740246 0.790722
0.499413 0.753826 0.804318
0.593042 0.765972 0.816464
0.680491 0.777035 0.827512
0.76669 0.78854 0.839033
0.811994 0.794583 0.845075
0.113252 0.795071 0.849012
0.227207 0.815854 0.869902
0.327718 0.832197 0.88632
0.424674 0.845029 0.899275
0.522454 0.856458 0.910811
0.614343 0.866773 0.921248
0.700206 0.875929 0.930526
0.784543 0.885206 0.939941
0.829786 0.890364 0.945174
0.135012 0.893706 0.952499
0.246769 0.912108 0.971191
0.345602 0.926513 0.985519
0.440574 0.937469 0.996719
0.536294 0.9467 1
0.625986 0.954849 1
0.710735 0.961563 1
0.791226 0.967407 1
0.838743 0.970886 1
0.15053 0.979843 1
0.259678 0.996384 1
0.356847 1 1
0.449073 1 1
0.541955 1 1
0.627985 1 1
0.711192 1 1
0.789563 1 1
0.841382 1 1
0.00128176 0.160479 0.17644
0.102159 0.169497 0.18587
0.194125 0.177035 0.193759
0.283848 0.183612 0.200656
0.376928 0.190585 0.207965
0.465766 0.198352 0.216052
0.553796 0.206897 0.224903
0.637827 0.217288 0.235599
0.69662 0.225956 0.24448
0.00355535 0.270375 0.297017
0.109087 0.283772 0.310811
0.205035 0.295796 0.323156
0.299138 0.30721 0.334874
0.397101 0.319265 0.347219
0.489601 0.331106 0.359335
0.579919 0.343145 0.371603
0.666148 0.355825 0.384543
0.723049 0.365194 0.39408
0.0157626 0.381003 0.415946
0.126986 0.399969 0.435248
0.226398 0.415702 0.451255
0.323293 0.429648 0.465492
0.422736 0.44332 0.479469
0.516426 0.456336 0.492729
0.607538 0.469749 0.506401
0.695171 0.483513 0.520409
0.749645 0.49308 0.530144
0.0373236 0.49012 0.532464
0.150164 0.510658 0.553262
0.250874 0.52781 0.570611
0.349081 0.54284 0.585824
0.449912 0.557916 0.601083
0.544274 0.571511 0.614816
0.634928 0.585214 0.628656
0.723049 0.599405 0.642969
0.774289 0.608026 0.651652
0.0626535 0.602975 0.650797
0.176989 0.624933 0.672816
0.278859 0.643015 0.690929
0.377874 0.658763 0.706706
0.478477 0.673335 0.721294
0.572671 0.686549 0.734524
0.661662 0.699092 0.747082
0.748928 0.711864 0.759869
0.797009 0.719188 0.767208
0.0909743 0.713283 0.764599
0.206165 0.735348 0.786633
0.307485 0.752865 0.804166
0.405722 0.767117 0.818418
0.504936 0.78027 0.831571
0.598184 0.792157 0.843488
0.685435 0.802762 0.854124
0.770962 0.813458 0.864851
0.816892 0.819547 0.87097
0.119173 0.819394 0.874327
0.232761 0.839811 0.894881
0.332845 0.855482 0.910689
0.429358 0.868009 0.923369
0.526894 0.87895 0.934447
0.618173 0.888701 0.944366
0.703716 0.897475 0.953292
0.78732 0.90602 0.96199
0.832853 0.910826 0.966918
0.1402 0.917617 0.977584
0.251713 0.935592 0.995865
0.349859 0.949432 1
0.44419 0.959808 1
0.539498 0.968658 1
0.628153 0.975784 1
0.712001 0.981414 1
0.791699 0.986526 1
0.839582 0.989746 1
0.149859 0.979614 1
0.258839 0.996246 1
0.356054 1 1
0.448035 1 1
0.541146 1 1
0.627176 1 1
0.710597 1 1
0.788891 1 1
0.841382 1 1
