apps/typegpu-docs/public/assets/cube-luts/tinyglade-Cold_Ice.cube
LUT_3D_SIZE 16
-0.065244 -0.081470 -0.094321
-0.041196 -0.081195 -0.094321
0.051908 -0.080616 -0.094321
0.093979 -0.080297 -0.094321
0.134670 -0.080302 -0.094321
0.176037 -0.080344 -0.094321
0.218840 -0.080389 -0.094321
0.263487 -0.080437 -0.094321
0.309969 -0.080475 -0.094321
0.358385 -0.080511 -0.094321
0.408384 -0.080539 -0.094321
0.459305 -0.080550 -0.094321
0.510777 -0.080554 -0.094321
0.562619 -0.080548 -0.094321
0.614215 -0.080533 -0.094321
0.671696 -0.080512 -0.094321
-0.065020 -0.055144 -0.094321
-0.040340 -0.054183 -0.094321
0.052118 -0.069831 -0.094321
0.093979 -0.070018 -0.094321
0.134670 -0.069638 -0.094321
0.176037 -0.069399 -0.094321
0.218840 -0.069195 -0.094321
0.263487 -0.069006 -0.094321
0.309969 -0.068836 -0.094321
0.358385 -0.068667 -0.094321
0.408384 -0.068541 -0.094321
0.459305 -0.068490 -0.094321
0.510777 -0.068472 -0.094321
0.562619 -0.068503 -0.094321
0.614215 -0.068556 -0.094321
0.671696 -0.068802 -0.094321
-0.064555 0.074636 -0.094321
-0.053867 0.074856 -0.094321
0.052774 0.075494 -0.094321
0.093999 0.071860 -0.094321
0.134670 0.073412 -0.094321
0.176037 0.075259 -0.094321
0.218840 0.077105 -0.094321
0.263487 0.079026 -0.094321
0.309969 0.080881 -0.094321
0.358385 0.082700 -0.094321
0.408384 0.084309 -0.094321
0.459305 0.085555 -0.094321
0.510777 0.086510 -0.094321
0.562619 0.087197 -0.094321
0.614215 0.087566 -0.094321
0.671696 0.087306 -0.094321
-0.064301 0.134624 -0.094321
-0.054084 0.134624 -0.094321
0.050554 0.134663 -0.094321
0.094495 0.134660 -0.094321
0.134683 0.135984 -0.094321
0.176037 0.138593 -0.094321
0.218840 0.141262 -0.094321
0.263487 0.144072 -0.094321
0.309969 0.146853 -0.094321
0.358385 0.149632 -0.094321
0.408384 0.152134 -0.094321
0.459305 0.154184 -0.094321
0.510777 0.155870 -0.094321
0.562619 0.157175 -0.094321
0.614215 0.158077 -0.094321
0.671696 0.158285 -0.094321
-0.064306 0.191996 -0.094321
-0.053753 0.191996 -0.094321
0.051881 0.191996 -0.094321
0.096429 0.191980 -0.094321
0.135855 0.191738 -0.094321
0.176618 0.194321 -0.094321
0.218840 0.197283 -0.094321
0.263487 0.201054 -0.094321
0.309969 0.204809 -0.094321
0.358385 0.208569 -0.094321
0.408384 0.211951 -0.094321
0.459305 0.214716 -0.094321
0.510777 0.217088 -0.094321
0.562619 0.218923 -0.094321
0.614215 0.220206 -0.094321
0.671696 0.220644 -0.094321
-0.064341 0.250249 -0.094321
-0.053487 0.250249 -0.094321
0.053486 0.250249 -0.094321
0.098863 0.250249 -0.094321
0.139435 0.250183 -0.094321
0.178562 0.249849 -0.094321
0.220506 0.252915 -0.094321
0.263487 0.255805 -0.094321
0.309969 0.260501 -0.094321
0.358385 0.265214 -0.094321
0.408384 0.269478 -0.094321
0.459305 0.273036 -0.094321
0.510777 0.276015 -0.094321
0.562619 0.278344 -0.094321
0.614215 0.280001 -0.094321
0.671696 0.280640 -0.094321
-0.064378 0.310049 -0.094321
-0.053245 0.310049 -0.094321
0.055079 0.310049 -0.094321
0.101333 0.310049 -0.094321
0.142876 0.310049 -0.094321
0.183241 0.309976 -0.094321
0.223147 0.309591 -0.094321
0.266473 0.312979 -0.094321
0.310387 0.315630 -0.094321
0.358385 0.320850 -0.094321
0.408384 0.325937 -0.094321
0.459305 0.330237 -0.094321
0.510777 0.333828 -0.094321
0.562619 0.336697 -0.094321
0.614215 0.338747 -0.094321
0.671696 0.339540 -0.094321
-0.064413 0.371182 -0.094321
-0.053017 0.371182 -0.094321
0.056631 0.371182 -0.094321
0.103746 0.371182 -0.094321
0.146166 0.371182 -0.094321
0.187570 0.371182 -0.094321
0.228724 0.371113 -0.094321
0.269657 0.370601 -0.094321
0.314427 0.374252 -0.094321
0.359877 0.377092 -0.094321
0.408384 0.381471 -0.094321
0.459305 0.386501 -0.094321
0.510777 0.390642 -0.094321
0.562619 0.394086 -0.094321
0.614215 0.396439 -0.094321
0.671696 0.397445 -0.094321
-0.064444 0.433757 -0.094321
-0.052814 0.433757 -0.094321
0.058103 0.433757 -0.094321
0.106057 0.433757 -0.094321
0.149319 0.433757 -0.094321
0.191567 0.433757 -0.094321
0.233724 0.433757 -0.094321
0.275962 0.433669 -0.094321
0.318123 0.433156 -0.094321
0.364469 0.437003 -0.094321
0.411057 0.439478 -0.094321
0.459305 0.442300 -0.094321
0.510777 0.447108 -0.094321
0.562619 0.450890 -0.094321
0.614215 0.453681 -0.094321
0.671696 0.454835 -0.094321
-0.064473 0.497781 -0.094321
-0.052614 0.497781 -0.094321
0.059519 0.497781 -0.094321
0.108278 0.497781 -0.094321
0.152374 0.497781 -0.094321
0.195431 0.497781 -0.094321
0.238425 0.497781 -0.094321
0.281598 0.497781 -0.094321
0.325032 0.497645 -0.094321
0.368554 0.497190 -0.094321
0.416071 0.500531 -0.094321
0.463209 0.501993 -0.094321
0.510777 0.503206 -0.094321
0.562619 0.507480 -0.094321
0.614215 0.510527 -0.094321
0.671696 0.511918 -0.094321
-0.064495 0.562475 -0.094321
-0.052466 0.562475 -0.094321
0.060726 0.562475 -0.094321
0.110218 0.562475 -0.094321
0.155008 0.562475 -0.094321
0.198815 0.562475 -0.094321
0.242563 0.562475 -0.094321
0.286499 0.562475 -0.094321
0.330816 0.562475 -0.094321
0.375540 0.562365 -0.094321
0.420636 0.562070 -0.094321
0.468530 0.563992 -0.094321
0.515877 0.564491 -0.094321
0.562734 0.563805 -0.094321
0.614215 0.567164 -0.094321
0.671696 0.568657 -0.094321
-0.064505 0.626981 -0.094321
-0.052400 0.626981 -0.094321
0.061641 0.626981 -0.094321
0.111753 0.626981 -0.094321
0.157139 0.626981 -0.094321
0.201531 0.626981 -0.094321
0.245855 0.626981 -0.094321
0.290356 0.626981 -0.094321
0.335302 0.626981 -0.094321
0.380742 0.626981 -0.094321
0.426811 0.626972 -0.094321
0.473441 0.626805 -0.094321
0.521490 0.627583 -0.094321
0.568843 0.626868 -0.094321
0.615269 0.624875 -0.094321
0.671696 0.625352 -0.094321
-0.064509 0.691188 -0.094321
-0.052373 0.691188 -0.094321
0.062337 0.691188 -0.094321
0.112978 0.691188 -0.094321
0.158866 0.691188 -0.094321
0.203730 0.691188 -0.094321
0.248524 0.691188 -0.094321
0.293575 0.691188 -0.094321
0.338949 0.691188 -0.094321
0.384885 0.691188 -0.094321
0.431509 0.691188 -0.094321
0.478841 0.691200 -0.094321
0.526736 0.691254 -0.094321
0.574603 0.690504 -0.094321
0.621453 0.688175 -0.094321
0.672901 0.683207 -0.094321
-0.064503 0.755161 -0.094321
-0.052411 0.755161 -0.094321
0.062794 0.755161 -0.094321
0.113869 0.755161 -0.094321
0.160163 0.755161 -0.094321
0.205369 0.755161 -0.094321
0.250538 0.755161 -0.094321
0.295912 0.755161 -0.094321
0.341673 0.755161 -0.094321
0.387979 0.755161 -0.094321
0.434977 0.755161 -0.094321
0.482672 0.755161 -0.094321
0.530917 0.755198 -0.094321
0.580134 0.755482 -0.094321
0.627296 0.752775 -0.094321
0.679152 0.747151 -0.094321
-0.064490 0.817964 -0.094321
-0.052491 0.817964 -0.094321
0.063035 0.817964 -0.094321
0.114450 0.817964 -0.094321
0.160952 0.817964 -0.094321
0.206490 0.817964 -0.094321
0.251874 0.817964 -0.094321
0.297506 0.817964 -0.094321
0.343504 0.817964 -0.094321
0.390047 0.817964 -0.094321
0.437239 0.817964 -0.094321
0.485238 0.817964 -0.094321
0.533703 0.817964 -0.094321
0.583019 0.818036 -0.094321
0.633304 0.818701 -0.094321
0.685108 0.811865 -0.094321
-0.064666 0.944263 -0.098400
-0.053092 0.944263 -0.098077
0.063717 0.944263 -0.097374
0.116019 0.944263 -0.096985
0.163014 0.944263 -0.096996
0.208763 0.944263 -0.097043
0.254386 0.944263 -0.097105
0.300067 0.944263 -0.097159
0.346164 0.944263 -0.097204
0.392647 0.944263 -0.097251
0.439846 0.944263 -0.097274
0.487908 0.944263 -0.097292
0.536545 0.944263 -0.097300
0.586205 0.944263 -0.097288
0.636491 0.944362 -0.097263
0.695617 0.944688 -0.097253
-0.065048 -0.403233 -0.043858
-0.040676 -0.403233 -0.041720
0.051399 -0.403233 -0.070304
0.093128 -0.403233 -0.070980
0.133768 -0.403233 -0.070334
0.175168 -0.403233 -0.069509
0.218143 -0.403233 -0.068703
0.262963 -0.403233 -0.067933
0.309766 -0.403233 -0.067223
0.358539 -0.403233 -0.066566
0.408836 -0.403233 -0.066066
0.459993 -0.403233 -0.065808
0.511608 -0.403233 -0.065734
0.563369 -0.403233 -0.065857
0.614698 -0.403233 -0.066156
0.671757 -0.403233 -0.066776
-0.065244 -0.055144 -0.051991
-0.041196 -0.055144 -0.052792
0.051908 -0.055289 -0.051923
0.093979 -0.055723 -0.050982
0.134670 -0.056285 -0.050999
0.176037 -0.056776 -0.051132
0.218840 -0.057183 -0.051269
0.263488 -0.057529 -0.051398
0.309969 -0.057831 -0.051511
0.358385 -0.058086 -0.051616
0.408384 -0.058276 -0.051692
0.459305 -0.058385 -0.051737
0.510777 -0.058418 -0.051749
0.562619 -0.058376 -0.051726
0.614215 -0.058255 -0.051673
0.671696 -0.058119 -0.051619
-0.065244 0.074636 -0.074810
-0.041286 0.074636 -0.051923
0.051899 0.074504 -0.054357
0.093956 0.076806 -0.054357
0.134670 0.079001 -0.054357
0.176037 0.080800 -0.054357
0.218840 0.082510 -0.054357
0.263488 0.084243 -0.054357
0.309969 0.085915 -0.054357
0.358385 0.087576 -0.054357
0.408384 0.089075 -0.054357
0.459305 0.090283 -0.054357
0.510777 0.091282 -0.054357
0.562619 0.092052 -0.054357
0.614215 0.092569 -0.054357
0.671696 0.092669 -0.054357
-0.065244 0.134624 -0.074883
-0.041568 0.134624 -0.050982
0.053802 0.134593 -0.054357
0.094261 0.134321 -0.054357
0.134697 0.137564 -0.054357
0.176037 0.140567 -0.054357
0.218840 0.143370 -0.054357
0.263488 0.146202 -0.054357
0.309969 0.148960 -0.054357
0.358385 0.151706 -0.054357
0.408384 0.154197 -0.054357
0.459305 0.156253 -0.054357
0.510777 0.157956 -0.054357
0.562619 0.159293 -0.054357
0.614215 0.160273 -0.054357
0.671696 0.160607 -0.054357
-0.065244 0.191996 -0.074299
-0.041929 0.191996 -0.050999
0.055634 0.191996 -0.054357
0.097558 0.191970 -0.054357
0.135723 0.191556 -0.054357
0.176628 0.195053 -0.054357
0.218840 0.198358 -0.054357
0.263488 0.202209 -0.054357
0.309969 0.206017 -0.054357
0.358385 0.209752 -0.054357
0.408384 0.213163 -0.054357
0.459305 0.216001 -0.054357
0.510777 0.218372 -0.054357
0.562619 0.220216 -0.054357
0.614215 0.221576 -0.054357
0.671696 0.222116 -0.054357
-0.065244 0.250249 -0.073608
-0.042247 0.250249 -0.051132
0.057225 0.250249 -0.054357
0.100337 0.250249 -0.054357
0.139990 0.250182 -0.054357
0.178488 0.249768 -0.054357
0.220522 0.253373 -0.054357
0.263488 0.256434 -0.054357
0.309969 0.261226 -0.054357
0.358385 0.265983 -0.054357
0.408384 0.270269 -0.054357
0.459305 0.273840 -0.054357
0.510777 0.276857 -0.054357
0.562619 0.279235 -0.054357
0.614215 0.280946 -0.054357
0.671696 0.281646 -0.054357
-0.065244 0.310049 -0.072950
-0.042510 0.310049 -0.051269
0.058741 0.310049 -0.054357
0.102885 0.310049 -0.054357
0.143663 0.310049 -0.054357
0.183581 0.309974 -0.054357
0.223091 0.309540 -0.054357
0.266480 0.313257 -0.054357
0.310426 0.316072 -0.054357
0.358385 0.321353 -0.054357
0.408384 0.326483 -0.054357
0.459305 0.330781 -0.054357
0.510777 0.334430 -0.054357
0.562619 0.337229 -0.054357
0.614215 0.339384 -0.054357
0.671696 0.340280 -0.054357
-0.065244 0.371182 -0.072324
-0.042735 0.371182 -0.051398
0.060193 0.371182 -0.054357
0.105327 0.371182 -0.054357
0.147025 0.371182 -0.054357
0.188054 0.371182 -0.054357
0.228932 0.371095 -0.054357
0.269604 0.370524 -0.054357
0.314470 0.374435 -0.054357
0.359880 0.377420 -0.054357
0.408384 0.381833 -0.054357
0.459305 0.386894 -0.054357
0.510777 0.391179 -0.054357
0.562619 0.394483 -0.054357
0.614215 0.396987 -0.054357
0.671696 0.397956 -0.054357
-0.065244 0.433757 -0.071742
-0.042932 0.433757 -0.051511
0.061556 0.433757 -0.054357
0.107631 0.433757 -0.054357
0.150226 0.433757 -0.054357
0.192130 0.433757 -0.054357
0.234033 0.433757 -0.054357
0.276117 0.433662 -0.054357
0.318098 0.433113 -0.054357
0.364484 0.437160 -0.054357
0.411112 0.439701 -0.054357
0.459305 0.442582 -0.054357
0.510777 0.447422 -0.054357
0.562619 0.451254 -0.054357
0.614215 0.454050 -0.054357
0.671696 0.455252 -0.054357
-0.065244 0.497781 -0.071214
-0.043099 0.497781 -0.051616
0.062863 0.497781 -0.054357
0.109827 0.497781 -0.054357
0.153289 0.497781 -0.054357
0.196037 0.497781 -0.054357
0.238803 0.497781 -0.054357
0.281843 0.497781 -0.054357
0.325111 0.497638 -0.054357
0.368553 0.497150 -0.054357
0.416077 0.500677 -0.054357
0.463217 0.502141 -0.054357
0.510777 0.503406 -0.054357
0.562619 0.507681 -0.054357
0.614215 0.510840 -0.054357
0.671696 0.512230 -0.054357
-0.065244 0.562475 -0.070808
-0.043223 0.562475 -0.051692
0.063995 0.562475 -0.054357
0.111755 0.562475 -0.054357
0.155931 0.562475 -0.054357
0.199447 0.562475 -0.054357
0.242958 0.562475 -0.054357
0.286772 0.562475 -0.054357
0.330955 0.562475 -0.054357
0.375627 0.562362 -0.054357
0.420619 0.562055 -0.054357
0.468533 0.564082 -0.054357
0.515878 0.564659 -0.054357
0.562739 0.563984 -0.054357
0.614215 0.567403 -0.054357
0.671696 0.568896 -0.054357
-0.065244 0.626981 -0.070599
-0.043295 0.626981 -0.051737
0.064896 0.626981 -0.054357
0.113287 0.626981 -0.054357
0.158067 0.626981 -0.054357
0.202189 0.626981 -0.054357
0.246284 0.626981 -0.054357
0.290689 0.626981 -0.054357
0.335510 0.626981 -0.054357
0.380883 0.626981 -0.054357
0.426868 0.626970 -0.054357
0.473427 0.626788 -0.054357
0.521454 0.627593 -0.054357
0.568854 0.626943 -0.054357
0.615315 0.625052 -0.054357
0.671696 0.625559 -0.054357
-0.065244 0.691188 -0.070539
-0.043315 0.691188 -0.051749
0.065614 0.691188 -0.054357
0.114542 0.691188 -0.054357
0.159838 0.691188 -0.054357
0.204415 0.691188 -0.054357
0.248997 0.691188 -0.054357
0.293894 0.691188 -0.054357
0.339200 0.691188 -0.054357
0.385096 0.691188 -0.054357
0.431616 0.691188 -0.054357
0.478832 0.691196 -0.054357
0.526716 0.691228 -0.054357
0.574482 0.690468 -0.054357
0.621437 0.688280 -0.054357
0.672850 0.683284 -0.054357
-0.065244 0.755161 -0.070636
-0.043283 0.755161 -0.051726
0.066138 0.755161 -0.054357
0.115469 0.755161 -0.054357
0.161108 0.755161 -0.054357
0.206067 0.755161 -0.054357
0.251027 0.755161 -0.054357
0.296297 0.755161 -0.054357
0.341955 0.755161 -0.054357
0.388208 0.755161 -0.054357
0.435061 0.755161 -0.054357
0.482791 0.755161 -0.054357
0.530956 0.755194 -0.054357
0.580123 0.755465 -0.054357
0.627304 0.752820 -0.054357
0.679072 0.747148 -0.054357
-0.065244 0.817964 -0.070874
-0.043207 0.817964 -0.051673
0.066474 0.817964 -0.054357
0.116089 0.817964 -0.054357
0.161998 0.817964 -0.054357
0.207183 0.817964 -0.054357
0.252388 0.817964 -0.054357
0.297902 0.817964 -0.054357
0.343843 0.817964 -0.054357
0.390271 0.817964 -0.054357
0.437427 0.817964 -0.054357
0.485372 0.817964 -0.054357
0.533793 0.817964 -0.054357
0.583045 0.818034 -0.054357
0.633294 0.818685 -0.054357
0.685088 0.811908 -0.054357
-0.065020 0.944263 -0.091224
-0.041847 0.944263 -0.077792
0.068158 0.944263 -0.078681
0.118008 0.944263 -0.078197
0.164267 0.944263 -0.078264
0.209684 0.944263 -0.078825
0.255022 0.944263 -0.079406
0.300629 0.944263 -0.079954
0.346494 0.944263 -0.080451
0.392996 0.944263 -0.080875
0.440073 0.944263 -0.081197
0.488098 0.944263 -0.081377
0.536665 0.944263 -0.081422
0.586247 0.944263 -0.081346
0.636509 0.944359 -0.081130
0.695612 0.944678 -0.080886
-0.064799 -0.403136 0.124729
-0.054906 -0.403188 0.124433
0.051600 -0.403233 0.124429
0.093186 -0.403233 0.119660
0.133615 -0.403233 0.121276
0.175070 -0.403233 0.123972
0.218059 -0.403233 0.126839
0.262912 -0.403233 0.129803
0.309707 -0.403233 0.132741
0.358505 -0.403233 0.135610
0.408829 -0.403233 0.138126
0.459960 -0.403233 0.140139
0.511582 -0.403233 0.141714
0.563361 -0.403233 0.142822
0.614714 -0.403233 0.143472
0.671755 -0.403233 0.143363
-0.065020 -0.070041 0.116606
-0.040340 -0.054183 0.116606
0.052443 -0.055144 0.116554
0.094282 -0.055144 0.119710
0.134670 -0.055144 0.122851
0.176037 -0.055144 0.125813
0.218840 -0.055144 0.128591
0.263488 -0.055144 0.131342
0.309969 -0.055144 0.134005
0.358385 -0.055144 0.136626
0.408384 -0.055144 0.138954
0.459305 -0.055144 0.140853
0.510777 -0.055144 0.142418
0.562619 -0.055144 0.143616
0.614215 -0.055144 0.144432
0.671696 -0.055144 0.144698
-0.065244 0.075626 0.116876
-0.041196 0.075194 0.116554
0.051908 0.074826 0.116437
0.094084 0.074506 0.116270
0.134670 0.074146 0.116129
0.176037 0.073716 0.116378
0.218840 0.073365 0.116814
0.263487 0.073041 0.117403
0.309969 0.072745 0.118074
0.358385 0.072499 0.118813
0.408384 0.072320 0.119595
0.459305 0.072215 0.120422
0.510777 0.072186 0.121254
0.562619 0.072243 0.122100
0.614215 0.072368 0.122942
0.671696 0.072511 0.123832
-0.065244 0.134624 0.112243
-0.041196 0.134624 0.119964
0.051812 0.134624 0.116522
0.093906 0.134513 0.116714
0.134658 0.136546 0.116606
0.176037 0.138088 0.116606
0.218840 0.139459 0.116606
0.263487 0.140807 0.116606
0.309969 0.142122 0.116606
0.358385 0.143428 0.116606
0.408384 0.144569 0.116606
0.459305 0.145436 0.116606
0.510777 0.146096 0.116606
0.562619 0.146505 0.116606
0.614215 0.146713 0.116606
0.671696 0.146372 0.116606
-0.065244 0.191996 0.114885
-0.041196 0.191996 0.124106
0.051552 0.191996 0.117197
0.095358 0.191985 0.117148
0.134850 0.191722 0.116606
0.176378 0.194383 0.116606
0.218840 0.196811 0.116606
0.263487 0.199667 0.116606
0.309969 0.202460 0.116606
0.358385 0.205280 0.116606
0.408384 0.207760 0.116606
0.459305 0.209828 0.116606
0.510777 0.211465 0.116606
0.562619 0.212728 0.116606
0.614215 0.213608 0.116606
0.671696 0.213674 0.116606
-0.065244 0.250249 0.118182
-0.041196 0.250249 0.127835
0.051240 0.250249 0.118203
0.096246 0.250249 0.117680
0.137284 0.250182 0.116606
0.177452 0.249860 0.116606
0.220059 0.252851 0.116606
0.263487 0.255470 0.116606
0.309969 0.259449 0.116606
0.358385 0.263439 0.116606
0.408384 0.267004 0.116606
0.459305 0.269959 0.116606
0.510777 0.272431 0.116606
0.562619 0.274312 0.116606
0.614215 0.275623 0.116606
0.671696 0.275972 0.116606
-0.065244 0.310049 0.121550
-0.041196 0.310049 0.131321
0.050979 0.310049 0.119389
0.096915 0.310049 0.118245
0.139243 0.310049 0.116606
0.181172 0.309978 0.116606
0.221971 0.309588 0.116606
0.265922 0.312910 0.116606
0.310307 0.315345 0.116606
0.358385 0.320023 0.116606
0.408384 0.324649 0.116606
0.459305 0.328349 0.116606
0.510777 0.331518 0.116606
0.562619 0.333899 0.116606
0.614215 0.335691 0.116606
0.671696 0.336266 0.116606
-0.065244 0.371182 0.124889
-0.041196 0.371182 0.134637
0.050742 0.371182 0.120626
0.097497 0.371182 0.118803
0.141038 0.371182 0.116606
0.184361 0.371182 0.116606
0.226724 0.371121 0.116606
0.268500 0.370661 0.116606
0.313853 0.374136 0.116606
0.359724 0.376840 0.116606
0.408384 0.380890 0.116606
0.459305 0.385495 0.116606
0.510777 0.389242 0.116606
0.562619 0.392177 0.116606
0.614215 0.394345 0.116606
0.671696 0.395059 0.116606
-0.065244 0.433757 0.128058
-0.041196 0.433757 0.137726
0.050534 0.433757 0.121851
0.098027 0.433757 0.119328
0.142749 0.433757 0.116606
0.187343 0.433757 0.116606
0.230901 0.433757 0.116606
0.274104 0.433668 0.116606
0.317001 0.433182 0.116606
0.363804 0.436906 0.116606
0.410872 0.439271 0.116606
0.459305 0.441866 0.116606
0.510777 0.446291 0.116606
0.562619 0.449761 0.116606
0.614215 0.452273 0.116606
0.671696 0.453137 0.116606
-0.065244 0.497781 0.131094
-0.041196 0.497781 0.140671
0.050350 0.497781 0.123086
0.098503 0.497781 0.119829
0.144385 0.497781 0.116606
0.190210 0.497781 0.116606
0.234812 0.497781 0.116606
0.279097 0.497781 0.116606
0.323314 0.497651 0.116606
0.367523 0.497231 0.116606
0.415401 0.500378 0.116606
0.462919 0.501786 0.116606
0.510777 0.502911 0.116606
0.562619 0.506815 0.116606
0.614215 0.509682 0.116606
0.671696 0.510723 0.116606
-0.065244 0.562475 0.133684
-0.041196 0.562475 0.143228
0.050215 0.562475 0.124272
0.098850 0.562475 0.120295
0.145790 0.562475 0.116606
0.192693 0.562475 0.116606
0.238224 0.562475 0.116606
0.283367 0.562475 0.116606
0.328546 0.562475 0.116606
0.373950 0.562370 0.116606
0.419621 0.562092 0.116606
0.467874 0.563907 0.116606
0.515529 0.564327 0.116606
0.562706 0.563597 0.116606
0.614215 0.566677 0.116606
0.671696 0.567926 0.116606
-0.065244 0.626981 0.135686
-0.041196 0.626981 0.145238
0.050138 0.626981 0.125406
0.099014 0.626981 0.120750
0.146784 0.626981 0.116606
0.194590 0.626981 0.116606
0.240887 0.626981 0.116606
0.286742 0.626981 0.116606
0.332553 0.626981 0.116606
0.378710 0.626981 0.116606
0.425370 0.626930 0.116606
0.472522 0.626824 0.116606
0.520842 0.627524 0.116606
0.568504 0.626620 0.116606
0.615241 0.624815 0.116606
0.671696 0.625032 0.116606
-0.065244 0.691188 0.137206
-0.041196 0.691188 0.146849
0.050123 0.691188 0.126520
0.099057 0.691188 0.121198
0.147467 0.691188 0.116606
0.196107 0.691188 0.116606
0.243009 0.691188 0.116606
0.289415 0.691188 0.116606
0.335860 0.691188 0.116606
0.382506 0.691188 0.116606
0.429718 0.691188 0.116606
0.477468 0.691203 0.116606
0.525776 0.691192 0.116606
0.574010 0.690323 0.116606
0.621100 0.688113 0.116606
0.672718 0.683012 0.116606
-0.065244 0.755161 0.138230
-0.041196 0.755161 0.148025
0.050160 0.755161 0.127591
0.098974 0.755161 0.121643
0.147868 0.755161 0.116606
0.197104 0.755161 0.116606
0.244539 0.755161 0.116606
0.291375 0.755161 0.116606
0.338123 0.755161 0.116606
0.385236 0.755161 0.116606
0.432840 0.755161 0.116606
0.481022 0.755161 0.116606
0.529741 0.755203 0.116606
0.579330 0.755500 0.116606
0.626759 0.752688 0.116606
0.678894 0.747038 0.116606
-0.065244 0.817964 0.138770
-0.041196 0.817964 0.148781
0.050257 0.817964 0.128612
0.098766 0.817964 0.122096
0.147926 0.817964 0.116606
0.197683 0.817964 0.116606
0.245447 0.817964 0.116606
0.292583 0.817964 0.116606
0.339684 0.817964 0.116606
0.387024 0.817964 0.116606
0.434857 0.817964 0.116606
0.483367 0.817964 0.116606
0.532206 0.817964 0.116606
0.581944 0.818039 0.116606
0.632526 0.818716 0.116606
0.684622 0.811831 0.116606
-0.065003 0.944263 0.119574
-0.040131 0.944263 0.132385
0.051118 0.944263 0.107264
0.099651 0.944263 0.096940
0.153580 0.944263 0.096466
0.202454 0.944263 0.095721
0.249750 0.944263 0.094915
0.296581 0.944263 0.094160
0.343413 0.944263 0.093460
0.390485 0.944263 0.092845
0.438111 0.944263 0.092368
0.486505 0.944263 0.092108
0.535428 0.944263 0.092029
0.585303 0.944263 0.092136
0.635775 0.944365 0.092471
0.695079 0.944696 0.092828
-0.064761 -0.403125 0.205164
-0.055368 -0.403184 0.205162
0.050220 -0.403233 0.205459
0.095077 -0.403234 0.205419
0.135690 -0.403234 0.206980
0.176464 -0.403234 0.209295
0.218198 -0.403234 0.211806
0.263044 -0.403234 0.216011
0.309786 -0.403234 0.220225
0.358603 -0.403234 0.224387
0.408877 -0.403234 0.228119
0.460017 -0.403234 0.231214
0.511597 -0.403234 0.233738
0.563377 -0.403234 0.235685
0.614702 -0.403234 0.237014
0.671797 -0.403234 0.237413
-0.065003 -0.070728 0.197050
-0.040320 -0.054182 0.197050
0.055095 -0.055289 0.197050
0.095518 -0.055144 0.196638
0.136299 -0.055144 0.201033
0.177017 -0.055144 0.204068
0.218840 -0.055144 0.207040
0.263488 -0.055144 0.211186
0.309969 -0.055144 0.215197
0.358385 -0.055144 0.219143
0.408384 -0.055144 0.222718
0.459305 -0.055144 0.225700
0.510777 -0.055144 0.228176
0.562619 -0.055144 0.230128
0.614215 -0.055144 0.231536
0.671696 -0.055144 0.232134
-0.065244 0.072852 0.197050
-0.041286 0.078955 0.197050
0.051815 0.075296 0.197050
0.094598 0.074636 0.196759
0.135848 0.074636 0.199339
0.176773 0.074636 0.201074
0.218840 0.074636 0.203174
0.263487 0.074636 0.206331
0.309969 0.074636 0.209460
0.358385 0.074636 0.212633
0.408384 0.074636 0.215542
0.459305 0.074636 0.218026
0.510777 0.074636 0.220117
0.562619 0.074636 0.221830
0.614215 0.074636 0.223164
0.671696 0.074636 0.223910
-0.065244 0.136229 0.196752
-0.041196 0.136111 0.196638
0.051908 0.135929 0.196759
0.093979 0.135462 0.196882
0.134669 0.134560 0.196744
0.176362 0.134390 0.196487
0.218840 0.134173 0.196815
0.263487 0.133980 0.197764
0.309969 0.133786 0.198821
0.358385 0.133637 0.199965
0.408384 0.133519 0.201144
0.459304 0.133456 0.202366
0.510777 0.133449 0.203580
0.562620 0.133492 0.204807
0.614215 0.133592 0.206016
0.671696 0.133699 0.207301
-0.065244 0.192255 0.198199
-0.041196 0.192357 0.201033
0.051908 0.192296 0.199339
0.093926 0.192140 0.196744
0.134620 0.192034 0.197050
0.176011 0.193304 0.197050
0.218840 0.194237 0.197085
0.263487 0.195019 0.197103
0.309969 0.195768 0.197124
0.358385 0.196431 0.197098
0.408384 0.196914 0.197070
0.459304 0.197122 0.197050
0.510777 0.197158 0.197050
0.562620 0.196973 0.197062
0.614215 0.196649 0.197135
0.671696 0.195824 0.197314
-0.065244 0.250249 0.202566
-0.041196 0.250249 0.206206
0.051908 0.250249 0.203208
0.093812 0.250249 0.198385
0.135586 0.250235 0.198370
0.175877 0.250039 0.197562
0.219134 0.252050 0.197050
0.263487 0.253839 0.197050
0.309969 0.256212 0.197050
0.358385 0.258589 0.197050
0.408384 0.260678 0.197050
0.459304 0.262293 0.197050
