apps/typegpu-docs/public/assets/cube-luts/tinyglade-Bluecine_75.cube
TITLE "Generated by Resolve"
LUT_3D_SIZE 33
1.5259e-05 0 0
0.0215457 0 0
0.0473793 0.000503548 0.00183108
0.0758068 0.00259403 0.00436408
0.100099 0.00459297 0.00643931
0.124361 0.0065156 0.00843824
0.144579 0.00787366 0.00985733
0.167941 0.00933852 0.0113832
0.190921 0.0106508 0.0127718
0.213855 0.0118105 0.0139925
0.23505 0.0128939 0.0151522
0.255848 0.0138247 0.0161288
0.278523 0.0146639 0.0170291
0.302144 0.0155337 0.0179751
0.324468 0.0162814 0.0187839
0.345785 0.0172274 0.0197757
0.368353 0.0179904 0.0205997
0.389624 0.0187381 0.0214084
0.409232 0.0194095 0.0221408
0.430518 0.0202945 0.0230716
0.45304 0.0211948 0.024033
0.475151 0.0219883 0.0249027
0.49453 0.0227207 0.0256809
0.515877 0.0236973 0.0267033
0.536233 0.0246433 0.0277104
0.555215 0.0254978 0.0286107
0.576028 0.0265965 0.0297704
0.596399 0.0279088 0.0311437
0.61474 0.0289769 0.0322576
0.635035 0.0303044 0.0336461
0.65481 0.0317082 0.0350958
0.669444 0.0329595 0.0363928
0.669444 0.0329595 0.0363928
0.000396735 0.0200504 0.0235752
0.0234379 0.0220645 0.0256657
0.0493782 0.024445 0.0281376
0.0775158 0.0266728 0.030457
0.101579 0.0284123 0.0322576
0.125536 0.0300603 0.0339818
0.145525 0.0312657 0.0352178
0.169177 0.0329595 0.0370184
0.192111 0.034165 0.0382849
0.214817 0.0353857 0.0395666
0.236103 0.0363317 0.0405737
0.256764 0.0371405 0.0414282
0.279561 0.0379034 0.042237
0.30341 0.0390173 0.0434272
0.325795 0.0399481 0.044419
0.346899 0.04065 0.0451667
0.369528 0.0414282 0.0460212
0.390661 0.0422217 0.0468605
0.41062 0.0431678 0.0478676
0.431937 0.0441596 0.0489204
0.454505 0.0450141 0.049836
0.476493 0.0457923 0.05066
0.496223 0.0467689 0.0516823
0.517479 0.0477913 0.0527657
0.537896 0.0487831 0.0538186
0.557061 0.049897 0.0549935
0.578042 0.0510872 0.0562295
0.598489 0.0524453 0.0576333
0.617014 0.0536202 0.0588693
0.637537 0.055024 0.0603189
0.657282 0.0566873 0.0620432
0.671412 0.0581216 0.0635233
0.671412 0.0581521 0.0635538
0.00177005 0.0472877 0.0530404
0.0249027 0.0492409 0.0550851
0.0506142 0.0512398 0.0571603
0.0787518 0.0534066 0.0594034
0.102541 0.0550393 0.0611124
0.126558 0.0566415 0.0627909
0.146563 0.0580758 0.0642863
0.170184 0.0594949 0.0657816
0.193072 0.0607309 0.0670787
0.215717 0.0617838 0.0681773
0.236957 0.0629129 0.0693675
0.257725 0.0637522 0.0702678
0.280858 0.0648356 0.0714122
0.304585 0.0657511 0.0724041
0.326833 0.0665141 0.0732128
0.34815 0.0675364 0.0742809
0.370932 0.0684062 0.075227
0.391989 0.0692912 0.0761578
0.412146 0.0703136 0.0772564
0.433555 0.071458 0.0784619
0.456382 0.0723735 0.0794232
0.478325 0.0733806 0.0804761
0.498131 0.0743267 0.0814832
0.519783 0.0757916 0.0830091
0.540383 0.0770428 0.0843214
0.559625 0.078172 0.0855116
0.580774 0.0794232 0.0868086
0.601114 0.0808576 0.088304
0.620172 0.0824598 0.0899519
0.640909 0.0843824 0.0919509
0.660716 0.0860914 0.0937057
0.674403 0.0874342 0.0950942
0.674403 0.0874495 0.0951247
0.00288396 0.0741588 0.0821851
0.0259098 0.0760967 0.0841993
0.0518044 0.0780499 0.0862287
0.0797589 0.0799573 0.0882124
0.103609 0.0818036 0.090135
0.127733 0.0835889 0.0920119
0.147433 0.0848554 0.0933394
0.171328 0.0863508 0.0948959
0.194095 0.08748 0.0960861
0.2168 0.0887007 0.0973831
0.238148 0.0899977 0.0987564
0.259159 0.0910353 0.0998398
0.282078 0.0920424 0.100908
0.306111 0.092958 0.101884
0.328191 0.093904 0.102892
0.34963 0.0949569 0.104021
0.373068 0.0964218 0.105562
0.393912 0.0973068 0.106493
0.414099 0.0983139 0.107561
0.435615 0.099443 0.108751
0.458747 0.100664 0.110033
0.480751 0.101976 0.111391
0.500923 0.103258 0.112749
0.52253 0.104585 0.114137
0.543145 0.105943 0.115557
0.562951 0.107408 0.117067
0.584237 0.10898 0.118715
0.604715 0.110643 0.120424
0.62385 0.112428 0.122286
0.644862 0.114519 0.124437
0.664973 0.11664 0.126619
0.678187 0.117845 0.127855
0.678203 0.117998 0.128023
0.00366217 0.0986038 0.108751
0.0267643 0.100557 0.11078
0.0527199 0.102434 0.112734
0.0807507 0.104768 0.115175
0.104646 0.10663 0.117113
0.128542 0.108217 0.118776
0.148241 0.109514 0.120134
0.172366 0.111101 0.121798
0.195148 0.112306 0.123079
0.218128 0.113817 0.124666
0.239475 0.115236 0.126162
0.260349 0.116182 0.127169
0.283528 0.117342 0.128389
0.307729 0.11841 0.129534
0.329778 0.119509 0.130694
0.351644 0.121004 0.132265
0.375128 0.122255 0.133593
0.395895 0.12343 0.134829
0.416281 0.124605 0.136065
0.438041 0.125887 0.137407
0.461387 0.127245 0.138827
0.48365 0.12903 0.140703
0.503883 0.130343 0.142077
0.52575 0.131884 0.143679
0.546456 0.133425 0.145281
0.566506 0.135103 0.147005
0.588266 0.137285 0.149294
0.608896 0.139208 0.151278
0.628077 0.140948 0.153079
0.649271 0.143191 0.155383
0.669444 0.145449 0.157702
0.682506 0.146975 0.159274
0.682597 0.147478 0.159808
0.00436408 0.122301 0.134569
0.0274662 0.124147 0.136507
0.0534981 0.12636 0.138827
0.0816663 0.12874 0.141314
0.105455 0.130449 0.143099
0.129473 0.13228 0.145022
0.14905 0.133608 0.14641
0.173449 0.135225 0.148119
0.196567 0.136995 0.149981
0.219486 0.138491 0.151568
0.240803 0.139757 0.152895
0.261875 0.140963 0.154162
0.285206 0.142306 0.155581
0.309712 0.143709 0.157076
0.331914 0.145159 0.158602
0.353689 0.146365 0.159869
0.37734 0.147967 0.161547
0.398276 0.149355 0.163012
0.418891 0.150713 0.164431
0.441047 0.152377 0.166186
0.464607 0.154025 0.16791
0.486748 0.155764 0.169711
0.507378 0.157382 0.171389
0.529397 0.159152 0.173236
0.550225 0.160815 0.17496
0.570596 0.162951 0.177188
0.592569 0.165316 0.179629
0.613367 0.167391 0.18175
0.633005 0.169604 0.184039
0.654353 0.171969 0.186465
0.674403 0.174456 0.189029
0.687434 0.176593 0.191226
0.687434 0.176593 0.191226
0.00503548 0.144106 0.15845
0.0284733 0.146273 0.160723
0.0544289 0.148333 0.16289
0.082414 0.150607 0.165255
0.10631 0.152529 0.167269
0.130388 0.154421 0.169253
0.150134 0.156207 0.171115
0.175082 0.15819 0.173205
0.19791 0.159762 0.174853
0.221042 0.161364 0.176532
0.242298 0.162737 0.177981
0.263508 0.163989 0.179309
0.287175 0.165652 0.181064
0.311879 0.167346 0.182834
0.334325 0.168933 0.184512
0.35613 0.170382 0.186023
0.379858 0.172076 0.187793
0.400793 0.17351 0.189288
0.421897 0.17525 0.191119
0.444221 0.177234 0.193179
0.468238 0.179156 0.195178
0.490135 0.180972 0.19707
0.511025 0.182681 0.198856
0.533288 0.184756 0.201007
0.554498 0.187091 0.203418
0.575204 0.189303 0.205692
0.597269 0.191699 0.208179
0.618082 0.194095 0.210636
0.638025 0.196475 0.213077
0.659968 0.199634 0.216342
0.679957 0.202289 0.219059
0.692454 0.204135 0.220951
0.692485 0.204257 0.221073
0.00567636 0.16788 0.184527
0.0291905 0.16994 0.186679
0.0554665 0.172259 0.18912
0.0834058 0.174731 0.191699
0.107439 0.176715 0.193774
0.131563 0.178943 0.196094
0.151522 0.180774 0.198016
0.176577 0.182803 0.200137
0.199466 0.184649 0.202075
0.222858 0.186328 0.203815
0.244099 0.187869 0.205447
0.265721 0.189731 0.207416
0.289693 0.191409 0.209155
0.31426 0.193256 0.211093
0.336934 0.194965 0.212879
0.358953 0.196674 0.214664
0.383169 0.19881 0.216892
0.404211 0.200717 0.218891
0.425498 0.202426 0.220661
0.44802 0.204593 0.222904
0.472282 0.206821 0.225208
0.494377 0.208911 0.227375
0.515724 0.211154 0.229709
0.538399 0.213535 0.232166
0.559442 0.215824 0.234531
0.580484 0.218418 0.237201
0.602899 0.221103 0.239963
0.623941 0.223789 0.242725
0.644297 0.226673 0.245686
0.666255 0.229755 0.248859
0.686168 0.232654 0.25182
0.698238 0.234546 0.253758
0.698238 0.234546 0.253758
0.00610361 0.19057 0.209476
0.0299687 0.192874 0.211887
0.0563668 0.195315 0.214435
0.0843977 0.198032 0.217258
0.108873 0.200534 0.219883
0.13286 0.202808 0.222248
0.152941 0.204654 0.224186
0.178271 0.206851 0.226459
0.201236 0.208896 0.228595
0.224842 0.210895 0.230686
0.246448 0.212818 0.232715
0.26804 0.214801 0.23476
0.2925 0.216831 0.236896
0.317266 0.218814 0.238956
0.339895 0.220706 0.24094
0.362219 0.222675 0.242985
0.386816 0.225116 0.245518
0.407828 0.227146 0.247639
0.42948 0.229267 0.249821
0.452323 0.231632 0.252262
0.476799 0.23418 0.254902
0.499168 0.236637 0.25745
0.520836 0.239185 0.260075
0.543679 0.24181 0.262776
0.564858 0.244221 0.265248
0.586145 0.247044 0.268147
0.608667 0.249973 0.271168
0.630014 0.253162 0.274449
0.65037 0.255894 0.277241
0.672389 0.258991 0.280415
0.692271 0.262043 0.283528
0.703807 0.263859 0.285389
0.703868 0.264164 0.285725
0.00683604 0.212894 0.234012
0.03093 0.215381 0.236606
0.057557 0.217975 0.239322
0.0856794 0.221027 0.242512
0.110048 0.223621 0.245212
0.134203 0.226001 0.247669
0.15462 0.228061 0.249805
0.17995 0.230579 0.25243
0.203433 0.232944 0.254902
0.227466 0.235401 0.25745
0.248981 0.237507 0.259632
0.270619 0.239384 0.261585
0.295415 0.241627 0.26392
0.320455 0.243946 0.266316
0.343511 0.246403 0.268879
0.366064 0.2486 0.271153
0.39086 0.251164 0.273808
0.411994 0.253498 0.276204
0.434043 0.25594 0.278721
0.456977 0.258518 0.281376
0.482048 0.261555 0.284504
0.504234 0.264118 0.287144
0.526009 0.26656 0.289662
0.549035 0.269398 0.292576
0.570504 0.272297 0.295537
0.591867 0.27509 0.298405
0.614618 0.278309 0.301717
0.635706 0.281285 0.304768
0.65626 0.284153 0.307683
0.678401 0.287495 0.311101
0.698405 0.290806 0.314488
0.709194 0.292454 0.316167
0.709255 0.292729 0.316457
0.00756847 0.235676 0.259052
0.032166 0.238575 0.262074
0.0592813 0.241611 0.265232
0.0872663 0.24477 0.268498
0.111727 0.247379 0.271199
0.136034 0.250172 0.274067
0.156863 0.252399 0.276371
0.182574 0.255512 0.279606
0.206119 0.257969 0.282155
0.230167 0.260487 0.284749
0.251789 0.262699 0.287037
0.273793 0.264973 0.289387
0.298924 0.267399 0.29189
0.324453 0.270359 0.294957
0.347417 0.272786 0.297459
0.370321 0.275257 0.299992
0.39556 0.278218 0.303044
0.416632 0.280751 0.305638
0.438926 0.283375 0.308339
0.462257 0.286336 0.311376
0.487404 0.289403 0.314534
0.509514 0.291981 0.317174
0.531518 0.294682 0.319936
0.554849 0.297765 0.323079
0.576226 0.300725 0.326116
0.59791 0.303792 0.329274
0.620417 0.30695 0.332494
0.641535 0.309834 0.335439
0.662333 0.312978 0.338643
0.684718 0.316487 0.342229
0.70457 0.319966 0.345785
0.714687 0.321447 0.347295
0.714687 0.321477 0.347326
0.0087892 0.257527 0.282963
0.033402 0.260395 0.285939
0.0606699 0.26363 0.289265
0.0888838 0.267018 0.29276
0.113725 0.270115 0.295964
0.137987 0.272938 0.298848
0.159411 0.275731 0.301747
0.185 0.278843 0.304952
0.208972 0.281544 0.307729
0.233112 0.284321 0.310582
0.254978 0.286809 0.313146
0.277409 0.289418 0.315816
0.303212 0.292607 0.319112
0.328832 0.295491 0.322072
0.351888 0.298131 0.324773
0.374792 0.300847 0.327565
0.400275 0.303899 0.330694
0.421485 0.306676 0.333547
0.444022 0.309453 0.336385
0.467033 0.312322 0.33933
0.492638 0.315511 0.342565
0.514763 0.318425 0.345556
0.537026 0.321187 0.348379
0.560342 0.324559 0.351827
0.581643 0.327367 0.354711
0.603265 0.33022 0.357626
0.625895 0.333547 0.360998
0.647303 0.336858 0.36437
0.668269 0.340032 0.36762
0.690639 0.343679 0.371344
0.710002 0.346685 0.374395
0.719921 0.348409 0.376135
0.719951 0.348547 0.376287
0.0101778 0.281575 0.309148
0.0350347 0.284871 0.312551
0.0628672 0.288319 0.316091
0.0910201 0.291859 0.319738
0.116274 0.29543 0.3234
0.140841 0.298726 0.326772
0.162478 0.301564 0.329686
0.188251 0.304891 0.333104
0.212512 0.307897 0.336156
0.236881 0.311086 0.339422
0.259434 0.314199 0.342626
0.282063 0.31696 0.345449
0.307729 0.320119 0.348684
0.333654 0.323125 0.351766
0.356802 0.325963 0.35465
0.379705 0.328786 0.357549
0.405783 0.33225 0.361089
0.426673 0.33492 0.363821
0.449439 0.337835 0.366796
0.472724 0.341039 0.370062
0.498497 0.344244 0.373327
0.520348 0.347051 0.376196
0.543053 0.350256 0.379477
0.566171 0.353445 0.382727
0.58732 0.356268 0.385595
0.609171 0.359197 0.388586
0.632136 0.362799 0.392233
0.653178 0.365927 0.395422
0.674479 0.369345 0.398917
0.696681 0.372854 0.402472
0.716014 0.375891 0.405554
0.725475 0.377569 0.407248
0.725505 0.377707 0.407401
0.0119631 0.306722 0.336385
0.0371862 0.310307 0.340063
0.0655222 0.314305 0.344152
0.0941787 0.318425 0.348363
0.119509 0.322057 0.352087
0.144259 0.325628 0.355734
0.166461 0.328908 0.359075
0.192554 0.332555 0.362799
0.216968 0.33579 0.366094
0.241733 0.339498 0.369894
0.264195 0.342458 0.372915
0.286961 0.345266 0.375769
0.312779 0.348608 0.379171
0.338842 0.351766 0.382391
0.36202 0.354726 0.385397
0.385443 0.358038 0.3888
0.41149 0.361395 0.392218
0.432166 0.363973 0.394842
0.455314 0.367239 0.398154
0.478599 0.370367 0.401343
0.504692 0.373953 0.40499
0.526497 0.376837 0.407935
0.548928 0.379736 0.41088
0.572168 0.382956 0.414145
0.593362 0.385962 0.417212
0.615442 0.389136 0.420432
0.638529 0.392828 0.424186
0.659464 0.396017 0.42742
0.680766 0.399191 0.43064
0.703182 0.402869 0.434363
0.722606 0.40618 0.437705
0.731456 0.407599 0.439139
0.731548 0.408011 0.439597
0.0145266 0.330312 0.361791
0.039826 0.334035 0.365591
0.0686656 0.338628 0.370291
0.0975814 0.343008 0.374731
0.123339 0.347021 0.37882
0.14815 0.350713 0.382559
0.170474 0.354055 0.385977
0.196948 0.35816 0.390143
0.221775 0.361761 0.393805
0.246296 0.36524 0.397345
0.268757 0.368231 0.400397
0.291814 0.371206 0.403403
0.3178 0.374685 0.406943
0.34406 0.37821 0.410544
0.367254 0.381308 0.413687
0.390768 0.384573 0.416999
0.416999 0.388052 0.420539
0.437705 0.390723 0.423239
0.460639 0.39382 0.426398
0.484184 0.397116 0.429755
0.510292 0.400626 0.43331
0.531899 0.403494 0.436225
0.55462 0.406668 0.439445
0.578088 0.41001 0.442832
0.599115 0.412955 0.445823
0.621485 0.416419 0.449348
0.644465 0.419898 0.452888
0.665293 0.423117 0.456153
0.686946 0.426596 0.459663
0.709438 0.430335 0.463462
0.728634 0.433494 0.466667
0.737346 0.435401 0.46862
0.737377 0.435523 0.468742
0.0175479 0.355383 0.388602
0.0437476 0.359869 0.393179
0.0727703 0.364538 0.39791
0.101564 0.369009 0.402457
0.127611 0.373205 0.406714
0.152499 0.377127 0.410681
0.175219 0.380789 0.414405
0.201846 0.385 0.418677
0.226688 0.388678 0.422415
0.251286 0.392187 0.425971
0.273884 0.395315 0.42916
0.297292 0.398672 0.432563
0.323522 0.402319 0.436286
0.349828 0.405936 0.439963
0.372992 0.408972 0.443046
0.396323 0.41207 0.446204
0.422614 0.415579 0.449775
0.443259 0.418265 0.452522
0.46656 0.421759 0.456077
0.489967 0.424887 0.459266
0.516182 0.428351 0.462806
0.537972 0.431525 0.466011
0.560708 0.434653 0.469215
0.584344 0.438254 0.472892
0.605447 0.441321 0.47602
0.627756 0.444648 0.479408
0.651011 0.448325 0.483146
0.67187 0.451652 0.486534
0.693401 0.455039 0.489967
0.716091 0.459068 0.494102
0.735256 0.462333 0.497414
0.743343 0.463722 0.498817
0.743374 0.463828 0.498939
0.0213931 0.380163 0.415
0.0477455 0.384695 0.419623
0.0771038 0.389578 0.424582
0.106126 0.394522 0.429603
0.132418 0.398779 0.433936
0.157366 0.403204 0.438437
0.180377 0.406928 0.442237
0.207004 0.410971 0.446342
0.231754 0.414694 0.450141
0.256489 0.418341 0.453864
0.279271 0.421592 0.457176
0.302815 0.425055 0.460716
0.328954 0.428656 0.464393
0.355016 0.432074 0.467872
0.378317 0.435203 0.471077
0.401801 0.438254 0.474189
0.428244 0.442069 0.47808
0.449104 0.445228 0.481331
0.472374 0.448478 0.484627
0.495964 0.451621 0.487831
0.522179 0.455283 0.491569
0.543801 0.458167 0.494514
0.566842 0.461646 0.49807
0.590478 0.465263 0.501747
0.611734 0.468437 0.504982
0.634089 0.471824 0.508431
0.65716 0.47538 0.512047
0.678019 0.478614 0.515328
0.699825 0.482475 0.519265
0.722408 0.486244 0.523095
0.741695 0.489708 0.526604
0.749126 0.490837 0.527764
0.749126 0.490867 0.527794
0.0260624 0.407095 0.443824
0.0525063 0.411643 0.448478
0.0819409 0.416632 0.453559
0.111147 0.421759 0.458778
0.137774 0.42649 0.463615
0.162539 0.430686 0.467872
0.185763 0.434379 0.471641
0.212345 0.43859 0.475929
0.237263 0.442512 0.479912
0.262074 0.446204 0.48368
0.285023 0.449668 0.487221
0.308537 0.452949 0.490578
0.334737 0.45655 0.49424
0.360739 0.460121 0.497887
0.384253 0.463432 0.501244
0.408042 0.466835 0.504707
0.434607 0.470741 0.508705
0.4551 0.47364 0.51165
0.478538 0.47686 0.514931
0.502113 0.48014 0.518273
0.528511 0.483955 0.522148
0.550225 0.487205 0.52546
0.573587 0.490806 0.529122
0.597147 0.494163 0.532525
0.618112 0.497261 0.535668
0.640635 0.50071 0.539178
0.663874 0.504509 0.543038
0.68481 0.507912 0.546517
0.706706 0.511742 0.550393
0.729229 0.515465 0.554162
0.748135 0.518669 0.557412
0.75555 0.520043 0.558816
0.755627 0.520333 0.559121
0.030396 0.432197 0.470756
0.0571603 0.436957 0.475593
0.0869764 0.442298 0.481025
0.116304 0.447715 0.486534
0.142809 0.452232 0.491127
0.167514 0.456474 0.495445
0.19089 0.460334 0.499367
0.217441 0.464439 0.503548
0.242847 0.46891 0.508095
0.267704 0.472709 0.511971
0.290471 0.475914 0.515206
0.314076 0.479271 0.518639
0.34023 0.482902 0.522316
0.366384 0.48661 0.526085
0.390204 0.490257 0.529809
0.413825 0.493416 0.533013
0.440238 0.49723 0.536904
0.460777 0.500221 0.53994
0.484489 0.5037 0.543465
0.508354 0.50724 0.547066
0.535012 0.511299 0.551186
0.556298 0.514199 0.554131
0.579553 0.517617 0.557595
0.603143 0.520989 0.561013
0.624079 0.524102 0.564187
0.647028 0.527977 0.568109
0.670314 0.531838 0.57203
0.690974 0.535027 0.575265
0.712749 0.538643 0.578927
0.735164 0.542306 0.58262
0.754147 0.545617 0.585977
0.761227 0.547021 0.587411
0.761273 0.547173 0.587564
0.0353704 0.459937 0.500374
0.0626078 0.465202 0.50573
0.0925917 0.470695 0.511299
0.121828 0.475914 0.516594
0.148363 0.480583 0.521324
0.173114 0.48484 0.525643
0.196536 0.488762 0.529625
0.22356 0.493431 0.534371
0.248554 0.497353 0.538338
0.273304 0.501152 0.542199
0.296284 0.504555 0.545647
0.320012 0.507942 0.549081
0.346288 0.511788 0.552987
0.372717 0.515755 0.557015
0.396323 0.519127 0.560449
0.420111 0.522515 0.563867
0.44651 0.526284 0.567697
0.467308 0.529534 0.570993
0.49099 0.532982 0.574472
0.514931 0.53669 0.578241
0.541512 0.540505 0.582116
0.562768 0.543557 0.585199
0.586053 0.546868 0.588556
0.609796 0.550576 0.592294
0.631098 0.554086 0.59585
0.653712 0.557458 0.599268
0.676829 0.56109 0.60296
0.697459 0.564385 0.606271
0.719234 0.567895 0.609812
0.741985 0.571939 0.613901
0.760876 0.57528 0.617288
0.76759 0.576471 0.618494
0.76759 0.576547 0.618585
0.0403754 0.485863 0.527916
0.0675212 0.490974 0.533104
0.0973983 0.496315 0.538521
0.126558 0.501488 0.543755
0.153185 0.506233 0.548547
0.177966 0.510521 0.55288
0.201862 0.5149 0.557321
0.228565 0.51931 0.561791
0.253697 0.523308 0.565835
0.278614 0.527214 0.569787
0.301595 0.530709 0.573327
0.325856 0.534722 0.577386
0.352392 0.538659 0.581384
0.37847 0.542351 0.585107
0.402136 0.545769 0.588571
0.425971 0.549203 0.59205
0.452399 0.553094 0.595987
0.473198 0.556344 0.599283
0.496956 0.559823 0.602792
0.520638 0.563226 0.606226
0.547463 0.567254 0.6103
0.568734 0.570352 0.613428
0.592081 0.573785 0.616892
0.615946 0.577508 0.620661
0.636805 0.580591 0.623789
0.659434 0.583963 0.627176
0.682765 0.587808 0.631067
0.703456 0.591134 0.634409
0.725231 0.59469 0.63801
0.747845 0.598627 0.641978
0.766415 0.601694 0.645075
0.773098 0.602808 0.646189
0.773129 0.60293 0.646326
0.0455787 0.514336 0.558053
0.0729076 0.519524 0.563302
0.102907 0.525002 0.568826
0.132265 0.530465 0.574334
0.159228 0.5355 0.579431
0.184054 0.539956 0.583947
0.207904 0.544167 0.58819
0.234546 0.548424 0.592493
0.259907 0.552789 0.596887
0.284932 0.556771 0.600916
0.308186 0.56051 0.604685
0.332067 0.564126 0.608331
0.358618 0.568109 0.61236
0.384771 0.571862 0.616144
0.408469 0.575311 0.619623
0.432425 0.578698 0.623041
0.459007 0.582895 0.627283
0.479698 0.586023 0.630442
0.503624 0.58967 0.634119
0.527306 0.592966 0.63743
0.553933 0.596887 0.641382
0.575128 0.599817 0.644343
0.598718 0.603525 0.648081
0.622309 0.607004 0.651591
0.643275 0.610132 0.654734
0.665995 0.613642 0.658274
0.689036 0.617197 0.661845
0.70988 0.620661 0.665339
0.731533 0.624109 0.668818
0.753918 0.627695 0.672419
0.772717 0.630961 0.6757
0.779126 0.631907 0.676646
0.779156 0.632044 0.676799
0.0504311 0.539559 0.584604
0.0776532 0.544778 0.589883
0.107652 0.550164 0.5953
0.13727 0.555871 0.601068
0.164218 0.560891 0.606119
0.189197 0.565454 0.610712
0.213016 0.569665 0.614954
0.239918 0.574151 0.619471
0.265187 0.578408 0.623758
0.290517 0.582742 0.628138
0.313558 0.586221 0.631647
0.33753 0.589868 0.635309
0.36408 0.593881 0.639353
0.390311 0.597696 0.643183
0.414359 0.601511 0.647028
0.438499 0.605173 0.650721
0.464805 0.608957 0.654521
0.48539 0.611963 0.657557
0.509133 0.615427 0.661036
0.532799 0.618708 0.664317
0.559686 0.622904 0.668559
0.581094 0.626078 0.671733
0.604395 0.629435 0.675105
0.627955 0.632837 0.678538
0.648737 0.635752 0.681468
0.67129 0.639109 0.68484
0.694545 0.642924 0.688685
0.715389 0.646372 0.692134
0.736934 0.649653 0.695415
0.759243 0.653147 0.698924
0.777722 0.656062 0.701854
0.784451 0.657252 0.703059
0.784512 0.657526 0.703334
0.054963 0.564569 0.610834
0.0823377 0.569955 0.616251
0.112856 0.576074 0.622415
0.142489 0.581643 0.628016
0.169406 0.586664 0.633051
0.194522 0.591241 0.637644
0.218189 0.595453 0.641886
0.245441 0.600275 0.646723
0.270893 0.604623 0.651118
0.296025 0.608698 0.655192
0.319097 0.612268 0.658778
0.342992 0.615808 0.662333
0.369574 0.619837 0.666377
0.395972 0.62388 0.670451
0.419806 0.62739 0.673961
0.443641 0.630808 0.677394
0.470207 0.634684 0.681285
0.49099 0.637873 0.684489
0.514656 0.641306 0.687922
0.538552 0.644846 0.691493
0.565087 0.648676 0.695338
0.586374 0.651637 0.698299
0.609506 0.654841 0.701503
0.633265 0.658442 0.705119
0.654108 0.661418 0.70811
0.676768 0.664897 0.711589
0.699687 0.668299 0.715007
0.72015 0.671366 0.718074
0.741939 0.674846 0.721569
0.764096 0.678309 0.725032
0.782864 0.681407 0.72813
0.7897 0.682582 0.72932
0.789731 0.682689 0.729427
0.0597696 0.590066 0.637415
0.0872663 0.595697 0.643061
0.117647 0.601617 0.649012
0.147173 0.607126 0.654536
0.174212 0.6121 0.65951
0.199542 0.616815 0.66424
0.223239 0.621103 0.668544
0.250584 0.626001 0.673457
0.276005 0.630289 0.67776
0.301091 0.634379 0.681849
0.324483 0.638132 0.685618
0.348333 0.641764 0.689265
0.375036 0.645945 0.693446
0.401587 0.649851 0.697353
0.425086 0.653239 0.700755
0.44889 0.656565 0.704082
0.475532 0.660456 0.707973
0.496345 0.663539 0.711086
0.519951 0.667079 0.714626
0.543786 0.670527 0.71809
0.570138 0.674205 0.721752
0.591669 0.677058 0.72462
0.614588 0.680308 0.727871
0.638163 0.683726 0.731304
0.65922 0.686809 0.734386
0.681651 0.690089 0.737682
0.704387 0.693355 0.740948
0.724956 0.696284 0.743877
0.746319 0.699489 0.747082
0.768765 0.703166 0.750774
0.787518 0.706111 0.753719
0.79469 0.707225 0.754833
0.79469 0.707225 0.754833
0.0648508 0.616144 0.664439
0.0918441 0.621393 0.669718
0.122118 0.627283 0.675608
0.15227 0.633005 0.681331
0.179278 0.638148 0.686473
0.205173 0.643107 0.691447
0.228641 0.647334 0.695674
0.255818 0.652125 0.700481
0.2813 0.656291 0.704646
0.306371 0.660365 0.708736
0.329656 0.664027 0.712398
0.353552 0.667918 0.716304
0.37995 0.671733 0.720119
0.406638 0.675593 0.723995
0.430137 0.67892 0.727306
0.454032 0.682475 0.730861
0.480842 0.686427 0.734813
0.501625 0.689357 0.737758
0.52491 0.692668 0.74107
0.548531 0.695933 0.74435
0.574731 0.699351 0.747768
0.596658 0.702556 0.750957
0.619501 0.705852 0.754269
0.642878 0.709026 0.757443
0.663844 0.711879 0.760296
0.685969 0.714946 0.763378
0.708843 0.718212 0.766629
0.729473 0.721141 0.769574
0.750957 0.724422 0.772854
0.773007 0.727626 0.776074
0.791913 0.730694 0.779141
0.799542 0.731548 0.779995
0.799573 0.731701 0.780148
0.0704356 0.645869 0.695171
0.0977035 0.651286 0.700587
0.127825 0.657038 0.70634
0.15819 0.662867 0.712184
0.185458 0.668284 0.717601
0.211353 0.67306 0.722377
0.234562 0.677241 0.726558
0.261723 0.68191 0.731243
0.28719 0.686122 0.735454
0.31252 0.690257 0.73959
0.335882 0.694041 0.743374
0.359457 0.697673 0.747005
0.386099 0.701686 0.751034
0.412695 0.705348 0.754681
0.436332 0.708659 0.757992
0.460105 0.712184 0.761532
0.486442 0.715801 0.765148
0.507469 0.7187 0.768048
0.530663 0.721874 0.771221
0.554177 0.72517 0.774517
0.580407 0.72874 0.778088
0.602258 0.731594 0.780941
0.624872 0.734539 0.783886
0.64799 0.737606 0.786969
0.669367 0.740505 0.789853
0.691173 0.743358 0.792706
0.713817 0.746593 0.795956
