apps/typegpu-docs/public/assets/cube-luts/tinyglade-Cold_Ice.cube
LUT_3D_SIZE 6
-0.065244 -0.081470 -0.094321
0.093979 -0.080297 -0.094321
0.218840 -0.080389 -0.094321
0.358385 -0.080511 -0.094321
0.510777 -0.080554 -0.094321
0.671696 -0.080512 -0.094321
-0.064301 0.134624 -0.094321
0.094495 0.134660 -0.094321
0.218840 0.141262 -0.094321
0.358385 0.149632 -0.094321
0.510777 0.155870 -0.094321
0.671696 0.158285 -0.094321
-0.064378 0.310049 -0.094321
0.101333 0.310049 -0.094321
0.223147 0.309591 -0.094321
0.358385 0.320850 -0.094321
0.510777 0.333828 -0.094321
0.671696 0.339540 -0.094321
-0.064473 0.497781 -0.094321
0.108278 0.497781 -0.094321
0.238425 0.497781 -0.094321
0.368554 0.497190 -0.094321
0.510777 0.503206 -0.094321
0.671696 0.511918 -0.094321
-0.064509 0.691188 -0.094321
0.112978 0.691188 -0.094321
0.248524 0.691188 -0.094321
0.384885 0.691188 -0.094321
0.526736 0.691254 -0.094321
0.672901 0.683207 -0.094321
-0.064666 0.944263 -0.098400
0.116019 0.944263 -0.096985
0.254386 0.944263 -0.097105
0.392647 0.944263 -0.097251
0.536545 0.944263 -0.097300
0.695617 0.944688 -0.097253
-0.064761 -0.403125 0.205164
0.095077 -0.403234 0.205419
0.218198 -0.403234 0.211806
0.358603 -0.403234 0.224387
0.511597 -0.403234 0.233738
0.671797 -0.403234 0.237413
-0.065244 0.136229 0.196752
0.093979 0.135462 0.196882
0.218840 0.134173 0.196815
0.358385 0.133637 0.199965
0.510777 0.133449 0.203580
0.671696 0.133699 0.207301
-0.065244 0.310049 0.207415
0.093655 0.310049 0.200431
0.219488 0.309704 0.197050
0.358385 0.317721 0.197050
0.510777 0.325766 0.197050
0.671696 0.328153 0.197050
-0.065244 0.497781 0.221288
0.093257 0.497781 0.206678
0.226294 0.497781 0.197050
0.365206 0.497299 0.197050
0.510777 0.502051 0.197050
0.671696 0.507851 0.197050
-0.065244 0.691188 0.230792
0.093119 0.691188 0.212341
0.229814 0.691188 0.197050
0.377044 0.691188 0.197050
0.523905 0.691278 0.197050
0.672589 0.682615 0.197050
-0.065006 0.944263 0.221925
0.093428 0.944263 0.201486
0.233549 0.944263 0.180673
0.382940 0.944263 0.178991
0.531483 0.944263 0.178324
0.693358 0.944722 0.178970
-0.064811 -0.403140 0.441399
0.104496 -0.403233 0.441958
0.229889 -0.403233 0.442301
0.366178 -0.403233 0.453430
0.511731 -0.403233 0.462315
0.671807 -0.403233 0.470297
-0.065244 0.147902 0.432578
0.093450 0.138941 0.432578
0.225740 0.134624 0.432197
0.363800 0.134624 0.439851
0.510777 0.134624 0.447668
0.671696 0.134624 0.454937
-0.065244 0.318263 0.432043
0.093979 0.317702 0.432197
0.218840 0.314121 0.432493
0.359688 0.309852 0.432195
0.510777 0.309784 0.435002
0.671696 0.310071 0.440756
-0.065244 0.497781 0.447201
0.093979 0.497781 0.444772
0.218691 0.497781 0.436238
0.358288 0.497549 0.434059
0.510777 0.498774 0.432578
0.671696 0.496261 0.432578
-0.065244 0.691188 0.465602
0.093979 0.691188 0.461413
0.218663 0.691188 0.446780
0.359025 0.691188 0.438101
0.514595 0.691384 0.432578
0.672202 0.681877 0.432578
-0.065036 0.944263 0.465160
0.093396 0.944263 0.460061
0.218622 0.944263 0.444995
0.354519 0.944263 0.427889
0.510849 0.944263 0.418068
0.683993 0.944746 0.418783
-0.064862 -0.403155 0.667419
0.112140 -0.403233 0.667610
0.246228 -0.403233 0.667990
0.380182 -0.403233 0.667411
0.526093 -0.403233 0.673377
0.671803 -0.403233 0.666729
-0.065244 0.158055 0.657743
0.092931 0.141748 0.657743
0.236974 0.134624 0.657743
0.376351 0.134624 0.657408
0.523243 0.134624 0.661677
0.671696 0.134624 0.656603
-0.065244 0.339547 0.657743
0.093979 0.336099 0.657743
0.218576 0.320576 0.657743
0.363184 0.310049 0.657665
0.518217 0.310049 0.658567
0.671696 0.310049 0.653954
-0.065244 0.511487 0.657310
0.093979 0.511049 0.657408
0.218840 0.508480 0.657665
0.358385 0.503569 0.657726
0.511311 0.497926 0.657824
0.671696 0.498254 0.658629
-0.065244 0.691188 0.665684
0.093979 0.691188 0.664603
0.218840 0.691188 0.661390
0.358537 0.691188 0.659842
0.510954 0.691400 0.658727
0.671688 0.683782 0.657743
-0.065057 0.944263 0.670425
0.092983 0.944263 0.668437
0.217878 0.944263 0.662507
0.358409 0.944263 0.662210
0.503915 0.944263 0.653949
0.673021 0.944677 0.647100
-0.064879 -0.403161 0.877928
0.116604 -0.403233 0.878112
0.255677 -0.403233 0.878197
0.394811 -0.403233 0.877840
0.539963 -0.403233 0.877176
0.689733 -0.403233 0.867744
-0.065244 0.164132 0.867569
0.092747 0.144079 0.867569
0.243412 0.134624 0.867569
0.388980 0.134624 0.867569
0.536981 0.134624 0.867740
0.687975 0.134624 0.858477
-0.065244 0.352149 0.867569
0.093979 0.347141 0.867569
0.218512 0.325614 0.867569
0.366696 0.310049 0.867569
0.527144 0.310049 0.867759
0.683739 0.310049 0.857634
-0.065244 0.530972 0.867569
0.093979 0.529002 0.867569
0.218840 0.520950 0.867569
0.358532 0.510189 0.867569
0.512014 0.497781 0.867733
0.677629 0.497781 0.859556
-0.065244 0.707535 0.867732
0.093979 0.707096 0.867740
0.218840 0.705298 0.867760
0.358385 0.701603 0.867733
0.510777 0.696794 0.867663
0.671696 0.692142 0.867944
-0.065060 0.944263 0.855993
0.092938 0.944263 0.855225
0.217801 0.944263 0.853467
0.358009 0.944263 0.853924
0.510991 0.944263 0.860967
0.671818 0.944565 0.859703
-0.064856 -0.403154 1.085381
0.116431 -0.403233 1.085405
0.255720 -0.403233 1.085441
0.394800 -0.403233 1.085358
0.539528 -0.403233 1.085064
0.698976 -0.403233 1.084685
-0.065244 0.164432 1.075437
0.093006 0.145665 1.075437
0.243241 0.134624 1.075437
0.389234 0.134624 1.075437
0.537320 0.134624 1.075437
0.697697 0.134624 1.075437
-0.065244 0.353309 1.075437
0.093979 0.348232 1.075437
0.218816 0.328407 1.075437
0.363750 0.310049 1.075437
0.523941 0.310049 1.075437
0.691251 0.310049 1.075437
-0.065244 0.532787 1.075437
0.093979 0.530425 1.075437
0.218840 0.521557 1.075437
0.358948 0.513739 1.075437
0.505825 0.497781 1.075437
0.681435 0.497781 1.075437
-0.065244 0.709832 1.075437
0.093979 0.708715 1.075437
0.218840 0.704766 1.075437
0.358385 0.700479 1.075437
0.511223 0.700430 1.075437
0.671898 0.692028 1.075437
-0.065244 0.897657 1.075437
0.093979 0.897559 1.075437
0.218840 0.896605 1.075437
0.358385 0.894802 1.075437
0.510777 0.892314 1.075437
0.671696 0.889671 1.075437
