apps/typegpu-docs/public/assets/cube-luts/tinyglade-Bluecine_75.cube
TITLE "Generated by Resolve"
LUT_3D_SIZE 5
1.5259e-05 0 0
0.190921 0.0106508 0.0127718
0.368353 0.0179904 0.0205997
0.536233 0.0246433 0.0277104
0.669444 0.0329595 0.0363928
0.00610361 0.19057 0.209476
0.201236 0.208896 0.228595
0.386816 0.225116 0.245518
0.564858 0.244221 0.265248
0.703868 0.264164 0.285725
0.0213931 0.380163 0.415
0.231754 0.414694 0.450141
0.428244 0.442069 0.47808
0.611734 0.468437 0.504982
0.749126 0.490867 0.527794
0.0597696 0.590066 0.637415
0.276005 0.630289 0.67776
0.475532 0.660456 0.707973
0.65922 0.686809 0.734386
0.79469 0.707225 0.754833
0.102388 0.798138 0.852277
0.317006 0.836027 0.89041
0.511391 0.860563 0.91516
0.69189 0.88011 0.934981
0.830701 0.895445 0.950561
0.00108339 0.0419776 0.0473182
0.19263 0.0555734 0.0614633
0.370398 0.0632486 0.0696422
0.539391 0.0712749 0.0781109
0.673716 0.0816968 0.0889143
0.00721752 0.239429 0.263172
0.205814 0.261723 0.286244
0.395666 0.282414 0.307561
0.576577 0.305119 0.330846
0.715648 0.326085 0.352255
0.0319829 0.440726 0.479866
0.244739 0.477729 0.517479
0.442313 0.506172 0.546395
0.626657 0.533654 0.574289
0.763149 0.556176 0.597101
0.0760204 0.654841 0.704402
0.292912 0.695247 0.744839
0.49163 0.72433 0.773938
0.673747 0.74876 0.798367
0.806775 0.767407 0.817014
0.120165 0.859693 0.916609
0.332677 0.894499 0.951858
0.524666 0.916381 0.974166
0.702449 0.933471 0.991699
0.836973 0.94522 1
0.00282292 0.0818036 0.090486
0.194095 0.0952163 0.104494
0.373007 0.104036 0.113817
0.543786 0.114305 0.124605
0.679438 0.126848 0.13756
0.00924697 0.284489 0.312306
0.212116 0.311421 0.339971
0.405249 0.335622 0.364706
0.587411 0.35996 0.389532
0.726345 0.381567 0.411505
0.0428779 0.495598 0.538231
0.256657 0.533486 0.576577
0.455375 0.563394 0.606821
0.639612 0.59057 0.634256
0.775219 0.61297 0.656855
0.0915694 0.711635 0.76289
0.307866 0.750973 0.802213
0.505379 0.778775 0.83003
0.685771 0.801083 0.852384
0.816571 0.818082 0.869444
0.134936 0.911604 0.971222
0.344839 0.943694 1
0.535088 0.963668 1
0.708644 0.976959 1
0.839323 0.985473 1
0.00222782 0.120775 0.132937
0.194629 0.135653 0.148516
0.375189 0.146426 0.159884
0.54844 0.15938 0.173419
0.687114 0.175006 0.189532
0.0118105 0.331456 0.363027
0.219196 0.363104 0.395254
0.414405 0.389471 0.422065
0.597391 0.41445 0.447425
0.737545 0.437171 0.470512
0.0526741 0.548669 0.594171
0.26772 0.587732 0.633494
0.467323 0.618433 0.664393
0.651164 0.64509 0.691173
0.786343 0.666667 0.712825
0.106279 0.767758 0.820722
0.321706 0.805844 0.858915
0.517464 0.831434 0.884642
0.695949 0.851713 0.905104
0.825849 0.867109 0.920653
0.146822 0.961776 1
0.354314 0.99147 1
0.541146 1 1
0.711223 1 1
0.840986 1 1
0.00128176 0.160479 0.17644
0.194125 0.177035 0.193759
0.376928 0.190585 0.207965
0.553796 0.206897 0.224903
0.69662 0.225956 0.24448
0.0157626 0.381003 0.415946
0.226398 0.415702 0.451255
0.422736 0.44332 0.479469
0.607538 0.469749 0.506401
0.749645 0.49308 0.530144
0.0626535 0.602975 0.650797
0.278859 0.643015 0.690929
0.478477 0.673335 0.721294
0.661662 0.699092 0.747082
0.797009 0.719188 0.767208
0.119173 0.819394 0.874327
0.332845 0.855482 0.910689
0.526894 0.87895 0.934447
0.703716 0.897475 0.953292
0.832853 0.910826 0.966918
0.149859 0.979614 1
0.356054 1 1
0.541146 1 1
0.710597 1 1
0.841382 1 1
